JhonPool4/journal_ws/src/motion_ur5_rviz/src/Data/PDi/circular_traj/articular_kp_0.5_alpha_0.5_beta_0.2_gamma_0.8_t_20.csv
x,y,z,w,ex,ey,ez,dx,dy,dz,dw,dex,dey,dez,ddx,ddy,ddz,ddw,ddex,ddey,ddez,dddx,dddy,dddz,dddw,dddex,dddey,dddez,x_des,y_des,z_des,w_des,ex_des,ey_des,ez_des,dx_des,dy_des,dz_des,dw_des,dex_des,dey_des,dez_des,ddx_des,ddy_des,ddz_des,ddw_des,ddex_des,ddey_des,ddez_des,dddx_des,dddy_des,dddz_des,dddw_des,dddex_des,dddey_des,dddez_des,e_x,e_y,e_z,e_w,e_ex,e_ey,e_ez,de_x,de_y,de_z,de_w,de_ex,de_ey,de_ez,dde_x,dde_y,dde_z,dde_w,dde_ex,dde_ey,dde_ez,ddde_x,ddde_y,ddde_z,ddde_w,ddde_ex,ddde_ey,ddde_ez,q1,q2,q3,q4,q5,q6,dq1,dq2,dq3,dq4,dq5,dq6,ddq1,ddq2,ddq3,ddq4,ddq5,ddq6,q1_des,q2_des,q3_des,q4_des,q5_des,q6_des,dq1_des,dq2_des,dq3_des,dq4_des,dq5_des,dq6_des,ddq1_des,ddq2_des,ddq3_des,ddq4_des,ddq5_des,ddq6_des,KP1,KP2,KP3,KP4,KP5,KP6,KD1,KD2,KD3,KD4,KD5,KD6,u1,u2,u3,u4,u5,u6,P1,P2,P3,P4,P5,P6,J1,J2,J3,J4,J5,J6
0.4997540809885491,-0.000181767452565703,-0.0009022252545447529,0.016566966229673893,0.9998590094002199,0.0024679967386353995,-0.0011857247799980954,-0.024624912821523282,-0.018176262790540174,-0.09019788822699615,1.6830086874936667e-05,0.020135471152478185,0.07545299655570185,-0.002597632644898505,-2.462491282152328,-1.8176262790540174,-9.019788822699615,0.0016830086874936668,2.0135471152478184,7.545299655570186,-0.2597632644898505,-246.24912821523282,-181.76262790540173,-901.9788822699616,0.16830086874936667,201.35471152478183,754.5299655570185,-25.97632644898505,0.55,2.7755575615628914e-17,0.0,0.01676998,0.99985616,0.00251062,0.0,-0.0,0.031415926535897934,0.012566370614359173,0.0,0.0,0.0,0.0,-0.019739208802178717,-0.0,-0.0,0.0,0.0,0.0,0.0,0.0,-0.012402510672119928,-0.0049610042688479706,0.0,0.0,0.0,0.0,0.050245919011450924,0.00018176745256573076,0.0009022252545447529,-7.864253880329741e-07,-0.00020005544886292272,-0.0011853491245371775,6.25088650419383e-05,0.024624912821523282,0.04959218932643811,0.10276425884135532,-1.6830086874936667e-05,-0.020135471152478185,-0.07545299655570185,0.002597632644898505,2.4427520733501495,1.8176262790540174,9.019788822699615,-0.0016830086874936668,-2.0135471152478184,-7.545299655570186,0.2597632644898505,246.24912821523282,181.7502253947296,901.9739212656928,-0.16830086874936667,-201.35471152478183,-754.5299655570185,25.97632644898505,0.22518599349411123,-2.162760823578599,-2.140069370949694,-0.4191940069409733,1.5390036147839332,-1.3503938337870132,-0.03734765058887952,-0.18370635785988057,-0.03135409496939804,0.07800130590266882,0.07263647839333,-0.032870378701330534,-3.7347650588879517,-18.370635785988057,-3.1354094969398036,7.800130590266882,7.263647839332999,-3.2870378701330534,0.2254678245710482,-2.161155536055847,-2.1391814781545633,-0.42031606562450163,1.5382770500253027,-1.3501567818604427,-0.009166666933039623,-0.023169591169704705,0.05744853239923405,-0.03428140028481331,-7.413328573933688e-06,-0.009166459995840221,-0.9379070718793163,-2.236814966954606,5.87833179590239,-4.196518374982265,0.1251000787435492,-0.929385515238211,0.5,0.5,0.5,0.5,0.5,0.5,1.4142135623730951,1.4142135623730951,1.4142135623730951,1.4142135623730951,1.4142135623730951,1.4142135623730951,0.0,0.0,0.0,0.0,0.0,0.0,-0.01300944741293753,-0.0328826380947598,0.08153166958014528,-0.048652244032174684,-1.058401716020795e-05,-0.013009157975289065,1.3309842347638863,3.174918858371183,-8.341940816093771,5.9519139007902275,-0.17691452134878244,1.318932830320905
0.49952039884961624,-0.0003594999023050706,-0.0017893601519592683,0.016368415791643075,0.9998611489446512,0.0024549933948072936,-0.0019315286654018248,-0.023399227703227197,-0.017772943139303075,-0.08869133313931851,1.6724203864912464e-05,0.019695746190218643,0.07459020359470282,-0.002583910492606655,0.12256851182960854,0.04033196512370982,0.15065550876776357,-1.0588301002420323e-05,-0.043972496225954186,-0.08627929609990315,0.0013722152291850004,258.5059793981937,185.7958244177727,917.0444331467379,-0.1693596988496087,-205.75196114737724,-763.1578951670089,26.11354797190355,0.5499990130428069,0.00031415719827797533,0.00012566287931117904,0.01676998,0.99985616,0.00251062,0.0,-0.00019739078923647043,0.031415306412404455,0.012566122564961781,0.0,0.0,0.0,0.0,-0.01973881916709643,-0.00012402429067031733,-4.960971626812693e-05,0.0,0.0,0.0,0.0,7.792676008731081e-05,-0.012402265857177509,-0.0049609063428710035,0.0,0.0,0.0,0.0,0.05047861419319061,0.0006736571005830459,0.0019150230312704475,-2.0095220386595614e-06,-0.0003967407773652858,-0.0019313261523948289,8.802282629425092e-05,0.023201836913990727,0.04918824955170753,0.1012574557042803,-1.6724203864912464e-05,-0.019695746190218643,-0.07459020359470282,0.002583910492606655,-0.14230733099670498,-0.04045598941438013,-0.1507051184840317,1.0588301002420323e-05,0.043972496225954186,0.08627929609990315,-0.0013722152291850004,-258.5059014714336,-185.8082266836299,-917.0493940530807,0.1693596988496087,205.75196114737724,763.1578951670089,-26.11354797190355,0.224816843174187,-2.164578680463977,-2.1403475276865973,-0.41845432715916375,1.5397166487502558,-1.3507193199295666,-0.036915031992422735,-0.18178568853775975,-0.02781567369034515,0.07396797818095602,0.07130339663225872,-0.03254861425534459,0.04326185964567844,0.1920669322120828,0.35384212790528885,-0.40333277217127983,-0.1333081761071279,0.03217644459859433,0.22537695546050565,-2.161386851569095,-2.1385953447235977,-0.4206709081263575,1.5382769760088544,-1.3502476491841222,-0.009086911054255032,-0.023131551324801415,0.058613343096564074,-0.03548425018558525,-7.401644834430214e-06,-0.009086732367957354,0.007975587878459103,0.003803984490328982,0.11648106973300223,-0.1202849900771942,1.168373950347365e-06,0.007972762788286715,0.5,0.5,0.5,0.5,0.5,0.5,1.4142135623730951,1.4142135623730951,1.4142135623730951,1.4142135623730951,1.4142135623730951,1.4142135623730951,0.023648830376792402,31.738461202001613,7.303398240171853,1.3274175825035572,-0.003991424986496515,-4.635198958848832e-10,0.04006220211575667,0.2277740551820969,0.12797018419789327,-0.16123126314615358,-0.1030972797609157,0.03370824750878697,-5.307164952869421,-26.065669327685654,-4.643851461774793,11.257901911397889,10.308669574375552,-4.671740548407602
0.49938791439404484,-0.0005336851915158994,-0.0026646641346693006,0.016172059301558614,0.9998626876409654,0.0024417030203826924,-0.0026661672288605704,-0.013276464584176086,-0.017421036991598443,-0.08752349485396776,1.754041275925894e-05,0.01948045026429078,0.07347226983298033,-0.0025930390471672095,1.012276311905111,0.03519061477046323,0.11678382853507474,8.162088943464756e-05,-0.021529592592786292,-0.11179337617224921,-0.0009128554560554336,88.97078000755025,-0.5141350353246588,-3.3871680232688828,0.00922091904370679,2.2442903633167894,-2.5514080072346066,-0.2285070685240434,0.5499960522101908,0.0006283019941676582,0.0002513207976670522,0.01676998,0.99985616,0.00251062,0.0,-0.0003947737858225689,0.03141344606640544,0.012565378426562175,0.0,0.0,0.0,0.0,-0.019737650277231702,-0.00024804368507400256,-9.921747402960102e-05,0.0,0.0,0.0,0.0,0.00015585044375956536,-0.012401531422015132,-0.004960612568806052,0.0,0.0,0.0,0.0,0.050608137816145926,0.0011619871856835577,0.002915984932336353,-3.797308541941824e-06,-0.000591250429168439,-0.002666129142660449,0.00011363502612956709,0.012881690798353516,0.048834483058003884,0.10008887328052994,-1.754041275925894e-05,-0.01948045026429078,-0.07347226983298033,0.0025930390471672095,-1.0320139621823428,-0.03543865845553723,-0.11688304600910435,-8.162088943464756e-05,0.021529592592786292,0.11179337617224921,0.0009128554560554336,-88.97062415710649,0.5017335039026436,3.382207410700077,-0.00922091904370679,-2.2442903633167894,2.5514080072346066,0.2285070685240434,0.2244099430989316,-2.1664870838338035,-2.1403361341973577,-0.41789216474020385,1.5404190559804114,-1.351083212671787,-0.04069000752553832,-0.19084033698268305,0.0011393489239694896,0.05621624189599178,0.07024072301556268,-0.03638927422205268,-0.3774975533115586,-0.9054648444923292,2.895502261431464,-1.775173628496424,-0.10626736166960393,-0.3840659966708089,0.22524619294296575,-2.161726479871138,-2.137742336319053,-0.4211843238903516,1.5382768689709672,-1.3503784093020006,-0.01307625175399007,-0.0339628302043143,0.08530084045447625,-0.051341576399409956,-1.0703788729348291e-05,-0.013076011787836992,-0.39893406997350384,-1.0831278879512887,2.6687497357912178,-1.5857326213824705,-0.00033021438949180774,-0.3989279419879638,0.5,0.5,0.5,0.5,0.5,0.5,1.4142135623730951,1.4142135623730951,1.4142135623730951,1.4142135623730951,1.4142135623730951,1.4142135623730951,0.07534692927095224,30.594907738478913,8.36571536347889,1.3354074846564077,-0.006309583742144152,5.290703705563834e-07,0.03392780120801258,0.21047919138033458,0.1612735041157467,-0.17857946994807908,-0.10157325789344251,0.027708873818032054,0.61344009077441,1.7294863801762372,-3.3303319917853504,1.7348206801925516,-0.15240218674731718,0.5999373690754904
0.4993036536650659,-0.0007035533406136189,-0.003525962518984696,0.015977631873648306,0.9998636610757278,0.002428164663008394,-0.003388001818414705,-0.008451916295777514,-0.016990803053971548,-0.08612976313312702,1.7677916204927227e-05,0.019290076180757038,0.07219116690357781,-0.0025957256958021938,0.4824548288398572,0.04302339376268949,0.13937317208407435,1.3750344566828746e-05,-0.019037408353374252,-0.12811029294025195,-0.00026866486349842733,-52.98214830652539,0.7832778992226258,2.2589343548999605,-0.006787054486781882,0.24921842394120403,-1.6316916768002732,0.06441905925570063,0.5499911176190404,0.0009424219857704366,0.0003769687943081635,0.01676998,0.99985616,0.00251062,0.0,-0.0005921411974155642,0.03141034557134415,0.01256413822853766,0.0,0.0,0.0,0.0,-0.019735702178730295,-0.0003720532871377199,-0.00014882131485508796,0.0,0.0,0.0,0.0,0.00023376797472315897,-0.012400307395627034,-0.004960122958250813,0.0,0.0,0.0,0.0,0.0506874639539745,0.0016459753263840555,0.0039029313132928596,-6.11854754672958e-06,-0.0007838539627617845,-0.0033881209989338823,0.00013927903170145485,0.00785977509836195,0.0484011486253157,0.09869390136166468,-1.7677916204927227e-05,-0.019290076180757038,-0.07219116690357781,0.0025957256958021938,-0.5021905310185875,-0.04339544704982721,-0.13952199339892943,-1.3750344566828746e-05,0.019037408353374252,0.12811029294025195,0.00026866486349842733,52.98238207450011,-0.7956782066182528,-2.2638944778582113,0.006787054486781882,-0.24921842394120403,1.6316916768002732,-0.06441905925570063,0.22399122824035989,-2.168419548332203,-2.1401884136772438,-0.41741830716542805,1.5411108591257776,-1.3514596478793168,-0.041871485857171854,-0.19324644983991815,0.014772052011377945,0.04738575747758156,0.06918031453661849,-0.037643520752974405,-0.11814783316335344,-0.24061128572350948,1.3632703087408455,-0.8830484418410219,-0.1060408478944192,-0.12542465309217216,0.22510093907255418,-2.162108584409445,-2.1367731014352866,-0.4217714942195501,1.538276749225344,-1.3505236607380884,-0.014525387041155049,-0.03821045383069272,0.09692348837660718,-0.05871703291985514,-1.1974562310424405e-05,-0.014525143608772507,-0.14491352871649782,-0.424762362637842,1.1622647922130926,-0.7375456520445183,-0.0001270773581076114,-0.1449131820935515,0.5000005443025692,0.500355817698312,0.5000891445720472,0.499986921815756,0.5000000709396499,0.49999999999593414,1.4142286076692416,1.4263073653973717,1.416889811845534,1.4137864674598848,1.4142154736386883,1.4142135622503362,0.047910412403022754,31.351831576086663,7.685072845722198,1.3311303948873474,-0.004699093308865765,5.137268229065903e-07,0.03734785913017101,0.21804050048914467,0.1372407454551916,-0.16447986075219795,-0.10042347108545735,0.031200326009646957,-0.34200579221584415,-0.7561309108810177,2.403275866055522,-1.4099609195881122,-0.11497868079851778,-0.34914521916149555
0.4992860956101353,-0.0008690319668015487,-0.0043752834233470594,0.01578493707433827,0.9998641001862065,0.0024143934113437936,-0.004097270413587235,-0.0017798185308605826,-0.016554366961795065,-0.08494086920316848,1.801814764922351e-05,0.019119872543621005,0.070933809201781,-0.002597495080374084,0.6672097764916931,0.04364360921764836,0.11888939299585372,3.4023144429628436e-05,-0.017020363713603215,-0.12573577017968157,-0.0001769384571890381,18.47549476518359,0.062021545495886954,-2.0483779088220633,0.002027279986279969,0.20170446397710373,0.23745227605703745,0.009172640630938922,0.549984209464165,0.001256504772166902,0.0005026019088667496,0.01676998,0.99985616,0.00251062,0.0,-0.0007894852322879936,0.031406005049622834,0.012562402019849133,0.0,0.0,0.0,0.0,-0.019732974948499807,-0.0004960482011747184,-0.00019841928046988733,0.0,0.0,0.0,0.0,0.0003116762769273854,-0.012398593826335685,-0.004959437530534273,0.0,0.0,0.0,0.0,0.050698113854029725,0.0021255367389684506,0.004877885332213809,-8.945562539941498e-06,-0.0009747477048054196,-0.004097540412713737,0.00016494382510443757,0.0009903332985725889,0.047960372011417896,0.09750327122301762,-1.801814764922351e-05,-0.019119872543621005,-0.070933809201781,0.002597495080374084,-0.6869427514401929,-0.04413965741882308,-0.1190878122763236,-3.4023144429628436e-05,0.017020363713603215,0.12573577017968157,0.0001769384571890381,-18.475183088906665,-0.07442013932222263,2.043418471291529,-0.002027279986279969,-0.20170446397710373,-0.23745227605703745,-0.009172640630938922,0.22355248552634943,-2.1704012102165406,-2.139851279384298,-0.4170608598556859,1.5417924056225143,-1.3518568232224661,-0.043874271401044766,-0.19816618843377407,0.03371342929456922,0.035744730974212865,0.06815464967365849,-0.03971753431493274,-0.20027855438729136,-0.4919738593855918,1.894137728319127,-1.1641026503368694,-0.10256648629600018,-0.2074013561958336,0.22493326414081927,-2.1625576340155575,-2.135634698173167,-0.42246089445949153,1.538276610054276,-1.3506913330163808,-0.016767493173491917,-0.04490496061122978,0.11384032621198714,-0.06894002399414113,-1.3917106808585657e-05,-0.016767227829241053,-0.22421061323368677,-0.6694506780537062,1.6916837835379963,-1.0222991074285994,-0.00019425444981612512,-0.22420842204685462,0.5000012694322999,0.5008087051141413,0.5002118501947249,0.4999693899401311,0.5000001599193105,0.499999999988973,1.4142455567737562,1.4375981310624781,1.4197355896473236,1.4133595691530922,1.4142173994323646,1.4142135620864027,0.06984593514160317,31.108284563776387,7.882590718094841,1.3309131395149996,-0.005088215242912828,4.859349857191251e-07,0.03597380308296176,0.21451360161207564,0.14264609208302123,-0.16698104336056338,-0.09927267781348581,0.02990769401371933,0.13740718680269434,0.3578234043195412,-0.5414224105705483,0.250057266255608,-0.11507952458949042,0.12926319958072155
0.49931866978622175,-0.0010296994675135555,-0.0052118410764561696,0.01559378803369076,0.999864038725992,0.002400414813260656,-0.004793312636635568,0.00323499575365552,-0.016075256350340014,-0.08367065484346103,1.8129690200353893e-05,0.018967887605391313,0.06961069882776605,-0.0025958717831828376,0.5014814284516103,0.04791106114550511,0.127021435970745,1.1154255113038166e-05,-0.01519849382296927,-0.13231103740149464,0.00016232971912465144,-16.572834804008284,0.4267451927856755,0.8132042974891285,-0.002286888931659027,0.18218698906339453,-0.6575267221813064,0.033926817631368955,0.5499753280182866,0.0015705379539064424,0.0006282151815625659,0.01676998,0.99985616,0.00251062,0.0,-0.0009867980996352674,0.031400424672597856,0.012560169869039142,0.0,0.0,0.0,0.0,-0.019729468694206623,-0.000620023532078105,-0.00024800941283124195,0.0,0.0,0.0,0.0,0.000389572274685874,-0.012396390781789866,-0.004958556312715946,0.0,0.0,0.0,0.0,0.05065665823206489,0.002600237421419998,0.0058400562580187354,-1.2247674450627244e-05,-0.0011641207223623275,-0.004793727998842855,0.00019059287236245965,-0.004221793853290788,0.047475681022937866,0.09623082471250018,-1.8129690200353893e-05,-0.018967887605391313,-0.06961069882776605,0.0025958717831828376,-0.5212108971458169,-0.04853108467758322,-0.12726944538357624,-1.1154255113038166e-05,0.01519849382296927,0.13231103740149464,-0.00016232971912465144,16.57322437628297,-0.4391415835674654,-0.8181628538018444,0.002286888931659027,-0.18218698906339453,0.6575267221813064,-0.033926817631368955,0.22310224237375487,-2.1724107217426303,-2.1393728497660214,-0.41679195371803884,1.5424638610041148,-1.3522662349286452,-0.04502431525945629,-0.20095115260895843,0.047842961827691086,0.026890613764705914,0.06714553816005711,-0.040941170617895484,-0.11500438584115247,-0.2784964175184361,1.4129532533121862,-0.8854117209506951,-0.10091115136013734,-0.12236363029627471,0.22475156369187932,-2.1630523955962278,-2.1343741202743547,-0.4232267617777268,1.5382764580691932,-1.3508730307691563,-0.018170044893994864,-0.04947615806703903,0.12605778988121277,-0.0765867318235246,-1.5198508276029315e-05,-0.01816977527756304,-0.14025517205029472,-0.45711974558092505,1.221746366922563,-0.7646707829383467,-0.00012814014674436585,-0.14025474483219877,0.5000022393087177,0.5014179616094381,0.5003448214024556,0.4999482423959088,0.5000002648883923,0.4999999999776922,1.4142635259226342,1.4497144797258683,1.4221629650290057,1.412950595827704,1.4142191507778297,1.4142135618711236,0.06402363520285699,31.386933519686572,7.655762183102997,1.329620389955594,-0.004503937091553668,4.642306387672239e-07,0.03695162873281503,0.2174368600969642,0.1338443151202791,-0.1618475100845403,-0.09816495975448299,0.030965029289862136,-0.09778360096680647,-0.29278671796389,0.8820798415123227,-0.5131847801956733,-0.1107719971096745,-0.1057335276031195
0.49940269420115013,-0.0011853854703220605,-0.006036492348768754,0.015404020767541403,0.9998635085811803,0.0023862479689573833,-0.0054759631623863755,0.008381306538123306,-0.015579362697093146,-0.08248586819308597,1.8237350843730812e-05,0.018832347879384113,0.06827114770801056,-0.00259232639421364,0.5146310784467786,0.049589365324686704,0.11847866503750665,1.0766064337691897e-05,-0.01355397260071993,-0.13395511197554916,0.000354538896919776,1.3149649995168322,0.16783041791815917,-0.8542770933238353,-3.881907753462688e-05,0.164452122224934,-0.16440745740545215,0.01922091777951246,0.5499644736320295,0.0018845091334967548,0.0007538036533986909,0.01676998,0.99985616,0.00251062,0.0,-0.001184072009883237,0.03139360466057294,0.012557441864229175,0.0,0.0,0.0,0.0,-0.019725183554271646,-0.0007439743855140956,-0.0002975897542056382,0.0,0.0,0.0,0.0,0.0004674528927980127,-0.012393698348962002,-0.0049574793395848,0.0,0.0,0.0,0.0,0.05056177943087936,0.0030698946038188154,0.006790296002167445,-1.599570382682103e-05,-0.0013521379258072729,-0.0054765191879401496,0.0002162043835785108,-0.009565378548006542,0.04697296735766609,0.09504331005731514,-1.8237350843730812e-05,-0.018832347879384113,-0.06827114770801056,0.00259232639421364,-0.5343562620010502,-0.0503333397102008,-0.11877625479171229,-1.0766064337691897e-05,0.01355397260071993,0.13395511197554916,-0.000354538896919776,-1.3144975466240343,-0.18022411626712118,0.8493196139842505,3.881907753462688e-05,-0.164452122224934,0.16440745740545215,-0.01922091777951246,0.22264034498117283,-2.174451099897449,-2.138749521475974,-0.4166117893693352,1.5431254588679895,-1.3526880379828528,-0.04618973925820439,-0.20403781548184693,0.0623328290047387,0.01801643487036625,0.066159786387469,-0.042180305420757534,-0.11654239987481,-0.30866628728884926,1.4489867177047613,-0.8874178894339667,-0.09857517725881129,-0.12391348028620518,0.22455576674130628,-2.163595635999102,-2.132987310808994,-0.4240703863799206,1.5382762929890987,-1.3510688249600211,-0.01957969505730422,-0.0543240402874462,0.13868094653607915,-0.08436246021938337,-1.6508009444725985e-05,-0.019579419086488026,-0.14096501633093575,-0.4847882220407169,1.2623156654866379,-0.7775728395858772,-0.000130950116869667,-0.14096438089249846,0.5000034555943833,0.5021201465270769,0.5005054285833302,0.4999232740475655,0.5000003848389317,0.49999999996155814,1.4142830072655803,1.4612228406421266,1.4246099843558024,1.4125511918223248,1.4142208306032864,1.4142135616133664,0.07252751839956216,31.393790123783585,7.646814659254559,1.328602643570621,-0.0044267644445604055,4.393398679618043e-07,0.036712163721523375,0.21698749017781982,0.13238138901915292,-0.16083393679018737,-0.09707563701508047,0.030808783705322983,0.023946942941463586,0.04734716182386206,0.14664618524833273,-0.10131557893867876,-0.10893244339125957,0.015624558450159524
0.49953102654666776,-0.0013358223508770995,-0.006849074286139595,0.015215497680149343,0.9998625421242289,0.0023719136395067273,-0.006144876964324645,0.01281323818366035,-0.015056449769870077,-0.08128350869375432,1.823788895219945e-05,0.018710383359034185,0.06689725379485083,-0.0025864243951645334,0.4431931645537044,0.05229129272230695,0.12023594993316455,5.381084686387617e-08,-0.012196452034992852,-0.13738939131597294,0.000590199904910646,-7.1437913893074185,0.2701927397620249,0.17572848956579068,-0.001071225349082802,0.13575205657270772,-0.3434279340423785,0.023566100799086998,0.5499516467339063,0.002198405915893273,0.0008793623663572982,0.01676998,0.99985616,0.00251062,0.0,-0.0013812991749957123,0.031385545282790486,0.012554218113116194,0.0,0.0,0.0,0.0,-0.01972011969786487,-0.0008678958681152343,-0.00034715834724609367,0.0,0.0,0.0,0.0,0.0005453150566703512,-0.012390516634144732,-0.004956206653657892,0.0,0.0,0.0,0.0,0.05042062018723853,0.0035342282667703727,0.007728436652496893,-2.0159538222541684e-05,-0.0015389383002052746,-0.006145569696732614,0.0002417518958532958,-0.014194537358656063,0.04644199505266056,0.09383772680687051,-1.823788895219945e-05,-0.018710383359034185,-0.06689725379485083,0.0025864243951645334,-0.46291328425156925,-0.053159188590422186,-0.12058310828041065,-5.381084686387617e-08,0.012196452034992852,0.13738939131597294,-0.000590199904910646,7.144336704364089,-0.28258325639616966,-0.18068469621944858,0.001071225349082802,-0.13575205657270772,0.3434279340423785,-0.023566100799086998,0.22217068401528534,-2.1765134119256215,-2.1380021275229497,-0.41650785079434344,1.5437773798638015,-1.353118349659517,-0.0469660965887491,-0.20623120281727117,0.07473939530245287,0.010393857499174819,0.06519209958120457,-0.0430311676664142,-0.07763573305447052,-0.21933873354242414,1.2406566297714168,-0.7622577371191429,-0.09676868062644212,-0.08508622456566615,0.22434973850224776,-2.1641783799619714,-2.1314943657601497,-0.4249806465598661,1.5382761178218518,-1.351274850440694,-0.020602823905850862,-0.0582743962869068,0.14929450488444784,-0.09102601799454717,-1.7516724691465115e-05,-0.020602548067287937,-0.10231288485466408,-0.39503559994606,1.061355834836869,-0.6663557775163794,-0.00010087152467391292,-0.10231289807999117,0.5000049628197226,0.502963139066924,0.500679069395665,0.49989479660715347,0.500000518372789,0.49999999993940525,1.4143037559467964,1.4729983603882453,1.4268537870644544,1.4121636939938094,1.4142223971705659,1.414213561310049,0.07289767106677218,31.540853883672934,7.538331593807424,1.3277379093748618,-0.0041168614841574636,4.1593588542755444e-07,0.03704184225868451,0.2181509770969731,0.12751771653553434,-0.15821183324028987,-0.09601399296364908,0.03122215084950432,-0.03296816204717572,-0.11545707556767892,0.48730182195429583,-0.2621247845067623,-0.10616456262478102,-0.04133671441221536
0.4997011372645478,-0.0014808403543601473,-0.007649960264107858,0.015028097080226697,0.9998611707710735,0.0023574304656301063,-0.006799853237032756,0.016992028949648318,-0.014516516633544342,-0.08011785902786871,1.819147279294826e-05,0.018600538322635085,0.06550338171984783,-0.0025786224376795758,0.41787907659879675,0.05399331363257348,0.11656496658856152,-4.641615925119011e-06,-0.010984503639909979,-0.13938720750029943,0.0007801957484957628,-2.531408795490764,0.17020209102665274,-0.36709833446030293,-0.00046954267719828875,0.12119483950828736,-0.1997816184326484,0.01899958435851168,0.5499368478303008,0.002512215908988506,0.0010048863635953912,0.01676998,0.99985616,0.00251062,0.0,-0.0015784718087819213,0.03137624685742093,0.012550498742968371,0.0,0.0,0.0,0.0,-0.019714277324898683,-0.0009917830876735752,-0.00039671323506943005,0.0,0.0,0.0,0.0,0.0006231556924379812,-0.012386845762946708,-0.004954738305178683,0.0,0.0,0.0,0.0,0.050235710565753044,0.003993056263348654,0.00865484662770325,-2.4709760181096385e-05,-0.0017246445503308486,-0.00680067936681159,0.00026721348251731677,-0.01857050075843024,0.04589276349096527,0.09266835777083708,-1.819147279294826e-05,-0.018600538322635085,-0.06550338171984783,0.0025786224376795758,-0.4375933539236954,-0.054985096720247054,-0.11696167982363095,4.641615925119011e-06,0.010984503639909979,0.13938720750029943,-0.0007801957484957628,2.532031951183202,-0.18258893678959945,0.36214359615512426,0.00046954267719828875,-0.12119483950828736,0.1997816184326484,-0.01899958435851168,0.22169484489291275,-2.178595321655903,-2.137138135990607,-0.41647460753867804,1.5444198122618544,-1.3535555858476012,-0.04758391223725768,-0.20819097302814388,0.08639915323427924,0.003324325566541649,0.06424323980529673,-0.0437236188084196,-0.06178156485085831,-0.19597702108727041,1.1659757931826378,-0.706953193263317,-0.09488597759078479,-0.06924511420054051,0.2241350942933238,-2.164798164864778,-2.12990220079074,-0.42595308889511946,1.5382759337616327,-1.3514894919039622,-0.02146442089239793,-0.06197849028065296,0.15921649694098047,-0.09724423352533479,-1.8406021901988306e-05,-0.02146414632682267,-0.08615969865470689,-0.37040939937461603,0.992199205653263,-0.6218215530787621,-8.892972105231919e-05,-0.08615982595347321,0.5000067783289257,0.5039120037357386,0.500872418213213,0.49986281951835126,0.5000006643976219,0.49999999991057864,1.4143259080925443,1.484503821809357,1.4290265155382125,1.4117859658309144,1.4142238795371482,1.4142135609654982,0.07705760759269431,31.614455564695984,7.486400106866696,1.3267981560432656,-0.003942217726900893,3.918465445141317e-07,0.03704933060831988,0.21837634648466187,0.12459193617161778,-0.15672422961490695,-0.09497288345761432,0.03131480293319224,-0.0007486965392635592,-0.020879607120845023,0.29312085716032216,-0.14870900907925363,-0.10411109335100155,-0.009265208368637343
0.4999085915077675,-0.0016202533849810452,-0.008439178576020459,0.014841718722613051,0.999859425593109,0.0023428168204253468,-0.007440675192665896,0.02072723082362015,-0.01395776851913031,-0.07895423855163146,1.8076179946806697e-05,0.018500621463713472,0.06408793922203466,-0.002568931011756509,0.3735201873971833,0.05587481144140316,0.11636204762372482,-1.1529284614156384e-05,-0.00999168589216129,-0.14154424978131686,0.0009691425923066821,-4.435888920161346,0.18814978088296797,-0.02029189648367069,-0.0006887668689037373,0.09928177477486894,-0.21570422810174295,0.01889468438109193,0.5499200775054488,0.002825926724101254,0.0011303706896404907,0.01676998,0.99985616,0.00251062,0.0,-0.0017755821272038967,0.031365709751550175,0.012546283900620072,0.0,0.0,0.0,0.0,-0.019707656666019955,-0.0011156311533338198,-0.00044625246133352787,0.0,0.0,0.0,0.0,0.0007009717270858873,-0.01238268588028764,-0.004953074352115056,0.0,0.0,0.0,0.0,0.05001148599768129,0.0044461801090823,0.00956954926566095,-2.96169377587141e-05,-0.0019093579722637248,-0.007441632001309013,0.000292567215596178,-0.02250281295082405,0.045323478270680485,0.09150052245225153,-1.8076179946806697e-05,-0.018500621463713472,-0.06408793922203466,0.002568931011756509,-0.39322784406320327,-0.05699044259473698,-0.11680830008505834,1.1529284614156384e-05,0.00999168589216129,0.14154424978131686,-0.0009691425923066821,4.436589891888431,-0.20053246676325562,0.015338822131555635,0.0006887668689037373,-0.09928177477486894,0.21570422810174295,-0.01889468438109193,0.22121529868661277,-2.1806915789734305,-2.1361705152250137,-0.4165039394776417,1.5450529234460673,-1.3539972767601518,-0.04795462062999871,-0.20962573175274532,0.09676207655934456,-0.002933193896362393,0.06331111842129276,-0.04416909125506539,-0.03707083927410326,-0.1434758724601453,1.0362923325065312,-0.6257519462904042,-0.09321213840039597,-0.044547244664579114,0.22391430677405758,-2.1654496753355383,-2.128223184510932,-0.42698065950325603,1.538275742771176,-1.3517102767202223,-0.02207875192662006,-0.06515104707600669,0.16790162798078828,-0.10275706081365694,-1.909904568512375e-05,-0.022078481626004058,-0.06143310342221278,-0.3172556795353727,0.8685131039807809,-0.5512827288322155,-6.930237831354426e-05,-0.06143352991813886,0.5000089366215352,0.5049893496661712,0.5010790554838572,0.4998274829559864,0.5000008217762372,0.49999999987414323,1.4143493957413238,1.4960409266079708,1.4310710766535353,1.411417884651685,1.4142252712340941,1.4142135605798847,0.07878322679628924,31.724983277090057,7.413638795237882,1.3260298877042431,-0.003717935319790912,3.6832400451120193e-07,0.03718235500220356,0.2189675657249713,0.12093445080062322,-0.15501579728447135,-0.09395337298541073,0.03153350109585504,-0.013302493412388653,-0.05786228263694529,0.36637908434705296,-0.17078782409892437,-0.10195117838952503,-0.021869816262965414
0.5001502648628651,-0.0017539202625522217,-0.009216911788823959,0.0146562771206416,0.9998573368557748,0.0023280899839042907,-0.00806718499027187,0.024149885558464316,-0.013384748426264314,-0.07780828561970976,1.7910678306742913e-05,0.018409197793751938,0.06265679775769548,-0.0025575579481956143,0.34226547348441655,0.05730200928659966,0.11459529319216982,-1.6550164006378366e-05,-0.009142366996153437,-0.1431141464339189,0.001137306356089468,-3.125471391276674,0.14271978451965012,-0.17667544315549955,-0.0005020879392221981,0.08493188960078529,-0.1569896652602043,0.016816376378278597,0.5499013364214136,0.003139525976465696,0.0012558103905862673,0.01676998,0.99985616,0.00251062,0.0,-0.0019726223486837727,0.031353934381165134,0.012541573752466055,0.0,0.0,0.0,0.0,-0.019700257982600965,-0.0012394351757863968,-0.0004957740703145587,0.0,0.0,0.0,0.0,0.0007787600885702636,-0.012378037150392575,-0.00495121486015703,0.0,0.0,0.0,0.0,0.04975107155854852,0.0048934462390179175,0.010472722179410227,-3.4852200095580876e-05,-0.002093164944203764,-0.00806827028638652,0.0003177932465589984,-0.02612250790714809,0.044738682807429445,0.09034985937217582,-1.7910678306742913e-05,-0.018409197793751938,-0.06265679775769548,0.0025575579481956143,-0.3619657314670175,-0.05854144446238606,-0.11509106726248439,1.6550164006378366e-05,0.009142366996153437,0.1431141464339189,-0.001137306356089468,3.126250151365244,-0.15509782167004268,0.1717242282953425,0.0005020879392221981,-0.08493188960078529,0.1569896652602043,-0.016816376378278597,0.2207338199650768,-2.182798848763548,-2.1351084237583016,-0.4165897189385018,1.545676875172782,-1.354441646274121,-0.04814787215359675,-0.21072697901173965,0.10620914667121287,-0.008577946086010382,0.0623951726714916,-0.04443695139690441,-0.01932515235980358,-0.11012472589943142,0.9447070111868315,-0.5644752189647989,-0.09159457498011685,-0.02678601418390177,0.22368916572219172,-2.166129496747488,-2.1264659407416904,-0.4280581487167176,1.5382755462916544,-1.3519354151257192,-0.022514105186585153,-0.06798214119492814,0.1757243769241692,-0.10774892134615872,-1.964795215260534e-05,-0.022513840549707672,-0.0435353259965094,-0.28310941189214484,0.7822748943380919,-0.49918605325017795,-5.4890646748159054e-05,-0.04353589237036139,0.5000114615079831,0.5061790945547594,0.5013007609284628,0.49978884104621746,0.500000989492099,0.4999999998294132,1.4143742469736165,1.507426331258632,1.4330286364305211,1.4110585842416117,1.4142265828311085,1.4142135601558699,0.08134658457640526,31.81527180756677,7.357750662522501,1.3252333649145491,-0.003535275435685289,3.4486854047674497e-07,0.03721873327054268,0.21925830489926093,0.11786342321410583,-0.1537139036369332,-0.09295266439864275,0.03165608002223078,-0.003637729906396433,-0.02761554979699865,0.30760579627420565,-0.13014648205814328,-0.1000709783565458,-0.012257892636391437
0.5004227264569273,-0.0018817075189252685,-0.009983224728105991,0.014471703216734669,0.9998549341383547,0.002313266589721913,-0.008679244372534868,0.027229385824633294,-0.012798179231506907,-0.07666823742190822,1.769291589096204e-05,0.018324620769503364,0.06121190853016022,-0.0025445997962834123,0.3079500266168978,0.05865691947574067,0.11400481978015437,-2.177624157808733e-05,-0.008457702424857425,-0.14448892275352593,0.0012958151912201982,-3.431544686751875,0.13549101891410092,-0.059047341201545755,-0.0005226077571708964,0.0684664571296012,-0.13747763196070295,0.01585088351307301,0.5498806253180613,0.003453001285720317,0.0013812005142881157,0.01676998,0.99985616,0.00251062,0.0,-0.002169584694410994,0.03134092121113726,0.012536368484454904,0.0,0.0,0.0,0.0,-0.019692081566729067,-0.0013631902674604872,-0.0005452761069841948,0.0,0.0,0.0,0.0,0.0008565177059397943,-0.012372899756785405,-0.004949159902714162,0.0,0.0,0.0,0.0,0.04945789886113394,0.005334708804645585,0.011364425242394107,-4.0387088495852375e-05,-0.0022761353569509778,-0.008680456436938629,0.00034287269983331096,-0.029398970519044287,0.04413910044264417,0.08920460590636312,-1.769291589096204e-05,-0.018324620769503364,-0.06121190853016022,0.0025445997962834123,-0.3276421081836269,-0.060020109743201155,-0.11455009588713856,2.177624157808733e-05,0.008457702424857425,0.14448892275352593,-0.0012958151912201982,3.4324012044578147,-0.14786391867088633,0.054098181298831594,0.0005226077571708964,-0.0684664571296012,0.13747763196070295,-0.01585088351307301,0.22025229255240827,-2.1849132204492965,-2.1339618991473563,-0.4167255582698074,1.5462918171984745,-1.3548868077832283,-0.04815274126685331,-0.211437168574863,0.1146524610945246,-0.013583933130564453,0.06149420256925398,-0.044516150910743145,-0.0004869113256559096,-0.0710189563123348,0.8443314423311729,-0.500598704455407,-0.09009701022376161,-0.007919951383873705,0.22346156227467803,-2.1668336609676215,-2.124639980329351,-0.42918001329672445,1.538275345901107,-1.352163016000196,-0.022760344751369743,-0.07041642201337965,0.18259604123393747,-0.11218645800068609,-2.0039054747718182e-05,-0.022760087447691913,-0.02462395647845894,-0.2434280818451512,0.6871664309768266,-0.44375366545273687,-3.911025951128423e-05,-0.02462468979842411,0.5000143827375969,0.5074899308070271,0.5015346585332617,0.4997469721151498,0.5000011665611922,0.49999999977561715,1.414400434404659,1.5187536803028814,1.4348884039953986,1.4107075967983205,1.4142278160002908,1.4142135596948338,0.0830816826010847,31.91467074862901,7.2997755585816,1.3245369195147525,-0.0033476093915529126,3.2185172227822485e-07,0.03727136737088775,0.21958907247583168,0.11471244601305261,-0.1524901687634293,-0.09197002355587187,0.03179503007520394,-0.005263342453317396,-0.03172597877633898,0.3155849357956536,-0.12233411567747622,-0.09826419389293617,-0.013895005295422886
0.5007230219707338,-0.0020035074586610972,-0.01073821771100969,0.014287940988360106,0.9998522461654644,0.0022983624631033716,-0.009276751057183267,0.03001339591459008,-0.012200651290292512,-0.07553773969977184,1.7430783209241996e-05,0.018245603530807973,0.05975685560930351,-0.002530192113072212,0.2784010089956785,0.05975279412143951,0.11304977221363727,-2.6213268172004393e-05,-0.007901723869539051,-0.14550529208567087,0.0014407683211200423,-2.954901762121931,0.10958746456988383,-0.09550475665170977,-0.00044370265939170625,0.055597855531837326,-0.10163693321449396,0.01449531298998441,0.5498579450130308,0.0037663402763966633,0.0015065361105586542,0.01676998,0.99985616,0.00251062,0.0,-0.0023664613886494046,0.031326670755204226,0.012530668302081688,0.0,0.0,0.0,0.0,-0.01968312774119516,-0.0014868915427169735,-0.0005947566170867894,0.0,0.0,0.0,0.0,0.0009342415094568877,-0.012367273902281635,-0.004946909560912653,0.0,0.0,0.0,0.0,0.04913492304229694,0.005769847735057761,0.012244753821568343,-4.619378224091086e-05,-0.0024583259634823884,-0.009278088591446,0.0003677881093152017,-0.03237985730323949,0.04352732204549674,0.08806840800185353,-1.7430783209241996e-05,-0.018245603530807973,-0.05975685560930351,0.002530192113072212,-0.2980841367368737,-0.06123968566415648,-0.11364452883072405,2.6213268172004393e-05,0.007901723869539051,0.14550529208567087,-0.0014407683211200423,2.9558360036313878,-0.12195473847216547,0.09055784709079712,0.00044370265939170625,-0.055597855531837326,0.10163693321449396,-0.01449531298998441,0.21977231996681493,-2.187031453565155,-2.132739587965989,-0.4169058553002419,1.5468978915398843,-1.3553311532613213,-0.047997258559335974,-0.21182331158583784,0.12223111813672012,-0.01802970304344959,0.0606074341409838,-0.04443454780929701,0.015548270751733316,-0.0386143010974826,0.7578657042195528,-0.4445769912885136,-0.08867684282701763,0.008160310144613872,0.22323310998731166,-2.1675588718104026,-2.122753457413136,-0.43034139482281825,1.5382751429886043,-1.3523914657989822,-0.022845228736636962,-0.07252108427813145,0.18865229162151737,-0.11613815260938111,-2.0291250255010876e-05,-0.02284497987861225,-0.008488398526721938,-0.2104662264751797,0.6056250387579898,-0.39516946086950167,-2.5219550729269457e-05,-0.008489243092033721,0.5000177257865229,0.5089146838009747,0.5017807447883319,0.4997019280255195,0.5000013520695656,0.49999999971210896,1.41442795105339,1.5299612540458745,1.4366654148491977,1.4103643788662372,1.4142289763772582,1.4142135591989426,0.08487279730252036,32.007932378160085,7.24866730029441,1.3238533103583892,-0.0031772773470614486,2.9918354827587235e-07,0.03728540830620604,0.2197864714688796,0.11180292071866872,-0.1514784895926709,-0.0910038547036037,0.03189533491966857,-0.0014039579224898405,-0.01834242764170066,0.29137915948216137,-0.10113520657073136,-0.0966169854082545,-0.010030484445558012
0.5010482668116936,-0.002119225748284644,-0.01148194697165826,0.014104947222212953,0.9998493008032547,0.0022833927470772165,-0.009859628018532535,0.03250890808674012,-0.011593489920423422,-0.07441242831652055,1.7126793631131236e-05,0.01817087038138465,0.05829415580443482,-0.002514437860447298,0.2495512172150039,0.06071613698690904,0.11253113832512956,-3.039895781107598e-05,-0.007473314942332138,-0.14626998048686904,0.0015754252624913812,-2.8849791780674594,0.09633428654695284,-0.05186338885077024,-0.0004185689639071586,0.04284089272069136,-0.07646884011981714,0.013465694137133888,0.5498332964017015,0.0040795305784079045,0.0016318122313631507,0.01676998,0.99985616,0.00251062,0.0,-0.0025632446590442212,0.03131118357594962,0.012524473430379848,0.0,0.0,0.0,0.0,-0.01967339685948094,-0.0016105341180413198,-0.0006442136472165278,0.0,0.0,0.0,0.0,0.0010119284307188654,-0.012361159808980365,-0.004944463923592146,0.0,0.0,0.0,0.0,0.04878502959000797,0.006198756326692549,0.013113759203021411,-5.224510585666309e-05,-0.0026397806315841673,-0.009861090097743946,0.0003925231123964207,-0.03507215274578434,0.042904673496373044,0.0869369017469004,-1.7126793631131236e-05,-0.01817087038138465,-0.05829415580443482,0.002514437860447298,-0.26922461407448484,-0.062326671104950354,-0.11317535197234609,3.039895781107598e-05,0.007473314942332138,0.14626998048686904,-0.0015754252624913812,2.8859911064981785,-0.1086954463559332,0.0469189249271781,0.0004185689639071586,-0.04284089272069136,0.07646884011981714,-0.013465694137133888,0.21929543367411025,-2.1891503204117204,-2.1314499287662296,-0.4171252525220641,1.547495231413007,-1.3557731454923878,-0.04768862927046877,-0.21188668465654936,0.12896591997597134,-0.021939722182226326,0.05973398731226791,-0.04419922310666005,0.03086292888672077,-0.006337307071151348,0.6734801839251237,-0.3910019138776737,-0.0873446828715891,0.023532470263695645,0.22300534759113078,-2.1683018561800913,-2.120814337704549,-0.4315376002138123,1.5382749389233104,-1.3526192258015854,-0.022776239618088372,-0.07429843696884708,0.19391197085871864,-0.1196205390994096,-2.0406529404590425e-05,-0.02277600026032725,0.006898911854858955,-0.17773526907156334,0.5259679237201276,-0.3482386490028494,-1.1527914957954846e-05,0.006897961828499985,0.5000215176277897,0.510455716029969,0.5020375307234806,0.49965376052197713,0.5000015451494261,0.499999999638242,1.4144567733945408,1.5410740487093935,1.4383606790168324,1.4100284925874604,1.4142300672344081,1.4142135586699978,0.0862912129703324,32.10278148669944,7.199667176126077,1.323229471858532,-0.003012203062476164,2.7699458039383727e-07,0.037289885264662995,0.21993949676245206,0.10896526297056695,-0.15059160753625453,-0.09005313701836568,0.03198577534539522,-0.000447542159427064,-0.013939259826334649,0.2841602200104896,-0.08865971666174283,-0.09507186016201581,-0.009044042571918102
0.5013958303927332,-0.0022287860166417986,-0.012214470995614901,0.013922689600633573,0.9998461249842625,0.002268371888427276,-0.01042782610205709,0.0347413318214568,-0.010978498951202512,-0.0732925885782902,1.6785758542132592e-05,0.0180993411283219,0.05682658652276158,-0.002497443263645715,0.22324237347166806,0.06149909692209094,0.11198397382303493,-3.410350889986442e-05,-0.007152925306275204,-0.14675692816732352,0.001699459680158319,-2.6308843743335837,0.07829599351819039,-0.05471645020946325,-0.0003704551088788444,0.03203896360569336,-0.04869476804544859,0.012403441766693779,0.5498066804571586,0.004392559827537186,0.0017570239310148634,0.01676998,0.99985616,0.00251062,0.0,-0.002759926736928877,0.03129446028478077,0.012517784113912309,0.0,0.0,0.0,0.0,-0.019662889305744963,-0.001734113112236362,-0.0006936452448945446,0.0,0.0,0.0,0.0,0.0010895754027790974,-0.012354557718255537,-0.004941823087302215,0.0,0.0,0.0,0.0,0.04841085006442547,0.006621345844178984,0.013971494926629765,-5.851463637596144e-05,-0.002820532249333818,-0.010429412131786915,0.0004170625076681196,-0.037501258558385674,0.04227295923598329,0.08581037269220251,-1.6785758542132592e-05,-0.0180993411283219,-0.05682658652276158,0.002497443263645715,-0.24290526277741303,-0.0632332100343273,-0.11267761906792947,3.410350889986442e-05,0.007152925306275204,0.14675692816732352,-0.001699459680158319,2.631973949736363,-0.09065055123644593,0.04977462712216104,0.0003704551088788444,-0.03203896360569336,0.04869476804544859,-0.012403441766693779,0.2188230016737463,-2.1912669196710857,-2.13010061731081,-0.4173788607744325,1.5480839627515233,-1.3562114094869457,-0.047243200036396565,-0.21165992593654037,0.13493114554195867,-0.025360825236836002,0.058873133851625375,-0.043826399455796916,0.04454292340722055,0.022675872000898965,0.5965225565987318,-0.3421103054609677,-0.08608534606425315,0.037282365086313746,0.2227796502540929,-2.169059671820671,-2.1188298692036485,-0.4327643232898553,1.53827473497275,-1.3528449208481954,-0.022569733703787506,-0.07578156405794947,0.19844685009006374,-0.12267230760430109,-2.0395056050042063e-05,-0.022569504661006323,0.020650591430086684,-0.1483127089102393,0.45348792313451014,-0.3051768504891486,1.147335454836185e-06,0.02064955993209272,0.5000257831416901,0.5121093607692231,0.5023044952869756,0.4996025111910098,0.5000017449860507,0.49999999955344543,1.4144868797088348,1.552069561722665,1.4399815873079937,1.4096995303569622,1.4142310926424688,1.4142135581100388,0.08757897230847138,32.19513593320032,7.154777525069377,1.3226327321317628,-0.0028575744822720156,2.552880699687349e-07,0.03727177523654925,0.22000345566301524,0.10627438135800851,-0.14984993609732186,-0.08911670666147017,0.03205315341709494,0.001811201907984358,-0.00502788894579162,0.2694432645271096,-0.07414316846926342,-0.09364311943400369,-0.006737807169896794
0.5017632282378213,-0.0023321253013258107,-0.012935828714169803,0.013741145883084255,0.9998427446822076,0.0022533136885343518,-0.010981320211649206,0.03672528878562093,-0.01035702233285375,-0.07217630871155545,1.641096333345887e-05,0.01803001402978828,0.05535654561834687,-0.002479301375055719,0.19839569641641325,0.06214766183487621,0.11162798667347512,-3.7479520867372045e-05,-0.0069327098533619735,-0.14700409044147156,0.001814188858999602,-2.484667705525481,0.06485649127852683,-0.0355987149559811,-0.0003376011967507622,0.022021545291323052,-0.024716227414803282,0.011472917884128297,0.549778098230154,0.0047054156659257435,0.0018821662663702863,0.01676998,0.99985616,0.00251062,0.0,-0.0029564998576317105,0.03127650154190458,0.012510600616761831,0.0,0.0,0.0,0.0,-0.01965160549480745,-0.00185762364661501,-0.000743049458646004,0.0,0.0,0.0,0.0,0.0011671793602680797,-0.01234746789074638,-0.004938987156298552,0.0,0.0,0.0,0.0,0.04801486999233273,0.007037540967251554,0.01481799498054009,-6.497674213845617e-05,-0.003000603552655525,-0.010983029888363421,0.00044139214008360393,-0.03968178864325264,0.041633523874758334,0.08468690932831728,-1.641096333345887e-05,-0.01803001402978828,-0.05535654561834687,0.002479301375055719,-0.2180473019112207,-0.06400528548149122,-0.11237103613212113,3.7479520867372045e-05,0.0069327098533619735,0.14700409044147156,-0.001814188858999602,2.485834884885749,-0.07720395916927321,0.03065972779968255,0.0003376011967507622,-0.022021545291323052,0.024716227414803282,-0.011472917884128297,0.2183562865957211,-2.1933784971304306,-2.128698921459592,-0.41766211770374967,1.5486642043864103,-1.3566446745999603,-0.046671507802521245,-0.21115774593448403,0.14016958512180133,-0.02832569293171999,0.05802416348870252,-0.04332651130145583,0.05716922338753238,0.050218000205633405,0.5238439579842645,-0.2964867694883988,-0.08489703629228543,0.049988815434108866,0.22255728630299992,-2.1698295295437062,-2.1168068926871024,-0.43401751204185446,1.5382745323468008,-1.353067282619167,-0.022236395109299045,-0.07698577230353641,0.20229765165462277,-0.125318875199917,-2.0262594909097537e-05,-0.022236177097148868,0.03333385944884609,-0.1204208245586938,0.38508015645590254,-0.2646567595615906,1.324611409445265e-05,0.03333275638574551,0.5000305469823465,0.5138753198734936,0.5025806987585218,0.4995482178910196,0.5000019508099166,0.4999999994571806,1.4145182417109574,1.5629516035623023,1.441531634511444,1.4093771356993365,1.4142320559343031,1.4142135575210033,0.08863457325473137,32.28698771403332,7.112697054308779,1.322077052005531,-0.0027099983986875074,2.3412015055016203e-07,0.03723903606903421,0.22000194275924,0.10368402604110324,-0.14922352804438854,-0.08819360472568899,0.03210524861469593,0.0032741475482328305,0.0015020087610259636,0.2593602759601163,-0.06262044878529724,-0.09231027009525017,-0.005209519760484999
0.502148159752569,-0.002429194652791957,-0.013646053911491929,0.013560302613882294,0.9998391848733635,0.0022382313207395038,-0.011520108738322743,0.03847917340900803,-0.009730470507145976,-0.07106311801407074,1.6006095280868897e-05,0.017962016924693635,0.0538863741701645,-0.002460101047748041,0.1753884623387096,0.06265518257077742,0.11131906974847089,-4.048680525899744e-05,-0.006799710509464499,-0.14701714481823655,0.0019200327307677956,-2.3007234077703638,0.050752073590120544,-0.03089169250042323,-0.00030072843916253956,0.01329993438974747,-0.001305437676499266,0.010584387176819365,0.549747550849065,0.005018085742560773,0.002007234297024298,0.01676998,0.99985616,0.00251062,0.0,-0.003152956260782504,0.03125730805630147,0.012502923222520584,0.0,0.0,0.0,0.0,-0.019639545872133946,-0.0019810608451928512,-0.0007924243380771405,0.0,0.0,0.0,0.0,0.0012447372395144498,-0.01233989060634715,-0.00493595624253886,0.0,0.0,0.0,0.0,0.047599391096496024,0.00744728039535273,0.015653288208516226,-7.160664304139974e-05,-0.0031800084181876874,-0.011521942013417533,0.0004654988739199327,-0.04163212966979053,0.040987778563447444,0.08356604123659132,-1.6006095280868897e-05,-0.017962016924693635,-0.0538863741701645,0.002460101047748041,-0.19502800821084357,-0.06463624341597027,-0.11211149408654802,4.048680525899744e-05,0.006799710509464499,0.14701714481823655,-0.0019200327307677956,2.3019681450098783,-0.06309196419646769,0.02595573625788437,0.00030072843916253956,-0.01329993438974747,0.001305437676499266,-0.010584387176819365,0.21789642845301696,-2.195482518469045,-2.127251571608552,-0.41797082289261195,1.5492360688330846,-1.3570717918771793,-0.04598581427041395,-0.21040213386143736,0.14473498510403301,-0.030870518886225478,0.057186444667423425,-0.042711727721904194,0.06856935321072964,0.07556120730466773,0.45653999822316743,-0.254482595450549,-0.08377188212790943,0.061478357955163696,0.222339400674643,-2.17060886389837,-2.1147517326488074,-0.43529340702819586,1.5382743321776828,-1.3532851661835694,-0.021788562835691184,-0.0779334354663805,0.20551600382948446,-0.12758949863413785,-2.001691178488738e-05,-0.021788356440243687,0.044783227360786076,-0.09476631628440868,0.32183521748616883,-0.2270623434220853,2.4568312421015503e-05,0.04478206569051811,0.5000358323276969,0.5157510859323086,0.5028655364677667,0.4994909136269433,0.5000021618965188,0.49999999934896644,1.4145508289324362,1.57371004082744,1.4430156739483968,1.409060991450788,1.4142329604912782,1.4142135569048915,0.08952981406846008,32.37721958244032,7.073764138437558,1.3215502097789995,-0.0025704239175490537,2.135084354738396e-07,0.03718905827464738,0.21992390224013178,0.10120851766739687,-0.1487078173206372,-0.08728289695583234,0.03213930481508495,0.004998049349930965,0.009146508624992222,0.2478459115462253,-0.05155407967064353,-0.09107084684308062,-0.0034056200398956257
0.5025484746505224,-0.0025199570871382855,-0.01434517006588952,0.013380154219698057,0.9998354695162509,0.002223137361747357,-0.012044211495405854,0.04001802213714971,-0.00910004898319904,-0.06995202278749431,1.5574294906676733e-05,0.01789456650012722,0.052418207720922615,-0.0024399234125063694,0.15388487281416813,0.06304215239469352,0.11110952265764307,-4.318003741921644e-05,-0.0067450424566413425,-0.14681664492418867,0.002017763524167146,-2.150358952454148,0.03869698239161029,-0.020954709082782186,-0.00026932321602189966,0.005466805282315634,0.020049989404788415,0.009773079339935042,0.5497150395198499,0.005330557713763024,0.0021322230855051983,0.01676998,0.99985616,0.00251062,0.0,-0.003349288190618846,0.031236880585697364,0.012494752234278947,0.0,0.0,0.0,0.0,-0.019626710913817694,-0.0021044198348806435,-0.0008417679339522573,0.0,0.0,0.0,0.0,0.001322245978665935,-0.012331826164196057,-0.004932730465678423,0.0,0.0,0.0,0.0,0.047166564869327465,0.00785051480090131,0.01647739315139472,-7.83804458999171e-05,-0.0033587527704984467,-0.012046168542331053,0.0004893705267013726,-0.043367310327768555,0.0403369295688964,0.08244677502177325,-1.5574294906676733e-05,-0.01789456650012722,-0.052418207720922615,0.0024399234125063694,-0.1735115837279858,-0.06514657222957417,-0.11195129059159532,4.318003741921644e-05,0.0067450424566413425,0.14681664492418867,-0.002017763524167146,2.151681198432814,-0.05102880855580635,0.016021978617103763,0.00026932321602189966,-0.005466805282315634,-0.020049989404788415,-0.009773079339935042,0.21744446458872727,-2.1975766150723994,-2.1257648590377194,-0.41830109013084144,1.5497996627202189,-1.3574917142473584,-0.04519638642896964,-0.2094096603354398,0.1486712570832339,-0.03302672382294656,0.05635938871342269,-0.04199223701790726,0.07894278414443026,0.09924735259975503,0.39362719792008805,-0.21562049367210834,-0.08270559540007329,0.07194907039969321,0.22212703455772365,-2.17139527880178,-2.1126702937879998,-0.43658849925268217,1.5382741355318867,-1.353497530357772,-0.021236611691934793,-0.07864149034098918,0.20814388608078854,-0.12950922244863108,-1.9664579609846728e-05,-0.021236417420269754,0.055195114375639065,-0.07080548746086768,0.26278822513040867,-0.1919723814493235,3.523321750406537e-05,0.05519390199739335,0.5000416614284737,0.5177352354592121,0.503158315124852,0.49943062851381864,0.500002377562731,0.499999999228365,1.414584607114772,1.5843426663665752,1.4444373345789832,1.4087508177933767,1.414233809377499,1.4142135562636649,0.09024738695682497,32.466316584915866,7.0375292953577535,1.3210550012013416,-0.0024376748025475214,1.9348039914175073e-07,0.03712445966762212,0.21977606770951819,0.0988324600709175,-0.14828730961176584,-0.08638375558778373,0.03215780572468734,0.006460165723726034,0.016110977821704675,0.2378752336740747,-0.04203666106082169,-0.08991420053773401,-0.0018500909617876135
0.5029621754930997,-0.0026043871072120722,-0.015033195334209506,0.013200702019210453,0.99983162153253,0.002208043813879248,-0.012553668481664754,0.04135712333555391,-0.008466917563557233,-0.06884252506497635,1.5118646277514032e-05,0.017826978010570652,0.050954058696578465,-0.002418844450076181,0.1339101198404198,0.06331314196418077,0.11094977225179631,-4.556486291627011e-05,-0.0067588489556569264,-0.14641490243441496,0.002107896243018839,-1.9974752973748315,0.02709895694872483,-0.015975040584675915,-0.00023848254970536715,-0.001380649901558395,0.04017424897737043,0.009013271885169316,0.5496805655260004,0.0056428192436741124,0.002257127697469634,0.01676998,0.99985616,0.00251062,0.0,-0.0035454878962923237,0.031215219936533853,0.01248608797461354,0.0,0.0,0.0,0.0,-0.01961310112656088,-0.002227695745676699,-0.0008910782982706794,0.0,0.0,0.0,0.0,0.0013997025178102305,-0.01232327488266347,-0.004929309953065388,0.0,0.0,0.0,0.0,0.04671839003290068,0.008247206350886185,0.017290323031679142,-8.527518010303936e-05,-0.003536835575072652,-0.01255574966608476,0.0005129958261590889,-0.04490261123184623,0.039682137500091086,0.08132861303958988,-1.5118646277514032e-05,-0.017826978010570652,-0.050954058696578465,0.002418844450076181,-0.15352322096698068,-0.06554083770985747,-0.11184085055006698,4.556486291627011e-05,0.0067588489556569264,0.14641490243441496,-0.002107896243018839,1.9988749998926418,-0.0394222318313883,0.011045730631610528,0.00023848254970536715,0.001380649901558395,-0.04017424897737043,-0.009013271885169316,0.2170013304788542,-2.199658595460675,-2.12424462865887,-0.4186493407808045,1.5503550873422096,-1.3579034958253922,-0.044313410987307185,-0.2081980388275576,0.15202303788496957,-0.0348250649963087,0.05554246219907369,-0.04117815780338731,0.08829754416624609,0.1211621507882205,0.3351780801735684,-0.17983411733621416,-0.08169265143490011,0.08140792145199494,0.2219211264188467,-2.172186557903639,-2.1105680531095117,-0.43789952770170654,1.538273943405775,-1.353703436679401,-0.02059081388769312,-0.07912791018588719,0.2102240678487979,-0.13110284490243504,-1.9212611172989e-05,-0.02059063216288941,0.06457978042416733,-0.04864198448980145,0.20801817680093648,-0.15936224538039556,4.5196843685772794e-05,0.06457852573803421,0.5000480551589521,0.5198255281907483,0.503458472855675,0.4993673902900551,0.5000025971651786,0.49999999909498916,1.4146195393712324,1.5948434280179482,1.4458003675756024,1.4084463689272904,1.4142346055424226,1.4142135555992865,0.09081382234598409,32.55395084622831,7.003945281552236,1.320586210354981,-0.002311682587875437,1.7404969126069005e-07,0.03704518158532203,0.2195562626374373,0.09655557718417217,-0.14795287577063765,-0.08549541117900086,0.032160578492820044,0.007928149957804428,0.02329446067765545,0.22793414036326287,-0.033431846816241395,-0.08883449896533317,-0.00027727681541464544
0.503387403097671,-0.002682469503849257,-0.015710141951346943,0.013021953397561797,0.9998276627970386,0.002192962129862779,-0.01304853833270301,0.04251030526572636,-0.007832116508139302,-0.06773406259907955,1.4641947470191955e-05,0.01775864842523247,0.04949578534545084,-0.002396934442979698,0.11531819301724561,0.06348010554179315,0.11084624658967979,-4.766988073220771e-05,-0.006832958533818309,-0.1458273351127623,0.002191000709648311,-1.8591926823174203,0.016696357761238068,-0.010352566211652148,-0.0002105017815937603,-0.007410957816138264,0.058756732165266,0.008310446662947168,0.5496441302284907,0.005954858004743515,0.002381943201897395,0.01676998,0.99985616,0.00251062,0.0,-0.0037415476321745024,0.031192326963936264,0.012476930785574505,0.0,0.0,0.0,0.0,-0.019598717047654597,-0.0023508837108591404,-0.0009403534843436561,0.0,0.0,0.0,0.0,0.0014771037990957976,-0.012314237099339344,-0.004925694839735737,0.0,0.0,0.0,0.0,0.04625672713081963,0.008637327508592772,0.018092085153244338,-9.22688213575995e-05,-0.0037142496674591394,-0.013050744185368803,0.0005363643594501442,-0.04625185289790087,0.039024443472075565,0.08021099338465405,-1.4641947470191955e-05,-0.01775864842523247,-0.04949578534545084,0.002396934442979698,-0.1349169100649002,-0.0658309892526523,-0.11178660007402344,4.766988073220771e-05,0.006832958533818309,0.1458273351127623,-0.002191000709648311,1.860669786116516,-0.029010594860577412,0.005426871371916411,0.0002105017815937603,0.007410957816138264,-0.058756732165266,-0.008310446662947168,0.21656786959035948,-2.2017264243987884,-2.1226963217708428,-0.4190122790818604,1.5509024390975819,-1.358306282162764,-0.0433460888494719,-0.20678289381135495,0.15483068880271436,-0.036293830105590806,0.05473517553721452,-0.04027863373719077,0.09673221378352874,0.14151450162026688,0.2807650917744784,-0.1468765109282109,-0.0807286661859168,0.08995240661965422,0.22172252184008584,-2.1729806431707086,-2.108450101490796,-0.4392234591919943,1.5382737567293348,-1.3539020395700034,-0.019860457876087253,-0.07940852670697016,0.2117951618715377,-0.1323931490287749,-1.86676440361665e-05,-0.019860289060236597,0.0730356011605867,-0.028061652108296586,0.15710940227398051,-0.12903041263398474,5.4496713682250126e-05,0.07303431026528147,0.5000550331491783,0.522020019675111,0.5037654520407483,0.4993012252498099,0.5000028200978851,0.4999999989484972,1.4146555860907872,1.6052087744718195,1.4471080205809865,1.408147429333923,1.4142353517400805,1.4142135549136887,0.09123240885431654,32.640218263244904,6.97278290885697,1.3201432997279916,-0.0021918661705270315,1.5522933514092523e-07,0.036952447824677416,0.21926698764333608,0.09437044735807057,-0.14769345749723417,-0.0846171692308104,0.03214874707712306,0.009273752852977673,0.03022525521595379,0.21873775502871773,-0.025932530242388424,-0.08782424770189504,0.0011831415669682314
0.5038224311325884,-0.0027541986560524986,-0.01637601836943907,0.01284392100397102,0.9998236141321034,0.002177903234400783,-0.013528897019492022,0.043490854524746735,-0.007196616816715029,-0.06662628416679958,1.4146841268758001e-05,0.01768905437503344,0.048045116320495296,-0.0023742589618710452,0.09805492590203718,0.06354996914242723,0.11077784322799655,-4.951062014339533e-05,-0.006959405019902817,-0.14506690249555462,0.0022675481108652695,-1.7263267115208425,0.0069863600634087475,-0.006840336168323358,-0.00018407394111876152,-0.012644648608450826,0.07604326172076792,0.007654740121695869,0.5496057350657239,0.006266661678215241,0.0025066646712860853,0.01676998,0.99985616,0.00251062,0.0,-0.0039374596581627196,0.031168202571679956,0.012467281028671983,0.0,0.0,0.0,0.0,-0.019583559244957652,-0.0024739788671780355,-0.000989591546871214,0.0,0.0,0.0,0.0,0.001554446766852583,-0.012304713171019886,-0.004921885268407954,0.0,0.0,0.0,0.0,0.045783303933135455,0.009020860334267739,0.018882683040725153,-9.934031077674099e-05,-0.003890982558714208,-0.013531228211676585,0.0005594665297517355,-0.04742831418290945,0.038364819388394984,0.07909356519547156,-1.4146841268758001e-05,-0.01768905437503344,-0.048045116320495296,0.0023742589618710452,-0.11763848514699483,-0.06602394800960527,-0.11176743477486777,4.951062014339533e-05,0.006959405019902817,0.14506690249555462,-0.0022675481108652695,1.7278811582876952,-0.019291073234428635,0.0019184508999154038,0.00018407394111876152,0.012644648608450826,-0.07604326172076792,-0.007654740121695869,0.21614483818344404,-2.203778219336976,-2.121124991822427,-0.41938687746883013,1.551441809933811,-1.3586993055397716,-0.04230314069154488,-0.20517949381875436,0.15713299484160442,-0.03745983869697433,0.05393708362290407,-0.0393023377007595,0.10429481579270229,0.16033999926005965,0.23023060388900746,-0.11660085913835243,-0.07980919143104473,0.09762960364312723,0.2215319784369421,-2.1737756306186173,-2.106321158579363,-0.44055747774203624,1.5382735763658366,-1.3540925814171396,-0.019054340314371917,-0.07949874479085668,0.21289429114334368,-0.13340185500419646,-1.80363498147116e-05,-0.019054184713620075,0.0806117561715336,-0.009021808388652575,0.10991292718059709,-0.10087059754215755,6.312942214548994e-05,0.08061043466165221,0.50006261361094,0.5243164419563735,0.5040787596503109,0.4992321588902957,0.5000030457905171,0.4999999987885949,1.4146927053923153,1.615434282238431,1.448363391073444,1.407853811262233,1.414236050586939,1.4142135542087786,0.0915170563496151,32.725005451204446,6.943916482441256,1.3197234463306735,-0.0020779402011627014,1.3702593004280276e-07,0.0368467853749259,0.21890850677794235,0.09227354613834654,-0.1474999597179425,-0.08374839485245364,0.03212275387308978,0.01056665655718248,0.03712912356537468,0.20989571300157486,-0.019342450096502692,-0.08687748591604674,0.002599320400033288
0.5042656568433552,-0.0028195776682707935,-0.01703082977100967,0.012666622041776177,0.9998194953078303,0.0021628775454898574,-0.013994836518145289,0.04431112958565966,-0.006561303304883131,-0.06551888682630394,1.363576510131091e-05,0.017617742862181155,0.046603647806019485,-0.0023508790012537924,0.08202750609129228,0.06353135118318982,0.11073973404956416,-5.110761674470908e-05,-0.007131151285228593,-0.14414685144758105,0.0023379960617252865,-1.6027419810744903,-0.0018617959237410275,-0.003810917843238837,-0.0001596996601313752,-0.017174626532577564,0.09200510479735746,0.007044795086001698,0.5495653815534753,0.006578217954614155,0.002631287181845651,0.01676998,0.99985616,0.00251062,0.0,-0.004133216239985644,0.03114284771215463,0.012457139084861853,0.0,0.0,0.0,0.0,-0.019567628316874135,-0.0025969763550473847,-0.0010387905420189537,0.0,0.0,0.0,0.0,0.0016317283677126525,-0.012294703473693479,-0.004917881389477391,0.0,0.0,0.0,0.0,0.045299724710120115,0.009397795622884949,0.019662116952855323,-0.0001064695664433346,-0.004067017148601535,-0.01399729383941031,0.000582293512638597,-0.0484443458256453,0.037704151017037765,0.07797602591116579,-1.363576510131091e-05,-0.017617742862181155,-0.046603647806019485,0.0023508790012537924,-0.10159513440816642,-0.0661283275382372,-0.11177852459158312,5.110761674470908e-05,0.007131151285228593,0.14414685144758105,-0.0023379960617252865,1.604373709442203,-0.010432907549952452,-0.0011069635462385543,0.0001596996601313752,0.017174626532577564,-0.09200510479735746,-0.007044795086001698,0.2157329121285773,-2.205812238913703,-2.1195353314690717,-0.41977035853053113,1.5519732877409564,-1.3590818782374767,-0.041192605486674805,-0.20340195767268937,0.15896603533551293,-0.038348106170097186,0.05314778071453952,-0.03825726977051658,0.11105352048700716,0.17775361460650005,0.1833040493908512,-0.08882674731228606,-0.07893029083645464,0.10450679302429194,0.22135017273331511,-2.1745697582833214,-2.1041855988838933,-0.4418989705094368,1.5382734031136271,-1.354274385699444,-0.01818057036269944,-0.07941276647042164,0.2135559695469351,-0.1341492767400541,-1.7325220956044193e-05,-0.018180428230429008,0.08737699516724769,0.008597832043504006,0.06616784035914092,-0.07474217358576507,7.111288586674062e-05,0.08737564831910669,0.5000708133522378,0.5267125730110045,0.5043979283623828,0.49916021652627135,0.5000032737065442,0.49999999861503286,1.4147308533344796,1.625516467882184,1.4495692880946929,1.407565351628853,1.4142367045495225,1.4142135534864266,0.0916753313680032,32.80831315793536,6.917183365055929,1.3193253021824038,-0.0019695081210300376,1.1944360331121521e-07,0.03672901747925861,0.21848235929810375,0.09025975916034909,-0.14736335466755468,-0.08288851359339428,0.03208335057851561,0.011777234684192086,0.043877575178336764,0.20156697960467884,-0.013654892559735628,-0.0859881695529235,0.003940329453563179
0.5047152752217742,-0.0028787630677349174,-0.01767400186207438,0.012490855997725845,0.9998170213657436,0.002148984728206945,-0.01432774121815125,0.04494984245836436,-0.005941301574594758,-0.06435650603827787,1.0691109821246196e-05,0.01749117555511193,0.03330175918281726,-0.002062964066227496,0.06387128727046998,0.06200017302883734,0.11623807880260656,-0.00029446552800647144,-0.012656730706922525,-1.3301888623202223,0.02879149350262962,-1.81562188208223,-0.15311781543524833,0.5498344753042395,-0.024335791126176235,-0.5525579421693932,-118.60420108726413,2.645349744090433,0.5495230712848326,0.006889514534231933,0.002755805813692762,0.01676998,0.99985616,0.00251062,0.0,-0.004328809649508612,0.031116263386326722,0.01244650535453069,0.0,0.0,0.0,0.0,-0.01955092489232982,-0.0027198713187369726,-0.0010879485274947888,0.0,0.0,0.0,0.0,0.0017089455507307311,-0.012284208402525835,-0.004913683361010334,0.0,0.0,0.0,0.0,0.0448077960630584,0.00976827760196685,0.02042980767576714,-0.000111925625306597,-0.004241880625306847,-0.014330358953881756,0.0006017609256111958,-0.04927865210787297,0.03705756496092148,0.07680301139280857,-1.0691109821246196e-05,-0.01749117555511193,-0.03330175918281726,0.002062964066227496,-0.0834222121627998,-0.06472004434757431,-0.11732602733010135,0.00029446552800647144,0.012656730706922525,1.3301888623202223,-0.02879149350262962,1.8173308276329607,0.1408336070327225,-0.5547481586652497,0.024335791126176235,0.5525579421693932,118.60420108726413,-2.645349744090433,0.2153411550495184,-2.2078580125770517,-2.1179878722208247,-0.4198412208616636,1.5524454133730374,-1.3594483588499564,-0.03917570790588985,-0.20457736633486065,0.1547459248247102,-0.007086233113243225,0.04721256320808986,-0.03664806124797362,0.20168975807849546,-0.1175408662171273,-0.4220110510802727,3.126187305685396,-0.5935217506449664,0.1609208522542951,0.221186056143242,-2.1753920778957228,-2.102102871799376,-0.4429309496811812,1.5382224169811423,-1.3544420081513566,-0.016411659007313468,-0.08223196124014089,0.20827270845171095,-0.10319791717444382,-0.005098613248488065,-0.016762245191271376,0.1768911355385972,-0.2819194769719244,-0.5283261095224145,3.095135956561029,-0.508128802753202,0.1418183039157632,0.5000800423774399,0.528473080978741,0.5046429248983568,0.49909982835827515,0.5000035255005403,0.499999998424027,1.414780977086126,1.632380183035126,1.4504102972075577,1.4073337212051498,1.4142375644058751,1.4142135527769297,0.22134951164490707,32.384556842835835,6.619063540952609,1.3312553969754632,-0.0029723395736004133,8.915223699854154e-07,0.037785327721923195,0.21298650589552245,0.0802663355910201,-0.10284119272303277,-0.08924966864638803,0.03271849012912642,-0.10563373903334075,0.5539295105115323,1.0001847724744102,-4.451302415186643,0.6361157992544262,-0.06351395503039979
0.505170564929012,-0.002931477570019963,-0.018306646104699953,0.01231501617952646,0.9998128661450074,0.002134035067299487,-0.014765465171642365,0.04551855477371992,-0.0052939322108065375,-0.06330003335683046,1.2576675424807961e-05,0.017476048669022068,0.043782942815028675,-0.0023026392702284286,0.05687123153555601,0.06473693637882201,0.10564726814474151,0.0001885565603561765,-0.001512688608986193,1.0481183632211413,-0.023967520400093242,-0.7000055734913968,0.27367633499846694,-1.0590810657865046,0.04830220883626479,1.1144042097936333,237.83072255413637,-5.275901390272286,0.5494788059301325,0.007200539127612638,0.002880215651045044,0.01676998,0.99985616,0.00251062,0.0,-0.004524232165038727,0.031088450643699903,0.01243538025747996,0.0,0.0,0.0,0.0,-0.019533449630747296,-0.0028426589065640613,-0.0011370635626256245,0.0,0.0,0.0,0.0,0.0017860952675046499,-0.012273228371844393,-0.004909291348737757,0.0,0.0,0.0,0.0,0.04430824100112052,0.010132016697632602,0.021186861755744996,-0.00011906661150795639,-0.004416526509226027,-0.014768210706609344,0.0006240386259247111,-0.050042786938758646,0.03638238285450644,0.07573541361431042,-1.2576675424807961e-05,-0.017476048669022068,-0.043782942815028675,0.0023026392702284286,-0.0764046811663033,-0.06757959528538607,-0.10678433170736713,-0.0001885565603561765,0.001512688608986193,-1.0481183632211413,0.023967520400093242,0.7017916687589014,-0.28594956337031135,1.0541717744377668,-0.04830220883626479,-1.1144042097936333,-237.83072255413637,5.275901390272286,0.21495310697477568,-2.2098515589412835,-2.1163740987986155,-0.42023598391656153,1.552961713035529,-1.359808208494724,-0.03880480747427126,-0.1993546364231603,0.16137734222093617,-0.03947630548979332,0.051629966249170045,-0.035984964476765934,0.03709004316185983,0.5222729911700357,0.6631417396225971,-3.2390072376550094,0.4417403041080191,0.06630967712076871,0.22102343550986897,-2.1761794669520946,-2.099966084583864,-0.44428038349981774,1.5382223028443789,-1.354604629133596,-0.016262063337302273,-0.07873890563718848,0.21367872155118744,-0.1349433818636575,-1.1413676348382928e-05,-0.016262098223936993,0.014959567001119473,0.3493055602952405,0.5406013099476498,-3.1745464689213687,0.5087199572139682,0.050014696733438266,0.5000891836395669,0.5321386329878622,0.5050848959533195,0.49901279365629675,0.5000037356786738,0.4999999982276762,1.4148104039423304,1.646560019117871,1.451966487421864,1.407025387829793,1.4142379211343417,1.4142135520004542,-0.03924686735202118,33.480322935652,7.142875122969323,1.3063860457153345,-0.0006622951231658387,-6.019211639260525e-07,0.03525938350476315,0.22215746811387133,0.0945713028403353,-0.19213525881152363,-0.0738975274585204,0.03125197004554857,0.2526035698631239,-0.9205220623393291,-1.4313207290303365,8.927939446156254,-1.5352150546655814,0.1466520082829869
0.5056299488977105,-0.002977884218609384,-0.0189282897145958,0.012140011289150909,0.9998086916909857,0.0021191974883627003,-0.015189112780670897,0.045928483502954885,-0.004662549072620715,-0.062198793256868036,1.2031962784120133e-05,0.017394682431287826,0.04237580354772094,-0.002272369350913364,0.04099287292349679,0.06313831381858223,0.11012400999624236,-5.447126406878282e-05,-0.00813662377342414,-0.14071392673077332,0.003026991931506448,-1.5878358612059218,-0.1598622560239779,0.44767418515008484,-0.02430278244249593,-0.6623935164437946,-118.88322899519146,2.699451233159969,0.5494325872368957,0.007511279456037884,0.0030045117824151423,0.01676998,0.99985616,0.00251062,0.0,-0.004719476071629694,0.031059410582273617,0.012423764232909449,0.0,0.0,0.0,0.0,-0.019515203222019977,-0.0029653342710849323,-0.0011861337084339727,0.0,0.0,0.0,0.0,0.0018631744722956934,-0.012261763815121965,-0.004904705526048785,0.0,0.0,0.0,0.0,0.043802638339185185,0.010489163674647268,0.02193280149701094,-0.0001262125451100271,-0.004590372603227514,-0.01519198792304165,0.0006459681520868434,-0.05064795957458458,0.03572195965489433,0.07462255748977749,-1.2031962784120133e-05,-0.017394682431287826,-0.04237580354772094,0.002272369350913364,-0.06050807614551677,-0.06610364808966716,-0.11131014370467633,5.447126406878282e-05,0.00813662377342414,0.14071392673077332,-0.003026991931506448,1.5896990356782175,0.14760049220885596,-0.4525788906761336,0.02430278244249593,0.6623935164437946,118.88322899519146,-2.699451233159969,0.214577785515186,-2.2118230662723453,-2.114754014476809,-0.4206325352665658,1.5534702944633452,-1.3601560511465913,-0.03753214595896909,-0.19715073310616552,0.16200843218062266,-0.039655135000428915,0.05085814278159902,-0.034784265186716214,0.127266151530217,0.2203903316994783,0.06310899596864886,-0.01788295106355948,-0.07718234675710306,0.1200699290049718,0.22087115545642294,-2.1769616813919095,-2.097833731055183,-0.4456305566555673,1.5382221940845044,-1.3547569094359087,-0.01522800534460391,-0.07822144398148184,0.21323535286811865,-0.1350173155749554,-1.0875987445993321e-05,-0.015228030231251523,0.10340579926983624,0.05174616557066386,-0.04433686830687955,-0.007393371129787996,5.376889023896069e-05,0.10340679926854698,0.5000993446615205,0.5337588879576449,0.505342323267007,0.4989217338683107,0.5000039676321458,0.4999999980127116,1.4148514958241036,1.652381018141846,1.452792161418783,1.406715394540496,1.4142384558834007,1.4142135512329588,0.09235081849046717,33.045937535969884,6.847419176836195,1.318209860100958,-0.0016808939098162578,-1.4261894400682118e-08,0.036316256978669414,0.21695504614084088,0.08466055327670301,-0.1471008434549246,-0.08040225190795731,0.03188038722844397,-0.10568951437657215,0.5264701705456566,0.9921530079100439,-4.502453436631922,0.6504726133596291,-0.06284171825666549
0.5060921814473721,-0.0030180363706714336,-0.019538865116217802,0.011965846831767607,0.9998045136732188,0.0021044295879422076,-0.015598856508300556,0.04621385220791177,-0.0040364213990675985,-0.061090717939704775,1.1478550821114632e-05,0.017312691401196137,0.0409858422813717,-0.0022467702749638316,0.028536870495688565,0.06261276735531167,0.1108075317163261,-5.534119630055006e-05,-0.008199103009168957,-0.13899612663492433,0.0025599075949532535,-1.2456002427808226,-0.052554646327056254,0.06835217200837351,-8.699322317672395e-05,-0.006247923574481673,0.1717800095848987,-0.04670843365531946,0.5493844170297569,0.007821723252011572,0.003128689300804618,0.01676998,0.99985616,0.00251062,0.0,-0.004914533661386387,0.031029144348499783,0.012411657739399914,0.0,0.0,0.0,0.0,-0.019496186386484832,-0.0030878925692862445,-0.0012351570277144975,0.0,0.0,0.0,0.0,0.0019401801221488352,-0.012249815184959618,-0.004899926073983847,0.0,0.0,0.0,0.0,0.04329223558238482,0.010839759622683007,0.02266755441702242,-0.00013334777296414302,-0.004763413232723412,-0.015601862316508829,0.0006675948329950487,-0.05112838586929816,0.03506556574756738,0.07350237567910468,-1.1478550821114632e-05,-0.017312691401196137,-0.0409858422813717,0.0022467702749638316,-0.048033056882173394,-0.0657006599245979,-0.1120426887440406,5.534119630055006e-05,0.008199103009168957,0.13899612663492433,-0.0025599075949532535,1.2475404229029714,0.04030483114209664,-0.07325209808235736,8.699322317672395e-05,0.006247923574481673,-0.1717800095848987,0.04670843365531946,0.21421557402067673,-2.2137710315458534,-2.1131312624921277,-0.4210290541589671,1.553971292262633,-1.3604913893532495,-0.036221149450927276,-0.19479652735079658,0.1622751984681637,-0.03965188924012617,0.05009977992877867,-0.03353382066581597,0.13109965080418148,0.23542057553689388,0.026676628754104995,0.0003245760302743601,-0.07583628528203454,0.12504445209002396,0.22072961449655437,-2.1777371553099836,-2.095709284519223,-0.4469795614906149,1.5382220914626565,-1.3548984505866468,-0.01415409598685761,-0.0775473918073933,0.21244465359601403,-0.13490048350476513,-1.0262184789744258e-05,-0.014154115073807047,0.10739093577463009,0.06740521740885436,-0.07906992721046224,0.011683207019025366,6.138026562490635e-05,0.10739151574444758,0.5001101606373639,0.5365232374278306,0.505683184553564,0.49883862682139435,0.5000041999355113,0.49999999778345394,1.414893268197968,1.6618370787871668,1.4538310815264068,1.4064465601600227,1.414238954170534,1.4142135504601936,0.0909126254443842,33.12689036152892,6.827447797891066,1.3179595330666354,-0.001591096845830636,5.577817674467843e-08,0.036152994614544645,0.2158239487987254,0.082897455206622,-0.1471282020054008,-0.07956421649252186,0.03180423812317019,0.016326815577613788,0.11380647250437587,0.17641421678687058,0.0027363473369729496,-0.08380357105045658,0.007614910522082683
0.5065562245707637,-0.0030519588752767153,-0.020138413382204803,0.011792553919955012,0.9998003467620628,0.002089739551681787,-0.01599485151884732,0.046395412475024295,-0.0034127154847757527,-0.059986706959010046,1.0918875844045221e-05,0.017227596791847363,0.03961138567890715,-0.002220715039795866,0.018156026711252382,0.06237059142918458,0.11040109806947293,-5.5967497706941105e-05,-0.008509460934877366,-0.13744566024645466,0.0026055235167965485,-1.0380843784436182,-0.024217592612708894,-0.040643364685316596,-6.263014063910468e-05,-0.031035792570840992,0.15504663884696734,0.004561592184329499,0.5493342972103934,0.00813185825974421,0.003252743303897673,0.01676998,0.99985616,0.00251062,0.0,-0.005109397233769161,0.03099765313723747,0.012399061254894988,0.0,0.0,0.0,0.0,-0.019476399874893968,-0.0032103289627762412,-0.0012841315851104963,0.0,0.0,0.0,0.0,0.0020171091770128757,-0.01223738295306881,-0.004894953181227524,0.0,0.0,0.0,0.0,0.04277807263962974,0.011183817135020924,0.023391156686102477,-0.00014045708451571048,-0.004935617146073442,-0.015997989088169247,0.0006889131231171363,-0.05150480970879345,0.03441036862201322,0.07238576821390504,-1.0918875844045221e-05,-0.017227596791847363,-0.03961138567890715,0.002220715039795866,-0.03763242658614635,-0.06558092039196083,-0.11168522965458343,5.5967497706941105e-05,0.008509460934877366,0.13744566024645466,-0.0026055235167965485,1.0401014876206311,0.011980209659640084,0.03574841150408907,6.263014063910468e-05,0.031035792570840992,-0.15504663884696734,-0.004561592184329499,0.21386682754984157,-2.215694462454634,-2.1115088796441457,-0.4214237910243976,1.5544647795817188,-1.3608138553598985,-0.03487464708351589,-0.19234309087808593,0.1622382847981941,-0.03947368654305374,0.04934873190858632,-0.032246600664894244,0.13465023674113846,0.24534364727106536,-0.003691366996961056,0.017820269707243264,-0.07510480201923503,0.12872200009217297,0.22059916624162446,-2.178504871118211,-2.093595531202703,-0.44832562914057944,1.5382219956411984,-1.3550288990080595,-0.013044825492991203,-0.07677158082275881,0.21137533165203562,-0.13460676499645113,-9.582145810912978e-06,-0.013044842141261375,0.11092704938664068,0.07758109846344868,-0.10693219439784074,0.029371850831400037,6.800389788312798e-05,0.11092729325456722,0.5001216579141184,0.5393699243373817,0.5060256641661639,0.49875278158310804,0.5000044322442888,0.4999999975399308,1.4149358656917856,1.6711195820891314,1.4548247030584212,1.4061823474376658,1.4142394179918134,1.4142135496786072,0.09115575010615617,33.20009335454397,6.8099033081545945,1.317603179191185,-0.0015053485402220968,4.1203913549696356e-08,0.03598452408072063,0.21505934692645373,0.08126219054081818,-0.14716554435866033,-0.07874132627126762,0.03170703622500019,0.01684764536528913,0.07762646469620632,0.16364853913875171,0.0037341528127626256,-0.08228904830698111,0.009720189810787878
0.5070210539205102,-0.0030796999001876453,-0.020726916953840116,0.011620164990035686,0.9997962046794595,0.002075135153702837,-0.016377261317036623,0.04647453640366134,-0.0027937693122900764,-0.05888089798958669,1.0354573861335395e-05,0.017139266567246167,0.03825326578881195,-0.0021942443160510253,0.007912392863704265,0.06189461724856763,0.11058089694233539,-5.643019827098259e-05,-0.008833022460119633,-0.13581198900952038,0.002647072374484076,-1.0243633847548117,-0.0475974180616949,0.017979887286245777,-4.627005640414874e-05,-0.03235615252422663,0.1633671236934281,0.004154885768752753,0.5492822297574499,0.008441672235636724,0.0033766688942546788,0.01676998,0.99985616,0.00251062,0.0,-0.005304059095897835,0.030964938191705784,0.012385975276682313,0.0,0.0,0.0,0.0,-0.01945584446838498,-0.003332638617975751,-0.0013330554471903003,0.0,0.0,0.0,0.0,0.0020939585998604525,-0.012224467610252773,-0.004889787044101109,0.0,0.0,0.0,0.0,0.04226117583693967,0.01152137213582437,0.024103585848094796,-0.0001475261963224117,-0.005106951731239146,-0.016380531768166392,0.0007099180258714941,-0.05177859549955917,0.03375870750399586,0.071266873266269,-1.0354573861335395e-05,-0.017139266567246167,-0.03825326578881195,0.0021942443160510253,-0.027368237332089245,-0.06522725586654338,-0.11191395238952569,5.643019827098259e-05,0.008833022460119633,0.13581198900952038,-0.002647072374484076,1.0264573433546722,0.03537295045144213,-0.022869674330346885,4.627005640414874e-05,0.03235615252422663,-0.1633671236934281,-0.004154885768752753,0.21353184498313696,-2.2175922390416996,-2.109889869388256,-0.4218151731669866,1.554950826914267,-1.3611231375789208,-0.033498256670460684,-0.18977765870654725,0.16190102558895203,-0.03913821425889648,0.04860473325480022,-0.030928221902234605,0.1376390413055207,0.2565432171538674,-0.033725920924207696,0.03354722841572623,-0.07439986537861004,0.13183787626596388,0.22048010770784332,-2.1792636854370793,-2.0914952328962504,-0.44966714099984595,1.5382219071849073,-1.355147957710439,-0.011905853378114003,-0.07588143188679526,0.21002983064522873,-0.13415118592665332,-8.845629127829503e-06,-0.01190587023795938,0.11389721148772,0.089014893596355,-0.13455010068068873,0.04555790697978179,7.365166830834752e-05,0.11389719033019947,0.5001338437103097,0.5423083437581793,0.506371631483347,0.4986642337977055,0.5000046641933759,0.49999999728214156,1.4149791727982388,1.6802667964446283,1.4557814060421421,1.405922685314805,1.4142398492092205,1.414213548889794,0.09042901661745985,33.27506613022728,6.793157071992146,1.3173267271499265,-0.0014238662464234446,2.725462844981514e-08,0.03580681464231923,0.2142710243464432,0.07965574038360577,-0.14722027769423826,-0.07792493992120685,0.03159908539092243,0.017771563788426675,0.0799518502931007,0.16075867214657727,0.00547253458195824,-0.08163865840923892,0.0107950834011441
0.5074857602052455,-0.00310130339001562,-0.021304390293057175,0.011448713592001659,0.9997921001961677,0.0020606237694351117,-0.016746258450928576,0.04646272406847495,-0.0021791721867354956,-0.05777650943497403,9.787004010847741e-06,0.017047588812590362,0.036912385362455495,-0.0021673982166566276,-0.0011812335186385525,0.061459712555458075,0.11043885546126592,-5.675698504876538e-05,-0.009167775465580494,-0.13408804263564528,0.0026846099394397735,-0.9093626382342818,-0.04349046931095557,-0.014204148106947145,-3.267867777827861e-05,-0.033475300546086106,0.17239463738751015,0.003753756495569749,0.5492282167264603,0.008751152948763833,0.003500461179505522,0.01676998,0.99985616,0.00251062,0.0,-0.005498511562855406,0.03093100080343475,0.0123724003213739,0.0,0.0,0.0,0.0,-0.01943452097845012,-0.003454816706309014,-0.0013819266825236055,0.0,0.0,0.0,0.0,0.002170725356807937,-0.012211069666387124,-0.004884427866554849,0.0,0.0,0.0,0.0,0.04174245652121478,0.011852456338779453,0.024804851472562697,-0.00015454175831286499,-0.005277383224017073,-0.016749662919195593,0.0007306050925792891,-0.05196123563133036,0.033110172990170245,0.07014890975634794,-9.787004010847741e-06,-0.017047588812590362,-0.036912385362455495,0.0021673982166566276,-0.018253287459811567,-0.06491452926176709,-0.11182078214378952,5.675698504876538e-05,0.009167775465580494,0.13408804263564528,-0.0026846099394397735,0.9115333635910897,0.03127939964456845,0.009319720240392296,3.267867777827861e-05,0.033475300546086106,-0.17239463738751015,-0.003753756495569749,0.2132108804817965,-2.219463450036882,-2.1082768941401357,-0.42220177774535467,1.5554295029773173,-1.361418969154794,-0.03209645013404539,-0.18712109951826902,0.1612975248120359,-0.03866045783680653,0.04786760630504463,-0.029583157587319737,0.14018065364152898,0.26565591882782374,-0.06035007769161112,0.047775642208994634,-0.07371269497555935,0.134506431491487,0.22037269122414122,-2.1800126601210112,-2.0894108215809992,-0.4510026030647093,1.538221826577419,-1.3552553743858367,-0.010741648370210369,-0.07489746839321901,0.20844113152509994,-0.13354620648633364,-8.060748819748314e-06,-0.010741667539758786,0.11642050079036341,0.09839634935762537,-0.15886991201287948,0.06049794403196751,7.84880308081189e-05,0.11642026982005942,0.5001467244963136,0.5453254525373844,0.5067211485734171,0.4985730182871533,0.5000048954414432,0.4999999970101125,1.4150231706985004,1.689243267403777,1.456703879254902,1.4056675328992405,1.4142402494927715,1.4142135480952607,0.0900712305566521,33.3466943380701,6.778032256216959,1.3170282776183522,-0.0013457768833348735,1.3892916258578212e-08,0.03562146551312641,0.21340908855633353,0.0781222297064617,-0.14728506531404983,-0.07711472865703489,0.031481980265408,0.018535554525484808,0.08730261612807388,0.15345469198848274,0.006477400442548846,-0.08102114725787148,0.011710512544481794
0.5079494916463697,-0.003116821955531081,-0.02187083418097422,0.011278234026459425,0.9997880451703328,0.002046212401290677,-0.017102022878532613,0.04636572690267529,-0.001569798756422945,-0.05667217996428835,9.217488325657255e-06,0.016952488004726214,0.035589484036867416,-0.0021402125190772905,-0.009699716579966017,0.060937343031255066,0.1104329470685686,-5.6951568519048696e-05,-0.009510080786414785,-0.13229013255880787,0.002718569757933706,-0.8518483061327464,-0.05223695242030091,-0.0005908392697318021,-1.9458347028331746e-05,-0.03423053208342908,0.17979100768374112,0.0033959818493932425,0.5491722602497665,0.009060288181356898,0.0036241152725427477,0.01676998,0.99985616,0.00251062,0.0,-0.005692746957991434,0.030895842312214362,0.012358336924885745,0.0,0.0,0.0,0.0,-0.019412430246904266,-0.003576858404394306,-0.0014307433617577222,0.0,0.0,0.0,0.0,0.0022474064172352125,-0.012197189650399745,-0.004878875860159899,0.0,0.0,0.0,0.0,0.0412227686033968,0.012177110136887978,0.02549494945351697,-0.00016149132124654297,-0.005446877075789218,-0.01710556250469565,0.0007509703694991998,-0.052058473860666726,0.03246564106863731,0.0690305168891741,-9.217488325657255e-06,-0.016952488004726214,-0.035589484036867416,0.0021402125190772905,-0.009712713666938249,-0.06451420143564937,-0.11186369043032632,5.6951568519048696e-05,0.009510080786414785,0.13229013255880787,-0.002718569757933706,0.8540957125499816,0.04003976276990116,-0.0042880365904280964,1.9458347028331746e-05,0.03423053208342908,-0.17979100768374112,-0.0033959818493932425,0.21290414348336048,-2.221307214963238,-2.106672449204152,-0.4225823325170999,1.5559008745389715,-1.3617011280373126,-0.03067369984360337,-0.18437649263555111,0.1604444935983609,-0.03805547717452791,0.04713715616543253,-0.028215888251861804,0.14227502904420208,0.27446068827179126,-0.08530312136749965,0.06049806622786215,-0.07304501396121016,0.13672693354579335,0.22027712425040621,-2.180750886546873,-2.0873445713836705,-0.4523306496881634,1.5382217542271233,-1.3553509415908005,-0.009556697373500114,-0.07382264258616295,0.20662501973288902,-0.13280466234541166,-7.235029573999994e-06,-0.00955672049638786,0.11849509967102548,0.10748258070560623,-0.1816111792210917,0.07415441409219792,8.257192457483196e-05,0.11849470433709253,0.500160304898752,0.5484243079592972,0.5070737196459932,0.4984791721164985,0.5000051256705462,0.49999999672390755,1.415067792241836,1.6980650315920267,1.457593054874395,1.4054168433563923,1.4142406204779665,1.4142135472964674,0.08942191192673292,33.41755472388247,6.763995195771586,1.316758693563857,-0.0012711958466950987,1.1021239075536119e-09,0.035428431093349685,0.21249960178386845,0.07663558831757916,-0.14735689431048582,-0.07631048616812129,0.03135567241792732,0.019304105766780724,0.09202668185358392,0.1487601562720413,0.007181042839284439,-0.08042426735942639,0.012630784740795363
0.5084114751304651,-0.0031263099265150425,-0.022426259583194476,0.011108761076135974,0.9997840505683157,0.0020319076863455944,-0.017444741549220513,0.046191408716214986,-0.0009658297262403392,-0.055568937854307415,8.647203412086173e-06,0.016853915117506755,0.03428525986120381,-0.0021127218584114683,-0.017431818646030522,0.060396903018260575,0.11032421099809314,-5.7028491357108155e-05,-0.009857288721945925,-0.13042241756636083,0.0027490660665822203,-0.7732102066064506,-0.05404400129944906,-0.010873607047545697,-7.692283805945928e-06,-0.03472079355311408,0.18677149924470338,0.003049630864851438,0.5491143625364344,0.009369065729286263,0.0037476262917144937,0.01676998,0.99985616,0.00251062,0.0,-0.005886757613225106,0.030859464106041637,0.012343785642416656,0.0,0.0,0.0,0.0,-0.019389573145851664,-0.0036987588942343553,-0.0014795035576937422,0.0,0.0,0.0,0.0,0.0023239987539053117,-0.012182828110249904,-0.004873131244099962,0.0,0.0,0.0,0.0,0.04070288740596928,0.012495375655801305,0.02617388587490897,-0.0001683633203709567,-0.005615398223378556,-0.017448417471124966,0.0007710103831794308,-0.052078166329440095,0.03182529383228198,0.06791272349672407,-8.647203412086173e-06,-0.016853915117506755,-0.03428525986120381,0.0021127218584114683,-0.001957754499821142,-0.06409566191249493,-0.11180371455578689,5.7028491357108155e-05,0.009857288721945925,0.13042241756636083,-0.0027490660665822203,0.7755342053603559,0.04186117318919915,0.006000475803445735,7.692283805945928e-06,0.03472079355311408,-0.18677149924470338,-0.003049630864851438,0.2126118039657908,-2.223122765997846,-2.105078797573921,-0.4229556984434829,1.5563650068019308,-1.3619694317388633,-0.029233951756967795,-0.18155510346084203,0.1593651630231331,-0.03733659263829972,0.04641322629593055,-0.02683037015508008,0.14397480866355758,0.2821389174709088,-0.10793305752278065,0.07188845362281888,-0.07239298695019725,0.13855180967817224,0.22019357482361088,-2.181477566056749,-2.085298533456234,-0.45365002825488,1.538221690476009,-1.355434491301154,-0.008354942679533421,-0.07266795098763659,0.20460379274364532,-0.13193785667166028,-6.375111425223831e-06,-0.008354971035357017,0.12017546939666925,0.11546915985263528,-0.20212269892437018,0.08668056737513863,8.599181487761636e-05,0.12017494610308439,0.500174588279199,0.5515993389673961,0.507429210235937,0.4983827346291866,0.5000053545846891,0.4999999964236201,1.4151129942989427,1.706722188762756,1.458450708022595,1.4051705851918506,1.414240963696109,1.4142135464948062,0.08881949695225795,33.48633674516063,6.751175081930721,1.3164904904794275,-0.0011997698057273193,-1.1128618004823784e-08,0.035228438627420276,0.21153191594026804,0.07520443870398423,-0.1474304766905825,-0.07551197957365997,0.03122089653686392,0.019999929611694302,0.09782500151174522,0.1432032651882686,0.007355991187107197,-0.07985067572283011,0.013477588098804946
0.5088709990156185,-0.0031298262173181596,-0.022970675904367313,0.010940329739116355,0.9997801264966625,0.0020177159119719023,-0.017774607450394376,0.04594591538580498,-0.000367731029314249,-0.05446663379276243,8.077244972789101e-06,0.016751847710403858,0.03300031576556873,-0.0020849584347886647,-0.024549333041000432,0.05980986969260902,0.11023040615449828,-5.6995843929707156e-05,-0.010206740710289736,-0.12849440956350794,0.0027763423622803596,-0.7117514394969909,-0.0587033325651555,-0.009380484359486352,3.264742740099948e-06,-0.03494519883438102,0.19280080028528934,0.0027276295698139275,0.5490545258721667,0.009677473402543045,0.0038709893610172066,0.01676998,0.99985616,0.00251062,0.0,-0.006080535869347952,0.030821867621065875,0.012328747048426349,0.0,0.0,0.0,0.0,-0.01936595057765153,-0.00382051336340655,-0.00152820534536262,0.0,0.0,0.0,0.0,0.0024004993430839297,-0.012167985612906614,-0.0048671942451626446,0.0,0.0,0.0,0.0,0.040183526856548246,0.012807299619861205,0.02684166526538452,-0.0001751470478915662,-0.00578291135870271,-0.01777842079569854,0.0007907221089208912,-0.052026451255152935,0.031189598650380124,0.06679538084118879,-8.077244972789101e-06,-0.016751847710403858,-0.03300031576556873,0.0020849584347886647,0.005183382463348901,-0.06363038305601557,-0.1117586114998609,5.6995843929707156e-05,0.010206740710289736,0.12849440956350794,-0.0027763423622803596,0.7141519388400749,0.04653534695224889,0.004513290114323707,-3.264742740099948e-06,0.03494519883438102,-0.19280080028528934,-0.0027276295698139275,0.21233399474503908,-2.2249093992400355,-2.103498021687842,-0.4233208648256029,1.5568219634839862,-1.3622237350744415,-0.027780922075170494,-0.17866332421894515,0.15807758860789564,-0.03651663821199867,0.04569566820553635,-0.025430333557828193,0.14530296817973018,0.28917792418968885,-0.12875744152374644,0.08199544263010466,-0.07175580903942044,0.1400036597251887,0.22012217385832447,-2.182191961672779,-2.083274586857588,-0.4549595965831067,1.5382216356051983,-1.3555058926121955,-0.007140096528640571,-0.07143956160302106,0.202394659864593,-0.1309568328226699,-5.4870810833137965e-06,-0.0071401311041433884,0.12148461508928506,0.12283893846155303,-0.22091328790523057,0.09810238489903755,8.88030341910034e-05,0.12148399312136285,0.5001895764778704,0.5548496669230404,0.5077873207727902,0.49828374763497246,0.5000055819090202,0.4999999961093746,1.4151587219836257,1.7152186928415423,1.4592780529440588,1.4049287297418693,1.4142412806154927,1.414213545691611,0.08810195181653398,33.55370146085144,6.739389736603586,1.3162365289841138,-0.0011313975382171064,-2.281366005058811e-08,0.03502179779658801,0.21051404322548783,0.0738204935578899,-0.1475025979592927,-0.07471902868842542,0.031077972339773562,0.02066478411130186,0.10281673617373072,0.13847611587849273,0.007209553764891109,-0.07929510277461654,0.014292419701261614
0.5093274151908604,-0.0031274324006204932,-0.02350409734963025,0.010772975007555924,0.9997762822301113,0.002003643026705244,-0.018091818986630637,0.04563559807893402,0.0002242243371646281,-0.053365754756434555,7.50860573199526e-06,0.01664628529892556,0.03173519280083657,-0.0020569528533753035,-0.03103173068709636,0.05919553664788771,0.11008790363278773,-5.686392407938418e-05,-0.01055624114782959,-0.12651229647321557,0.002800558141336125,-0.6482397646095928,-0.06143330447213116,-0.014250252171055244,1.3191985032297553e-05,-0.034950043753985416,0.19821130902923645,0.0024215779055765385,0.5489927526192123,0.009985499025720383,0.0039941996102881416,0.01676998,0.99985616,0.00251062,0.0,-0.006274074076326221,0.030783054341531918,0.012313221736612768,0.0,0.0,0.0,0.0,-0.019341563474882414,-0.003942117005252924,-0.0015768468021011694,0.0,0.0,0.0,0.0,0.0024769051646587967,-0.012152662744326252,-0.0048610650977305,0.0,0.0,0.0,0.0,0.03966533742835188,0.013112931426340875,0.027498296959918393,-0.00018183262865179017,-0.00594938115205827,-0.018095770866359117,0.0008101029495696948,-0.05190967215526024,0.03055883000436729,0.06567897649304733,-7.50860573199526e-06,-0.01664628529892556,-0.03173519280083657,0.0020569528533753035,0.011690167212213946,-0.06313765365314063,-0.1116647504348889,5.686392407938418e-05,0.01055624114782959,0.12651229647321557,-0.002800558141336125,0.6507166697742516,0.049280641727804914,0.009389187073324744,-1.3191985032297553e-05,0.034950043753985416,-0.19821130902923645,-0.0024215779055765385,0.21207081492333354,-2.2266664922196555,-2.1019320163395023,-0.42367693771986453,1.5572718070233782,-1.3624639267371086,-0.026317982170553225,-0.1757092979620003,0.1566005348339571,-0.03560728942616398,0.04498435393921131,-0.02401916626670115,0.14629399046172692,0.29540262569448555,-0.1477053773938519,0.09093487858346962,-0.07113142663250346,0.14111672911270456,0.2200630186765286,-2.1828934151544592,-2.081274431102016,-0.4562583133172426,1.5382215898406686,-1.3555650482094126,-0.005915518179586415,-0.07014534816802452,0.2000155755572124,-0.12987167341359104,-4.576452982591173e-06,-0.0059155597217213154,0.12245783490541558,0.12942134349965412,-0.23790843073806245,0.10851594090788563,9.106281007226234e-05,0.1224571382422073,0.5002052699967008,0.5581719009765261,0.5081478557411601,0.4981822553024399,0.5000058073887816,0.4999999957813232,1.4152049267066122,1.7235517141862862,1.4600764452859896,1.4046912557432958,1.4142415726275372,1.4142135448881517,0.08735719734558774,33.61931625456799,6.728614208324045,1.3159890698320613,-0.0010658703299721937,-3.396611420566258e-08,0.03480899423940963,0.20944461580719564,0.07248404146132023,-0.14756936629272877,-0.07393146317755735,0.030927400906738584,0.021281072649872224,0.10794739525742572,0.13372049673854464,0.0066740065363244325,-0.07875656346768936,0.015057143295535915
0.5097801320270698,-0.003119193176848129,-0.02402653998682265,0.01060673166537422,0.9997725262429169,0.0019896946523417372,-0.01839657925879963,0.045266103468673255,0.0008097172126660898,-0.052266492641427596,6.94219568859246e-06,0.016537247530942847,0.030490360110071578,-0.0020287339548853665,-0.03694946102607635,0.05854928755014616,0.1099262115006959,-5.664100434027992e-05,-0.010903776798271494,-0.12448326907649951,0.002821889848993696,-0.5917730338979993,-0.06462490977415455,-0.016169213209182853,2.2291973910425932e-05,-0.03475356504419047,0.20290273967160655,0.0021331707657570864,0.5489290452162736,0.0102931304384941,0.004117252175397628,0.01676998,0.99985616,0.00251062,0.0,-0.006467364593602891,0.03074302579972159,0.012297210319888638,0.0,0.0,0.0,0.0,-0.01931641280030537,-0.0040635650190699165,-0.0016254260076279663,0.0,0.0,0.0,0.0,0.0025532132022589036,-0.012136860109429437,-0.004854744043771775,0.0,0.0,0.0,0.0,0.03914891318920377,0.013412323615342229,0.02814379216222028,-0.00018841099217625779,-0.006114772456732992,-0.0184006707617112,0.0008291507114115321,-0.05173346806227615,0.0299333085870555,0.06456370296131624,-6.94219568859246e-06,-0.016537247530942847,-0.030490360110071578,0.0020287339548853665,0.017633048225770984,-0.06261285256921607,-0.11155163750832386,5.664100434027992e-05,0.010903776798271494,0.12448326907649951,-0.002821889848993696,0.5943262471002582,0.05248804966472512,0.011314469165411078,-2.2291973910425932e-05,0.03475356504419047,-0.20290273967160655,-0.0021331707657570864,0.21182233245528578,-2.228393488389297,-2.1003825095929614,-0.42402313315191925,1.5577145986993137,-1.3626899267567327,-0.024848246804777173,-0.17269961696417396,0.15495067465408283,-0.03461954320547245,0.04427916759355497,-0.02260000196241544,0.14697353657760506,0.30096809978263334,-0.1649860179874284,0.09877462206915315,-0.07051863456563409,0.14191643042857094,0.22001617561083509,-2.183581331530947,-2.0792996065078526,-0.45754523304556716,1.5382215533577193,-1.3556118917657078,-0.00468430656935181,-0.06879163764875855,0.1974824594163127,-0.12869197283245662,-3.6482949293410205e-06,-0.004684355629526723,0.12312116102346053,0.13537105192659715,-0.2533116140899683,0.11797005811344241,9.281580532501526e-05,0.12312040921945927,0.5002216679610872,0.5615640357033104,0.5085105845586795,0.498078304262971,0.5000060307884399,0.49999999543964463,1.415251557412796,1.731722287474313,1.4608470501602981,1.4044581455378051,1.4142418410595314,1.414213544085637,0.08654765313235044,33.68335463528649,6.718755155996502,1.315751027562666,-0.0010030496129060378,-4.460006768534007e-08,0.03459039558150575,0.20832704275517044,0.07119134564686362,-0.14762782457305995,-0.07314914049404111,0.03076956854773344,0.021860596976056926,0.11273564623054261,0.12933915729292708,0.005842800803662777,-0.07823227900607277,0.015783235892403026
