JhonPool4/journal_ws/src/motion_ur5_rviz/src/Data/SMCi/circular_traj/articular_lambda_0.5_alpha_[0.5 0.1]_beta_0.01_gamma_0.99_t_20.csv
x,y,z,w,ex,ey,ez,dx,dy,dz,dw,dex,dey,dez,ddx,ddy,ddz,ddw,ddex,ddey,ddez,dddx,dddy,dddz,dddw,dddex,dddey,dddez,x_des,y_des,z_des,w_des,ex_des,ey_des,ez_des,dx_des,dy_des,dz_des,dw_des,dex_des,dey_des,dez_des,ddx_des,ddy_des,ddz_des,ddw_des,ddex_des,ddey_des,ddez_des,dddx_des,dddy_des,dddz_des,dddw_des,dddex_des,dddey_des,dddez_des,e_x,e_y,e_z,e_w,e_ex,e_ey,e_ez,de_x,de_y,de_z,de_w,de_ex,de_ey,de_ez,dde_x,dde_y,dde_z,dde_w,dde_ex,dde_ey,dde_ez,ddde_x,ddde_y,ddde_z,ddde_w,ddde_ex,ddde_ey,ddde_ez,q1,q2,q3,q4,q5,q6,dq1,dq2,dq3,dq4,dq5,dq6,ddq1,ddq2,ddq3,ddq4,ddq5,ddq6,q1_des,q2_des,q3_des,q4_des,q5_des,q6_des,dq1_des,dq2_des,dq3_des,dq4_des,dq5_des,dq6_des,ddq1_des,ddq2_des,ddq3_des,ddq4_des,ddq5_des,ddq6_des,Lambda1,Lambda2,Lambda3,Lambda4,Lambda5,Lambda6,K1,K2,K3,K4,K5,K6,u1,u2,u3,u4,u5,u6,P1,P2,P3,P4,P5,P6,J1,J2,J3,J4,J5,J6
0.4997540809885491,-0.000181767452565703,-0.0009022252545447529,0.016566966229673893,0.9998590094002199,0.0024679967386353995,-0.0011857247799980954,-0.024624912821523282,-0.018176262790540174,-0.09019788822699615,1.6830086874936667e-05,0.020135471152478185,0.07545299655570185,-0.002597632644898505,-2.462491282152328,-1.8176262790540174,-9.019788822699615,0.0016830086874936668,2.0135471152478184,7.545299655570186,-0.2597632644898505,-246.24912821523282,-181.76262790540173,-901.9788822699616,0.16830086874936667,201.35471152478183,754.5299655570185,-25.97632644898505,0.55,2.7755575615628914e-17,0.0,0.01676998,0.99985616,0.00251062,0.0,-0.0,0.031415926535897934,0.012566370614359173,0.0,0.0,0.0,0.0,-0.019739208802178717,-0.0,-0.0,0.0,0.0,0.0,0.0,0.0,-0.012402510672119928,-0.0049610042688479706,0.0,0.0,0.0,0.0,0.050245919011450924,0.00018176745256573076,0.0009022252545447529,-7.864253880329741e-07,-0.00020005544886292272,-0.0011853491245371775,6.25088650419383e-05,0.024624912821523282,0.04959218932643811,0.10276425884135532,-1.6830086874936667e-05,-0.020135471152478185,-0.07545299655570185,0.002597632644898505,2.4427520733501495,1.8176262790540174,9.019788822699615,-0.0016830086874936668,-2.0135471152478184,-7.545299655570186,0.2597632644898505,246.24912821523282,181.7502253947296,901.9739212656928,-0.16830086874936667,-201.35471152478183,-754.5299655570185,25.97632644898505,0.22518599349411123,-2.162760823578599,-2.140069370949694,-0.4191940069409733,1.5390036147839332,-1.3503938337870132,-0.03734765058887952,-0.18370635785988057,-0.03135409496939804,0.07800130590266882,0.07263647839333,-0.032870378701330534,-3.7347650588879517,-18.370635785988057,-3.1354094969398036,7.800130590266882,7.263647839332999,-3.2870378701330534,0.2254678245710482,-2.161155536055847,-2.1391814781545633,-0.42031606562450163,1.5382770500253027,-1.3501567818604427,-0.009166666933039623,-0.023169591169704705,0.05744853239923405,-0.03428140028481331,-7.413328573933688e-06,-0.009166459995840221,-0.9379070718793163,-2.236814966954606,5.87833179590239,-4.196518374982265,0.1251000787435492,-0.929385515238211,0.5,0.5,0.5,0.5,0.5,0.5,0.5,0.5,0.5,0.5,0.5,0.5,0.0,0.0,0.0,0.0,0.0,0.0,-0.01381860416508383,-0.03492611496904055,0.0865715290438709,-0.051671822217711307,-1.1269973883764241e-05,-0.013818298591547196,0.9401587463112635,2.2419980286202374,-5.882870440937481,4.202589960280364,-0.12509822540787485,0.9316375012845366
0.49951849755979166,-0.0003602634061312627,-0.00179315175078755,0.016367571754675004,0.9998611567707766,0.002454938591432889,-0.0019346969717492519,-0.023589864687683586,-0.017849311369771366,-0.08907012896680323,1.6785464943309076e-05,0.019779550594478494,0.07490705542376669,-0.00259494685040498,0.10350481338396965,0.03269514207688076,0.11277592601929148,-4.46219316275917e-06,-0.035592055799969075,-0.054594113193516536,0.0002685794493525323,256.59960955362976,185.03214211308983,913.2564748718905,-0.1687470880656426,-204.91391710477873,-759.9893768763702,26.003184393920304,0.5499990130428069,0.00031415719827797533,0.00012566287931117904,0.01676998,0.99985616,0.00251062,0.0,-0.00019739078923647043,0.031415306412404455,0.012566122564961781,0.0,0.0,0.0,0.0,-0.01973881916709643,-0.00012402429067031733,-4.960971626812693e-05,0.0,0.0,0.0,0.0,7.792676008731081e-05,-0.012402265857177509,-0.0049609063428710035,0.0,0.0,0.0,0.0,0.05048051548301519,0.0006744206044092381,0.001918814630098729,-2.0159891123139317e-06,-0.00039757686975776425,-0.0019344952030176709,8.813077386824524e-05,0.023392473898447116,0.04926461778217582,0.10163625153176502,-1.6785464943309076e-05,-0.019779550594478494,-0.07490705542376669,0.00259494685040498,-0.12324363255106607,-0.03281916636755108,-0.1128255357355596,4.46219316275917e-06,0.035592055799969075,0.054594113193516536,-0.0002685794493525323,-256.5995316268697,-185.04454437894702,-913.2614357782334,0.1687470880656426,204.91391710477873,759.9893768763702,-26.003184393920304,0.22481567264340552,-2.1645854351774663,-2.1403513066010897,-0.4184495685859797,1.5397196812470901,-1.3507203077261296,-0.03703208507057146,-0.1824611598867312,-0.02819356513957575,0.07444383549935858,0.07160664631568368,-0.0326473939116354,0.03155655183080625,0.12451979731493587,0.3160529829822289,-0.3557470403310243,-0.10298320776463141,0.022298478969513445,0.22537695546050565,-2.161386851569095,-2.1385953447235977,-0.4206709081263575,1.5382769760088544,-1.3502476491841222,-0.009086911054255032,-0.023131551324801415,0.058613343096564074,-0.03548425018558525,-7.401644834430214e-06,-0.009086732367957354,0.007975587878459103,0.003803984490328982,0.11648106973300223,-0.1202849900771942,1.168373950347365e-06,0.007972762788286715,0.5,0.5,0.5,0.5,0.5,0.5,0.5,0.5,0.5,0.5,0.5,0.5,0.023231165934840196,31.616807558606958,7.26280207916076,1.3218116015907069,-0.003952188325480062,-1.7215383429004425e-09,0.04253053190941182,0.24120093829412795,0.13593270930257037,-0.17108891702501478,-0.1094460817623967,0.03578284548077278,-3.748296237447347,-18.178722203124252,-3.2608942848853575,7.897196803199346,7.2624219589939525,-3.300015849642369
0.49938188185689547,-0.0005359611088917807,-0.002675947281963492,0.016169563159773102,0.9998627030894447,0.0024415367587626983,-0.0026756487338198106,-0.01369056396768889,-0.01757230107952073,-0.08827206897257346,1.765921027104818e-05,0.01964446212726683,0.07410362127877176,-0.0026152415174994295,0.9899300719994696,0.027701029025063717,0.07980599942297717,8.737453277391053e-05,-0.013508846721166368,-0.08034341449949245,-0.0020294667094449687,88.64252586154998,-0.4994113051817045,-3.296992659631431,0.00918367259366697,2.2083209078802706,-2.574930130597591,-0.2298046158797501,0.5499960522101908,0.0006283019941676582,0.0002513207976670522,0.01676998,0.99985616,0.00251062,0.0,-0.0003947737858225689,0.03141344606640544,0.012565378426562175,0.0,0.0,0.0,0.0,-0.019737650277231702,-0.00024804368507400256,-9.921747402960102e-05,0.0,0.0,0.0,0.0,0.00015585044375956536,-0.012401531422015132,-0.004960612568806052,0.0,0.0,0.0,0.0,0.050614170353295296,0.001164263103059439,0.0029272680796305446,-3.82413995225761e-06,-0.000593722666523625,-0.0026756127624594636,0.00011396030726828685,0.01329579018186632,0.04898574714592617,0.10083744739913564,-1.765921027104818e-05,-0.01964446212726683,-0.07410362127877176,0.0026152415174994295,-1.0096677222767012,-0.027949072710137718,-0.07990521689700678,-8.737453277391053e-05,0.013508846721166368,0.08034341449949245,0.0020294667094449687,-88.64237001110622,0.4870097737596894,3.292032047062625,-0.00918367259366697,-2.2083209078802706,2.574930130597591,0.2298046158797501,0.22440662009509435,-2.1665067933026996,-2.1403483688807783,-0.4178775272357574,1.5404280640208519,-1.3510859957485197,-0.04090525483111548,-0.1921358125233262,0.0002937720311358104,0.05720413502223233,0.07083827737617246,-0.03656880223901869,-0.3873169760544017,-0.9674652636594998,2.848733717071156,-1.7239700477126247,-0.07683689395112303,-0.3921408327383285,0.22524619294296575,-2.161726479871138,-2.137742336319053,-0.4211843238903516,1.5382768689709672,-1.3503784093020006,-0.01307625175399007,-0.0339628302043143,0.08530084045447625,-0.051341576399409956,-1.0703788729348291e-05,-0.013076011787836992,-0.39893406997350384,-1.0831278879512887,2.6687497357912178,-1.5857326213824705,-0.00033021438949180774,-0.3989279419879638,0.5,0.5,0.5,0.5,0.5,0.5,0.5,0.5,0.5,0.5,0.5,0.5,0.07461665607578906,30.480371137922763,8.321466858725747,1.3298772429099461,-0.0062618201423384244,5.294112689592199e-07,0.03625428712241835,0.2243350275741986,0.17194750661498148,-0.19038875493812124,-0.10844517594848765,0.02961221474302274,0.4243794547779772,1.157973129677257,-2.3653320383382885,1.2510920434294297,-0.08457436951030947,0.41625341475953287
0.4992915235004998,-0.0007080807511001138,-0.003548370400218867,0.01597268732414613,0.9998636767474136,0.002427825327688459,-0.00340688200073019,-0.009063083444451907,-0.0172159848853402,-0.08724152582365106,1.7856114389224133e-05,0.019533122473567893,0.07313106829601262,-0.0026294785478963995,0.4627480523236983,0.03563161941805282,0.1030543148922397,1.9690411817595212e-05,-0.011133965369893722,-0.09725529827591395,-0.001423703039696994,-52.71820196757712,0.7930590392989101,2.3248315469262537,-0.006768412095631531,0.23748813512726452,-1.69118837764215,0.06057636697479746,0.5499911176190404,0.0009424219857704366,0.0003769687943081635,0.01676998,0.99985616,0.00251062,0.0,-0.0005921411974155642,0.03141034557134415,0.01256413822853766,0.0,0.0,0.0,0.0,-0.019735702178730295,-0.0003720532871377199,-0.00014882131485508796,0.0,0.0,0.0,0.0,0.00023376797472315897,-0.012400307395627034,-0.004960122958250813,0.0,0.0,0.0,0.0,0.05069959411854058,0.0016505027368705503,0.003925339194527031,-6.186650053363607e-06,-0.0007887506628904934,-0.0034070051887622865,0.0001399349778368725,0.008470942247036343,0.04862633045668435,0.09980566405218873,-1.7856114389224133e-05,-0.019533122473567893,-0.07313106829601262,0.0026294785478963995,-0.4824837545024286,-0.03600367270519054,-0.1032031362070948,-1.9690411817595212e-05,0.011133965369893722,0.09725529827591395,0.001423703039696994,52.71843573555184,-0.8054593466945371,-2.3297916698845045,0.006768412095631531,-0.23748813512726452,1.69118837764215,-0.06057636697479746,0.22398467419257861,-2.1684585996437638,-2.14021299813555,-0.41738915793669856,1.5411287246019227,-1.3514651333109746,-0.04219459025157293,-0.1951806341063966,0.013537074522809167,0.04883692990588206,0.07006605810708808,-0.037913756245493015,-0.12893354204574548,-0.3044821583070408,1.3243302491673357,-0.836720511635027,-0.07722192690843793,-0.13449540064743243,0.22510093907255418,-2.162108584409445,-2.1367731014352866,-0.4217714942195501,1.538276749225344,-1.3505236607380884,-0.014525387041155049,-0.03821045383069272,0.09692348837660718,-0.05871703291985514,-1.1974562310424405e-05,-0.014525143608772507,-0.14491352871649782,-0.424762362637842,1.1622647922130926,-0.7375456520445183,-0.0001270773581076114,-0.1449131820935515,0.5000301794267533,0.5240952779624547,0.505431677234347,0.4991424209200696,0.5000038367037708,0.4999999997535206,0.5000070173068898,0.5048511606810212,0.501098626793787,0.4998270898953468,0.5000007767749298,0.49999999994386074,0.04716516184095426,31.236398482480432,7.644189115426791,1.3257247650684414,-0.004658419844565264,5.220058318715536e-07,0.04008735982298468,0.2335585665342255,0.14746776025842184,-0.17653081357780145,-0.1078269759138154,0.03348538513188215,-0.24890716822238693,-0.5737531610250017,1.6544288860047751,-0.9510538439271343,-0.05889083104086959,-0.25267423118506027
0.49926590577068913,-0.0008765289381565114,-0.0044122300785967294,0.015776722564031953,0.9998641031427049,0.0024138124267981315,-0.004128411479032718,-0.0025875648272720834,-0.016851359263049957,-0.08639405983866665,1.8249917745675947e-05,0.019444523583879127,0.07215993005165358,-0.0026431293106501663,0.6475518617179824,0.0364625622290244,0.0847465984984419,3.938033564518144e-05,-0.008859888968876586,-0.09711382443590433,-0.0013650762753766865,18.480380939428407,0.08309428109715827,-1.8307716393797802,0.0019689923827586227,0.2274076401017136,0.014147384000962049,0.005862676432030756,0.549984209464165,0.001256504772166902,0.0005026019088667496,0.01676998,0.99985616,0.00251062,0.0,-0.0007894852322879936,0.031406005049622834,0.012562402019849133,0.0,0.0,0.0,0.0,-0.019732974948499807,-0.0004960482011747184,-0.00019841928046988733,0.0,0.0,0.0,0.0,0.0003116762769273854,-0.012398593826335685,-0.004959437530534273,0.0,0.0,0.0,0.0,0.05071830369347591,0.0021330337103234133,0.004914831987463479,-9.081822271772566e-06,-0.0009828828997352674,-0.004128687879243021,0.00016604696854862592,0.00179807959498409,0.04825736431267279,0.09895646185851578,-1.8249917745675947e-05,-0.019444523583879127,-0.07215993005165358,0.0026431293106501663,-0.6672848366664822,-0.03695861043019912,-0.0849450177789118,-3.938033564518144e-05,0.008859888968876586,0.09711382443590433,0.0013650762753766865,-18.48006926315148,-0.09549287492349395,1.825812201849246,-0.0019689923827586227,-0.2274076401017136,-0.014147384000962049,-0.005862676432030756,0.22354166670743497,-2.1704655260528627,-2.1398921604309344,-0.4170125381819852,1.5418219506385542,-1.351865876362101,-0.04430074851436328,-0.20069264090990427,0.03208377046157694,0.037661975471334645,0.06932260366314111,-0.04007430511264425,-0.21061582627903486,-0.5512006803507655,1.8546695938767774,-1.1174954434547413,-0.07434544439469659,-0.21605488671512352,0.22493326414081927,-2.1625576340155575,-2.135634698173167,-0.42246089445949153,1.538276610054276,-1.3506913330163808,-0.016767493173491917,-0.04490496061122978,0.11384032621198714,-0.06894002399414113,-1.3917106808585657e-05,-0.016767227829241053,-0.22421061323368677,-0.6694506780537062,1.6916837835379963,-1.0222991074285994,-0.00019425444981612512,-0.22420842204685462,0.5000644697631214,0.5494797083713163,0.5112386348297684,0.4982817362626904,0.5000077389187947,0.4999999994207935,0.5000147024931866,0.5099945192533809,0.5022794198356964,0.4996524838080361,0.5000015707930081,0.4999999998715715,0.0681770798061479,31.00096996476514,7.84219207974602,1.3258187958073846,-0.005046436545332846,5.099342883402497e-07,0.03884941737501785,0.2301951004019159,0.15385890516640685,-0.18015345016408446,-0.10719830853961697,0.03229847901839753,0.0887240381999451,-0.4655849088653328,-0.5131632223254395,0.19074908327847437,-0.05934157363494609,0.08440804800563576
0.4992889125591249,-0.0010407959235004933,-0.005265568031950288,0.015581218502141194,0.9998640202296412,0.002399501128825263,-0.004838292523307941,0.0022762708727293427,-0.016435233925205146,-0.08534808056968467,1.838370622022125e-05,0.019400739885602182,0.0709946464040656,-0.002653672111770155,0.4863835700001426,0.0416125337844811,0.1045979268981978,1.3378847454530182e-05,-0.004378369827694531,-0.11652836475879863,-0.0010542801119988593,-16.11682917178398,0.5149971555456697,1.9851328399755896,-0.0026001488190651257,0.44815191411820554,-1.9414540322894303,0.031079616337782723,0.5499753280182866,0.0015705379539064424,0.0006282151815625659,0.01676998,0.99985616,0.00251062,0.0,-0.0009867980996352674,0.031400424672597856,0.012560169869039142,0.0,0.0,0.0,0.0,-0.019729468694206623,-0.000620023532078105,-0.00024800941283124195,0.0,0.0,0.0,0.0,0.000389572274685874,-0.012396390781789866,-0.004958556312715946,0.0,0.0,0.0,0.0,0.05068641545916175,0.0026113338774069357,0.005893783213512854,-1.2479252848085487e-05,-0.001176575208323964,-0.004838717650455919,0.0001922606907360724,-0.00326306897236461,0.047835658597803005,0.09790825043872381,-1.838370622022125e-05,-0.019400739885602182,-0.0709946464040656,0.002653672111770155,-0.5061130386943492,-0.042232557316559206,-0.10484593631102905,-1.3378847454530182e-05,0.004378369827694531,0.11652836475879863,0.0010542801119988593,16.117218744058665,-0.5273935463274596,-1.9900913962883056,0.0026001488190651257,-0.44815191411820554,1.9414540322894303,-0.031079616337782723,0.2230861001284528,-2.172504129610805,-2.13943330831946,-0.41671994307160837,1.542507848456129,-1.3522797477963364,-0.04555665789821552,-0.20386035579422793,0.04588521114741399,0.029259511037681256,0.06858978175747915,-0.04138714342353539,-0.12559093838522403,-0.31677148843236563,1.380144068583705,-0.8402464433653392,-0.0732821905661954,-0.13128383108911332,0.22475156369187932,-2.1630523955962278,-2.1343741202743547,-0.4232267617777268,1.5382764580691932,-1.3508730307691563,-0.018170044893994864,-0.04947615806703903,0.12605778988121277,-0.0765867318235246,-1.5198508276029315e-05,-0.01816977527756304,-0.14025517205029472,-0.45711974558092505,1.221746366922563,-0.7646707829383467,-0.00012814014674436585,-0.14025474483219877,0.5001012512833923,0.5777648039750141,0.5164530603950708,0.49745105095098313,0.5000113263403468,0.4999999989783469,0.5000228442115161,0.5157608552846918,0.5033466687489034,0.4994828947898974,0.5000023056879961,0.4999999997778726,0.0570403410721642,31.31822036041864,7.6243931606651225,1.3262765676146169,-0.0044684495747149295,5.574517560746689e-07,0.04010080395685417,0.23385629015956197,0.14526194646548535,-0.17570928924086515,-0.10660616535341619,0.03359955584322154,-0.07707170406933991,-0.995745087043407,0.4925867045300898,-0.34360292031451634,-0.05672313883355376,-0.08125451363299005
0.49936201841426775,-0.0012006734170889738,-0.006108758172913384,0.015385917859497014,0.9998634608212855,0.0023849006238032145,-0.005535837345617874,0.007287332335182747,-0.01599853187776535,-0.08433929905195227,1.8500853765404998e-05,0.01938282476365963,0.06976068426343429,-0.00266254182624176,0.5011061462453404,0.043670204743979577,0.10087815177323989,1.1714754518374866e-05,-0.001791512194255357,-0.12339621406313034,-0.0008869714471605034,1.472257624519785,0.20576709594984782,-0.37197751249579136,-0.00016640929361553159,0.2586857633439174,-0.6867849304331708,0.016730866483835594,0.5499644736320295,0.0018845091334967548,0.0007538036533986909,0.01676998,0.99985616,0.00251062,0.0,-0.001184072009883237,0.03139360466057294,0.012557441864229175,0.0,0.0,0.0,0.0,-0.019725183554271646,-0.0007439743855140956,-0.0002975897542056382,0.0,0.0,0.0,0.0,0.0004674528927980127,-0.012393698348962002,-0.0049574793395848,0.0,0.0,0.0,0.0,0.050602455217761744,0.0030851825505857286,0.006862561826312075,-1.6350424929534313e-05,-0.0013700871076749838,-0.005536407613440837,0.00021855550387891423,-0.008471404345065985,0.04739213653833829,0.09689674091618145,-1.8500853765404998e-05,-0.01938282476365963,-0.06976068426343429,0.00266254182624176,-0.5208313297996121,-0.04441417912949367,-0.10117574152744553,-1.1714754518374866e-05,0.001791512194255357,0.12339621406313034,0.0008869714471605034,-1.471790171626987,-0.21816079429880983,0.36702003315620657,0.00016640929361553159,-0.2586857633439174,0.6867849304331708,-0.016730866483835594,0.22261783141824884,-2.174576521700553,-2.1388326417152057,-0.4165116213127629,1.5431865979378303,-1.352706893174743,-0.04682687102039792,-0.20723920897477185,0.060066660425431656,0.020832175884541893,0.06787494817012739,-0.042714537840661634,-0.12702131221823934,-0.337885318054394,1.4181449278017664,-0.8427335153139365,-0.07148335873517636,-0.13273944171262442,0.22455576674130628,-2.163595635999102,-2.132987310808994,-0.4240703863799206,1.5382762929890987,-1.3510688249600211,-0.01957969505730422,-0.0543240402874462,0.13868094653607915,-0.08436246021938337,-1.6508009444725985e-05,-0.019579419086488026,-0.14096501633093575,-0.4847882220407169,1.2623156654866379,-0.7775728395858772,-0.000130950116869667,-0.14096438089249846,0.500142348994857,0.6069770271673013,0.5217079668239814,0.4966338736552321,0.5000147999765523,0.4999999984341766,0.500031648952045,0.521759798095507,0.5044291491497334,0.49931486073146364,0.5000030216604954,0.49999999966523473,0.06335628635725418,31.341656405200276,7.6183893454312726,1.325972871361504,-0.0043922787908123,5.599845871831391e-07,0.04006535178393762,0.233832673590969,0.14436040975241654,-0.17558994171033498,-0.10602449947970813,0.03361790245564854,0.008663927960808664,-0.8076302149733133,-0.013153983200617815,-0.05537645719361567,-0.055848136311235475,0.004228928043655912
0.49947826657644867,-0.0013558576273608853,-0.006941065338887734,0.015190576269725505,0.9998624603792762,0.002370022066383167,-0.006220105489379258,0.011602650636472464,-0.01553119192175218,-0.08325573116228384,1.8496683325959287e-05,0.019389263114026195,0.06843284960056831,-0.002669201346144505,0.4315318301289717,0.04673399560131703,0.10835678896684298,-4.170439445711193e-07,0.0006438350366566592,-0.13278346628659843,-0.0006659519902744993,-6.9574316116368715,0.30637908573374545,0.7478637193603088,-0.0012131798462945984,0.2435347230912016,-0.938725222346809,0.02210194568860041,0.5499516467339063,0.002198405915893273,0.0008793623663572982,0.01676998,0.99985616,0.00251062,0.0,-0.0013812991749957123,0.031385545282790486,0.012554218113116194,0.0,0.0,0.0,0.0,-0.01972011969786487,-0.0008678958681152343,-0.00034715834724609367,0.0,0.0,0.0,0.0,0.0005453150566703512,-0.012390516634144732,-0.004956206653657892,0.0,0.0,0.0,0.0,0.050473380157457615,0.0035542635432541585,0.007820427705245032,-2.0663951992738738e-05,-0.001563665884832641,-0.006220818247464171,0.0002449045725230603,-0.012983949811468175,0.04691673720454267,0.09580994927540003,-1.8496683325959287e-05,-0.019389263114026195,-0.06843284960056831,0.002669201346144505,-0.4512519498268366,-0.047601891469432264,-0.10870394731408907,4.170439445711193e-07,-0.0006438350366566592,0.13278346628659843,0.0006659519902744993,6.957976926693542,-0.3187696023678902,-0.7528199260139667,0.0012131798462945984,-0.2435347230912016,0.938725222346809,-0.02210194568860041,0.22214074697241099,-2.176672683929524,-2.138110765880318,-0.41637516702452776,1.5438583227478693,-1.3531434361287764,-0.04770844458378524,-0.20961622289709464,0.07218758348877602,0.013645428823517191,0.06717248100388826,-0.043654295403333154,-0.08815735633873227,-0.2377013922322774,1.2120923063344362,-0.7186747061024701,-0.0702467166239128,-0.0939757562671521,0.22434973850224776,-2.1641783799619714,-2.1314943657601497,-0.4249806465598661,1.5382761178218518,-1.351274850440694,-0.020602823905850862,-0.0582743962869068,0.14929450488444784,-0.09102601799454717,-1.7516724691465115e-05,-0.020602548067287937,-0.10231288485466408,-0.39503559994606,1.061355834836869,-0.6663557775163794,-0.00010087152467391292,-0.10231289807999117,0.5001876428349712,0.6381930294263146,0.5267057243944149,0.4958364101071687,0.500018071946535,0.49999999777709825,0.5000410639073907,0.5282195202768556,0.5054660948088298,0.4991496117773286,0.5000037009798851,0.4999999995315697,0.06093189997710172,31.5085259750822,7.5134312547377915,1.3259510574265898,-0.004084346424830703,5.648553959582538e-07,0.04063291542315034,0.2356482423931665,0.1398615573272991,-0.17375794804710393,-0.10546397032498155,0.0342400344311871,-0.03149972568123334,-0.9599650885961982,0.23555099463946477,-0.16768925014660097,-0.05426464076655427,-0.035943733405139164
0.4996352990031796,-0.0015061414244275854,-0.007762345875669888,0.014994976253283419,0.9998610545296389,0.00235487608663338,-0.006890346918591025,0.015682049209363898,-0.01504309468676843,-0.08215717766569988,1.8432293672293158e-05,0.019417492552800016,0.0670301251084177,-0.0026740520646517073,0.40793985728914334,0.04880972349837493,0.10985534965839566,-6.4389653666128966e-06,0.0028229438773820503,-0.1402724492150606,-0.00048507185072023395,-2.359197283982839,0.20757278970578996,0.1498560691552686,-0.0006021921422041777,0.2179108840725391,-0.7488982928462173,0.01808801395542653,0.5499368478303008,0.002512215908988506,0.0010048863635953912,0.01676998,0.99985616,0.00251062,0.0,-0.0015784718087819213,0.03137624685742093,0.012550498742968371,0.0,0.0,0.0,0.0,-0.019714277324898683,-0.0009917830876735752,-0.00039671323506943005,0.0,0.0,0.0,0.0,0.0006231556924379812,-0.012386845762946708,-0.004954738305178683,0.0,0.0,0.0,0.0,0.050301548827121234,0.004018357333416092,0.00876723223926528,-2.538783357597385e-05,-0.0017575314685610542,-0.006891200348684556,0.00027128477948395655,-0.01726052101814582,0.04641934154418936,0.09470767640866826,-1.8432293672293158e-05,-0.019417492552800016,-0.0670301251084177,0.0026740520646517073,-0.427654134614042,-0.049801506586048504,-0.11025206289346509,6.4389653666128966e-06,-0.0028229438773820503,0.1402724492150606,0.00048507185072023395,2.359820439675277,-0.21995963546873668,-0.1548108074604473,0.0006021921422041777,-0.2179108840725391,0.7488982928462173,-0.01808801395542653,0.22165643768939752,-2.1787892995449987,-2.1372749467912224,-0.4163051243939262,1.5445231553911254,-1.3535877891180528,-0.04843092830134618,-0.2116615615474682,0.08358190890957296,0.007004263060155844,0.06648326432560137,-0.044435298927629485,-0.07224837175609451,-0.20453386503735704,1.1394325420796934,-0.6641165763361347,-0.06892166782868941,-0.07810035242963326,0.2241350942933238,-2.164798164864778,-2.12990220079074,-0.42595308889511946,1.5382759337616327,-1.3514894919039622,-0.02146442089239793,-0.06197849028065296,0.15921649694098047,-0.09724423352533479,-1.8406021901988306e-05,-0.02146414632682267,-0.08615969865470689,-0.37040939937461603,0.992199205653263,-0.6218215530787621,-8.892972105231919e-05,-0.08615982595347321,0.5002378772591305,0.6709454215202343,0.531600919280786,0.4950542550660844,0.500021197367725,0.49999999701102604,0.50005113870721,0.5350555544173311,0.5064893880717353,0.4989861519366209,0.500004354603516,0.4999999993781426,0.06269716680460433,31.60004130917607,7.4645744224975,1.3257751134803675,-0.003910507659866626,5.64726231323052e-07,0.04086010739083444,0.23655193675247424,0.13739993675789278,-0.1731038600634041,-0.10491652084405192,0.03452364983241949,-0.008823987539241674,-0.9345474436453738,0.10446883755504159,-0.08861976138445947,-0.05322194245631,-0.013358456621498014
0.4998288664502993,-0.0016513002194312254,-0.008572026150334158,0.014798905895013486,0.9998592807981193,0.002339472923023419,-0.007545717502043636,0.019336494159555764,-0.014532332726330602,-0.0810004367854502,1.828384252767732e-05,0.01946692260779732,0.06554311027592717,-0.00267704399447909,0.3654444950191866,0.05107619604378284,0.1156740880249682,-1.4845114461583885e-05,0.004943005499730493,-0.14870148324905297,-0.00029919298273825556,-4.249536226995676,0.22664725454079118,0.581873836657254,-0.0008406149094970989,0.2120061622348443,-0.8429034033992366,0.01858788679819784,0.5499200775054488,0.002825926724101254,0.0011303706896404907,0.01676998,0.99985616,0.00251062,0.0,-0.0017755821272038967,0.031365709751550175,0.012546283900620072,0.0,0.0,0.0,0.0,-0.019707656666019955,-0.0011156311533338198,-0.00044625246133352787,0.0,0.0,0.0,0.0,0.0007009717270858873,-0.01238268588028764,-0.004953074352115056,0.0,0.0,0.0,0.0,0.05009121105514952,0.0044772269435324795,0.00970239683997465,-3.0488077439549954e-05,-0.0019518984921343158,-0.007546710611049648,0.0002976718259141242,-0.02111207628675966,0.04589804247788078,0.09354672068607027,-1.828384252767732e-05,-0.01946692260779732,-0.06554311027592717,0.00267704399447909,-0.38515215168520656,-0.05219182719711666,-0.11612034048630172,1.4845114461583885e-05,-0.004943005499730493,0.14870148324905297,0.00029919298273825556,4.250237198722761,-0.23902994042107883,-0.586826911009369,0.0008406149094970989,-0.2120061622348443,0.8429034033992366,-0.01858788679819784,0.22116737718714313,-2.1809199561172656,-2.1363379650741425,-0.41629345550044994,1.54518120713731,-1.354037481831967,-0.0489060502254404,-0.21306565722668921,0.09369817170797848,0.0011668893476279637,0.06580517461846874,-0.0449692713914102,-0.04751219240942205,-0.14040956792210088,1.0116262798405518,-0.583737371252788,-0.06780897071326215,-0.0533972463780716,0.22391430677405758,-2.1654496753355383,-2.128223184510932,-0.42698065950325603,1.538275742771176,-1.3517102767202223,-0.02207875192662006,-0.06515104707600669,0.16790162798078828,-0.10275706081365694,-1.909904568512375e-05,-0.022078481626004058,-0.06143310342221278,-0.3172556795353727,0.8685131039807809,-0.5512827288322155,-6.930237831354426e-05,-0.06143352991813886,0.5002933419959711,0.7056419701207413,0.5363267373950523,0.49428826747554555,0.5000241595988443,0.49999999613168844,0.5000618566967018,0.5423647433575173,0.5074853125951023,0.4988245868784141,0.5000049791010531,0.4999999992044262,0.06152519089896137,31.73160874556416,7.39529158783209,1.3258933324938007,-0.0036871731136505818,5.667744321903391e-07,0.04122041887498505,0.23797708729931677,0.13415670614355313,-0.17220086290475153,-0.10438345900014054,0.034941253663678534,-0.01769873583668312,-1.0037269535740183,0.16370860815256272,-0.10412623814417915,-0.05209454090320875,-0.02224847004752322
0.5000560295898516,-0.001791153350765904,-0.009369682112848568,0.014602167954909265,0.9998571774680174,0.002323822596558847,-0.008185426393654905,0.02269697084363128,-0.014003351056167682,-0.07980066705276631,1.8069767853350208e-05,0.01953612774068777,0.06397711000992298,-0.0026783295572080645,0.3360476684075516,0.05289816701629195,0.11997697326838891,-2.1407467432711102e-05,0.006920513289044791,-0.15660002660041888,-0.0001285562728974704,-2.939682661163495,0.1821970972509107,0.43028852434207066,-0.0006562352971127216,0.19775077893142978,-0.7898543351365916,0.017063670984078516,0.5499013364214136,0.003139525976465696,0.0012558103905862673,0.01676998,0.99985616,0.00251062,0.0,-0.0019726223486837727,0.031353934381165134,0.012541573752466055,0.0,0.0,0.0,0.0,-0.019700257982600965,-0.0012394351757863968,-0.0004957740703145587,0.0,0.0,0.0,0.0,0.0007787600885702636,-0.012378037150392575,-0.00495121486015703,0.0,0.0,0.0,0.0,0.049845306831561964,0.0049306793272316,0.010625492503434836,-3.592968834176258e-05,-0.0021469667947120346,-0.008186558965479327,0.00032404252589126025,-0.024669593192315053,0.04535728543733282,0.09234224080523237,-1.8069767853350208e-05,-0.01953612774068777,-0.06397711000992298,0.0026783295572080645,-0.35574792639015257,-0.054137602192078346,-0.12047274733870347,2.1407467432711102e-05,-0.006920513289044791,0.15660002660041888,0.0001285562728974704,2.940461421252065,-0.19457513440130328,-0.4352397392022277,0.0006562352971127216,-0.19775077893142978,0.7898543351365916,-0.017063670984078516,0.2206753458701778,-2.1830601423229403,-2.1353088075451576,-0.4163341015466956,1.5458325841347982,-1.354490734246833,-0.04920313169653238,-0.21401862056748136,0.1029157528984745,-0.004064604624564044,0.06513769974881653,-0.0453252414866079,-0.029708147109197846,-0.09529633407921384,0.9217581190496021,-0.5231493972192007,-0.06674748696522191,-0.0355970095197703,0.22368916572219172,-2.166129496747488,-2.1264659407416904,-0.4280581487167176,1.5382755462916544,-1.3519354151257192,-0.022514105186585153,-0.06798214119492814,0.1757243769241692,-0.10774892134615872,-1.964795215260534e-05,-0.022513840549707672,-0.0435353259965094,-0.28310941189214484,0.7822748943380919,-0.49918605325017795,-5.4890646748159054e-05,-0.04353589237036139,0.5003545916802443,0.7422107790951759,0.540923551037693,0.49353708156112125,0.5000269769163742,0.49999999513996013,0.5000732336688186,0.5501472620712413,0.508462407878428,0.4986645350807779,0.5000055780537482,0.49999999901098885,0.06121140768418427,31.84312533715244,7.342849245129845,1.3259908016731046,-0.003504924305436131,5.670443731340985e-07,0.041478555237396325,0.2391954845454833,0.1315225894773154,-0.17171178708662785,-0.10386176479971532,0.03525753197511608,-0.01090311223895975,-1.023148394315861,0.1277239068397327,-0.07589866356611157,-0.051171158442257336,-0.015469382904148548
0.5003135521265856,-0.0019255262042289101,-0.010154712082185949,0.014404570928571983,0.9998547842149645,0.0023079347424143117,-0.008808646663086063,0.025733822669512813,-0.013456705610323472,-0.07854009695514391,1.7786594062958197e-05,0.01962454093841813,0.062328510093823404,-0.002677945548094692,0.30368518258815336,0.05466454458442106,0.12605700976223988,-2.8317379039201034e-05,0.008841319773036233,-0.16485999160995787,3.840091133723578e-05,-3.236248581939827,0.17663775681291127,0.6080036493850971,-0.0006909911606489932,0.19208064839914413,-0.8259965009538989,0.016695718423470618,0.5498806253180613,0.003453001285720317,0.0013812005142881157,0.01676998,0.99985616,0.00251062,0.0,-0.002169584694410994,0.03134092121113726,0.012536368484454904,0.0,0.0,0.0,0.0,-0.019692081566729067,-0.0013631902674604872,-0.0005452761069841948,0.0,0.0,0.0,0.0,0.0008565177059397943,-0.012372899756785405,-0.004949159902714162,0.0,0.0,0.0,0.0,0.049567073191475686,0.005378527489949227,0.011535912596474065,-4.167618369310677e-05,-0.0023429305946143755,-0.008809919242956947,0.0003503734776318314,-0.027903407363923806,0.04479762682146073,0.09107646543959881,-1.7786594062958197e-05,-0.01962454093841813,-0.062328510093823404,0.002677945548094692,-0.32337726415488244,-0.05602773485188155,-0.12660228586922406,2.8317379039201034e-05,-0.008841319773036233,0.16485999160995787,-3.840091133723578e-05,3.2371050996457664,-0.18901065656969668,-0.6129528092878113,0.0006909911606489932,-0.19208064839914413,0.8259965009538989,-0.016695718423470618,0.22018223364244058,-2.1852046441084703,-2.134197355969332,-0.41642074143004365,1.54647738021249,-1.3549456555572368,-0.04931122277372272,-0.2144501785529778,0.11114515758254578,-0.00866398833480827,0.06447960776919476,-0.04549213104037399,-0.010809107719033975,-0.04315579854964228,0.8229404684071285,-0.45993837102442264,-0.06580919796217785,-0.01668895537660876,0.22346156227467803,-2.1668336609676215,-2.124639980329351,-0.42918001329672445,1.538275345901107,-1.352163016000196,-0.022760344751369743,-0.07041642201337965,0.18259604123393747,-0.11218645800068609,-2.0039054747718182e-05,-0.022760087447691913,-0.02462395647845894,-0.2434280818451512,0.6871664309768266,-0.44375366545273687,-3.911025951128423e-05,-0.02462468979842411,0.5004220813329553,0.7808494353541,0.5453788810623446,0.4928005971515144,0.5000296495729839,0.4999999940341821,0.5000852655435194,0.5584620446528401,0.5094182029721339,0.4985058781427856,0.5000061514314321,0.4999999987978575,0.0597562008142964,31.965904959643975,7.288620742760199,1.3262755632386738,-0.003317527345821435,5.68082653004251e-07,0.041753768762882414,0.24058887856476113,0.1287946408975575,-0.17129185118470233,-0.10335072957787546,0.03559129337066887,-0.012058932434607315,-1.0684121551888879,0.13942528586799696,-0.07055040407422422,-0.05029726613123914,-0.016607339926645235
0.5005986785892709,-0.002054268654766397,-0.010926521299629191,0.014205932158417265,0.9998521416170143,0.002291818863558407,-0.009414561151586669,0.0284951382748968,-0.012894858597990581,-0.07721950298275856,1.7441501768222144e-05,0.019731299607273472,0.060598274198888205,-0.002675968767787657,0.2761315605383986,0.056184701233289065,0.13205939723853477,-3.450922947360535e-05,0.01067586688553411,-0.1730235894935199,0.00019767803070350198,-2.7553622049754756,0.15201566488680027,0.600238747629489,-0.0006191850434404317,0.1834547112497878,-0.8163597883562024,0.01592771193662662,0.5498579450130308,0.0037663402763966633,0.0015065361105586542,0.01676998,0.99985616,0.00251062,0.0,-0.0023664613886494046,0.031326670755204226,0.012530668302081688,0.0,0.0,0.0,0.0,-0.01968312774119516,-0.0014868915427169735,-0.0005947566170867894,0.0,0.0,0.0,0.0,0.0009342415094568877,-0.012367273902281635,-0.004946909560912653,0.0,0.0,0.0,0.0,0.049259266423759884,0.00582060893116306,0.012433057410187845,-4.7690030582581144e-05,-0.0025399752552205017,-0.009415975020220556,0.0003766415776743214,-0.030861599663546204,0.04422152935319481,0.08975017128484025,-1.7441501768222144e-05,-0.019731299607273472,-0.060598274198888205,0.002675968767787657,-0.2958146882795938,-0.05767159277600604,-0.13265415385562157,3.450922947360535e-05,-0.01067586688553411,0.1730235894935199,-0.00019767803070350198,2.7562964464849324,-0.1643829387890819,-0.6051856571904017,0.0006191850434404317,-0.1834547112497878,0.8163597883562024,-0.01592771193662662,0.2196896518987378,-2.1873488567232036,-2.133012115670406,-0.41654783253140737,1.5471156813210434,-1.3554006316750806,-0.04925817437027982,-0.21442126147333643,0.1185240298926154,-0.012709110136371708,0.06383011085533684,-0.04549761178438172,0.00530484034428963,0.0028917079641368527,0.7378872310069617,-0.40451218015634377,-0.06494969138579222,-0.0005480744007730198,0.22323310998731166,-2.1675588718104026,-2.122753457413136,-0.43034139482281825,1.5382751429886043,-1.3523914657989822,-0.022845228736636962,-0.07252108427813145,0.18865229162151737,-0.11613815260938111,-2.0291250255010876e-05,-0.02284497987861225,-0.008488398526721938,-0.2104662264751797,0.6056250387579898,-0.39516946086950167,-2.5219550729269457e-05,-0.008489243092033721,0.5004963527176608,0.8216072771779753,0.5497053291128454,0.49207834660413574,0.5000321861643457,0.4999999928144536,0.5000979564964522,0.5673400736753639,0.5103555311706532,0.4983484039925038,0.5000067008827067,0.49999999856541427,0.05824282856113061,32.08353044072308,7.241411675084299,1.32661544922228,-0.0031471162150315916,5.683939306821364e-07,0.04198781141434169,0.24196866887766907,0.12631188730315712,-0.17108351026156002,-0.10284860589350237,0.03588408728047055,-0.00933924904363137,-1.0989617363719257,0.12735662515659096,-0.05587831107453128,-0.04954199231401342,-0.013855909153769027
0.5009087315181139,-0.002177242132147509,-0.01168442048555951,0.014006073442241798,0.9998492913622908,0.002275484250436004,-0.010002331752219876,0.030988737580829467,-0.012318954360641333,-0.07582946310675295,1.703580609507117e-05,0.019855972803809904,0.05878429914604921,-0.0026724409668809034,0.24935993059326672,0.057590423734924824,0.1390039876005611,-4.056956731509727e-05,0.012467319653643172,-0.18139750528389925,0.00035278009067538085,-2.677162994513188,0.14057225016357588,0.6944590362026326,-0.0006060337841491916,0.17914527681090614,-0.8373915790379355,0.015510205997187887,0.5498332964017015,0.0040795305784079045,0.0016318122313631507,0.01676998,0.99985616,0.00251062,0.0,-0.0025632446590442212,0.03131118357594962,0.012524473430379848,0.0,0.0,0.0,0.0,-0.01967339685948094,-0.0016105341180413198,-0.0006442136472165278,0.0,0.0,0.0,0.0,0.0010119284307188654,-0.012361159808980365,-0.004944463923592146,0.0,0.0,0.0,0.0,0.04892456488358765,0.006256772710555414,0.013316232716922661,-5.393251200491722e-05,-0.0027382817563781667,-0.010003888914085202,0.00040282358653666566,-0.033551982239873684,0.04363013793659096,0.0883539365371328,-1.703580609507117e-05,-0.019855972803809904,-0.05878429914604921,0.0026724409668809034,-0.26903332745274766,-0.05920095785296614,-0.13964820124777763,4.056956731509727e-05,-0.012467319653643172,0.18139750528389925,-0.00035278009067538085,2.678174922943907,-0.15293340997255625,-0.6994035001262248,0.0006060337841491916,-0.17914527681090614,0.8373915790379355,-0.015510205997187887,0.2191991410641053,-2.189488083058783,-2.1317613987937656,-0.4167100729686532,1.5477475640558205,-1.3558541181924988,-0.049051083463249476,-0.21392263355793414,0.1250716876640439,-0.016224043724581087,0.06318827347770688,-0.045348651741814565,0.02070909070303434,0.04986279154022946,0.6547657771428489,-0.35149335882093796,-0.06418373776299624,0.014896004256715488,0.22300534759113078,-2.1683018561800913,-2.120814337704549,-0.4315376002138123,1.5382749389233104,-1.3526192258015854,-0.022776239618088372,-0.07429843696884708,0.19391197085871864,-0.1196205390994096,-2.0406529404590425e-05,-0.02277600026032725,0.006898911854858955,-0.17773526907156334,0.5259679237201276,-0.3482386490028494,-1.1527914957954846e-05,0.006897961828499985,0.5005779413567126,0.8646149471134339,0.5539026794121873,0.49137023826773407,0.5000345905743027,0.4999999914802495,0.5001113042189153,0.5768332058407988,0.5112745361835724,0.4981919723063893,0.5000072271137129,0.4999999983139005,0.056119877517029924,32.20448239688784,7.196610040851189,1.3270892325208927,-0.002981737701048981,5.688730511942872e-07,0.04221118522686548,0.24343972576484785,0.12389593987531938,-0.17099590995558367,-0.10235428036923158,0.036166135671721875,-0.008657752416764723,-1.135485746463506,0.12724901003079425,-0.047271996583737416,-0.0488628104396764,-0.013120967625899833
0.5012412938904904,-0.0022943244241724913,-0.012427683667152134,0.013804821681804684,0.999846276009511,0.002258940146020198,-0.010571113359670863,0.03324067041530796,-0.01173063632104085,-0.0743663572370753,1.6573401143243597e-05,0.01999806713346077,0.05688587528155085,-0.0026674067762148916,0.22519328344784947,0.05883180396004835,0.14631058696776555,-4.624049518275739e-05,0.014209432965086796,-0.1898423864498365,0.000503419066601174,-2.416664714541725,0.12413802251235243,0.7306599367204458,-0.0005670927867660124,0.17421133114436244,-0.8444881165937251,0.015063897592579312,0.5498066804571586,0.004392559827537186,0.0017570239310148634,0.01676998,0.99985616,0.00251062,0.0,-0.002759926736928877,0.03129446028478077,0.012517784113912309,0.0,0.0,0.0,0.0,-0.019662889305744963,-0.001734113112236362,-0.0006936452448945446,0.0,0.0,0.0,0.0,0.0010895754027790974,-0.012354557718255537,-0.004941823087302215,0.0,0.0,0.0,0.0,0.0485653865666682,0.006686884251709678,0.014184707598166998,-6.036395501329839e-05,-0.0029380260068769507,-0.01057281653038439,0.00042889619702481677,-0.036000597152236836,0.04302509660582162,0.08688414135098761,-1.6573401143243597e-05,-0.01999806713346077,-0.05688587528155085,0.0026674067762148916,-0.24485617275359445,-0.06056591707228471,-0.1470042322126601,4.624049518275739e-05,-0.014209432965086796,0.1898423864498365,-0.000503419066601174,2.417754289944504,-0.13649258023060795,-0.735601759807748,0.0005670927867660124,-0.17421133114436244,0.8444881165937251,-0.015063897592579312,0.2187120795885911,-2.1916178721700197,-2.130452788649431,-0.41690262451019305,1.5483730971216807,-1.3563047313935066,-0.04870614755142059,-0.21297891112368209,0.13086101443344023,-0.01925515415398783,0.06255330658601614,-0.04506132010078854,0.034493591182888673,0.09437224342520575,0.5789326769396332,-0.30311104294067426,-0.06349668916907293,0.028733164102602776,0.2227796502540929,-2.169059671820671,-2.1188298692036485,-0.4327643232898553,1.53827473497275,-1.3528449208481954,-0.022569733703787506,-0.07578156405794947,0.19844685009006374,-0.12267230760430109,-2.0395056050042063e-05,-0.022569504661006323,0.020650591430086684,-0.1483127089102393,0.45348792313451014,-0.3051768504891486,1.147335454836185e-06,0.02064955993209272,0.5006674230049222,0.9099533728083382,0.557976345898677,0.490676208047281,0.5000368685156312,0.49999999003172024,0.500125307876214,0.5869868890481682,0.5121765947265583,0.49803643533870656,0.5000077312001516,0.499999998043678,0.053703282103431046,32.32422714931906,7.156181295854551,1.3276478875700535,-0.0028265157968936643,5.689474798750658e-07,0.04240989086447906,0.24495634992107274,0.12162618591931648,-0.1710516155283553,-0.10186642354991629,0.03642323242416821,-0.007048785348127527,-1.1661487898770975,0.12126283138386901,-0.03723994399651024,-0.04827394801720673,-0.011443282730438679
0.5015941027680337,-0.002405404852011445,-0.013155518444959838,0.013602006652305454,0.9998431390058788,0.002242195755305735,-0.011120042989863063,0.035266352980636816,-0.011131060819231526,-0.07282357582378769,1.60564814480828e-05,0.020157310396551338,0.054901206753223415,-0.0026608960541186916,0.2025682565328854,0.0599575501809323,0.15427814132876055,-5.169196951607974e-05,0.015924326309056658,-0.19846685283274323,0.0006510722096200044,-2.262502691496407,0.11257462208839539,0.7967554360995,-0.0005451474333322347,0.17148933439698616,-0.8624466382906731,0.014765314301883048,0.549778098230154,0.0047054156659257435,0.0018821662663702863,0.01676998,0.99985616,0.00251062,0.0,-0.0029564998576317105,0.03127650154190458,0.012510600616761831,0.0,0.0,0.0,0.0,-0.01965160549480745,-0.00185762364661501,-0.000743049458646004,0.0,0.0,0.0,0.0,0.0011671793602680797,-0.01234746789074638,-0.004938987156298552,0.0,0.0,0.0,0.0,0.048183995462120266,0.007110820517937188,0.015037684711330124,-6.694375020954713e-05,-0.0031393811022660126,-0.011121895590910553,0.00045483584232179164,-0.038222852838268526,0.04240756236113611,0.08533417644054953,-1.60564814480828e-05,-0.020157310396551338,-0.054901206753223415,0.0026608960541186916,-0.22221986202769287,-0.06181517382754731,-0.15502119078740656,5.169196951607974e-05,-0.015924326309056658,0.19846685283274323,-0.0006510722096200044,2.263669870856675,-0.12492208997914177,-0.8016944232557985,0.0005451474333322347,-0.17148933439698616,0.8624466382906731,-0.014765314301883048,0.21822974190241576,-2.193733824482723,-2.129093454540451,-0.41712097215941474,1.5489923412554913,-1.3567511905299507,-0.04823376861753519,-0.2115952312703365,0.13593341089798727,-0.02183476492216663,0.06192441338107272,-0.044645913644410735,0.04723789338853983,0.13836798533456002,0.507239646454704,-0.25796107681788016,-0.06288932049434225,0.04154064563778055,0.22255728630299992,-2.1698295295437062,-2.1168068926871024,-0.43401751204185446,1.5382745323468008,-1.353067282619167,-0.022236395109299045,-0.07698577230353641,0.20229765165462277,-0.125318875199917,-2.0262594909097537e-05,-0.022236177097148868,0.03333385944884609,-0.1204208245586938,0.38508015645590254,-0.2646567595615906,1.324611409445265e-05,0.03333275638574551,0.5007653905039805,0.9577222667688665,0.5619284307830816,0.48999636819735853,0.50003902432309,0.49999998846899113,0.5001399641880591,0.597855504665018,0.5130623978273611,0.49788167294716323,0.5000082139421842,0.4999999977550829,0.05085147700060527,32.44500646119498,7.118895273941398,1.3283171415751325,-0.002678093158745964,5.688680328450984e-07,0.04259212597982291,0.24655040578699938,0.11945452890058628,-0.1712199747540173,-0.10138391289870596,0.03666336735904166,-0.005991548837745528,-1.1961619498704492,0.11831254043847102,-0.02927944384811185,-0.04776141170639496,-0.010301088604079061
0.5019650862433971,-0.002510384982391465,-0.013867085337137,0.013397460920505965,0.9998399245174671,0.002225260363039733,-0.01164824442162409,0.03708489045343091,-0.01052146167534359,-0.07119644598919066,1.5487775592003977e-05,0.020333438188223155,0.05282896197911291,-0.0026529336668673145,0.18185374727940976,0.06095991438879369,0.16271298345970353,-5.687058560788226e-05,0.017612779167181652,-0.20722447741105057,0.0007962387251377046,-2.071450925347565,0.10023642078613865,0.8434842130942977,-0.0005178616091802517,0.16884528581249947,-0.8757624578307338,0.01451665155177001,0.549747550849065,0.005018085742560773,0.002007234297024298,0.01676998,0.99985616,0.00251062,0.0,-0.003152956260782504,0.03125730805630147,0.012502923222520584,0.0,0.0,0.0,0.0,-0.019639545872133946,-0.0019810608451928512,-0.0007924243380771405,0.0,0.0,0.0,0.0,0.0012447372395144498,-0.01233989060634715,-0.00493595624253886,0.0,0.0,0.0,0.0,0.04778246460566793,0.007528470724952238,0.015874319634161298,-7.36305224152689e-05,-0.003342517392222455,-0.011650250576593212,0.0004806186556886772,-0.04023784671421342,0.04177876973164506,0.08369936921171124,-1.5487775592003977e-05,-0.020333438188223155,-0.05282896197911291,0.0026529336668673145,-0.2014932931515437,-0.06294097523398653,-0.16350540779778067,5.687058560788226e-05,-0.017612779167181652,0.20722447741105057,-0.0007962387251377046,2.0726956625870794,-0.11257631139248579,-0.8484201693368365,0.0005178616091802517,-0.16884528581249947,0.8757624578307338,-0.01451665155177001,0.21775328130099283,-2.1958316755989884,-2.1276900417007627,-0.4173609594627241,1.5496053498831632,-1.3571923350482664,-0.04764606014229299,-0.2097851116265659,0.14034128396883058,-0.02399873033093756,0.06130086276718945,-0.044114451831577646,0.05877084752422079,0.18101196437705805,0.440787307084331,-0.21639654087709317,-0.06235506138832705,0.05314618128330921,0.222339400674643,-2.17060886389837,-2.1147517326488074,-0.43529340702819586,1.5382743321776828,-1.3532851661835694,-0.021788562835691184,-0.0779334354663805,0.20551600382948446,-0.12758949863413785,-2.001691178488738e-05,-0.021788356440243687,0.044783227360786076,-0.09476631628440868,0.32183521748616883,-0.2270623434220853,2.4568312421015503e-05,0.04478206569051811,0.500872464253161,1.007996236360518,0.5657620882001188,0.48933093262570826,0.5000410625919539,0.4999999867925476,0.5001552698204268,0.6094935040906124,0.5139328946478074,0.4977275750038465,0.5000086761922724,0.4999999974484972,0.04766894190371104,32.56548767880757,7.085090430074635,1.3290779012505336,-0.0025373947307126585,5.683549093464486e-07,0.04275490111156837,0.24821385836489746,0.1173967548035664,-0.17149699652946523,-0.1009056112758219,0.03688337624663138,-0.0047403010128752796,-1.221520531235625,0.1139539302333599,-0.021625747649703403,-0.04732599998217431,-0.00895136732885788
0.5023523301311191,-0.002609176512737729,-0.014561491288633877,0.01319101884243786,0.9998366773358394,0.0022081433943249213,-0.01215482532483693,0.03871205564188522,-0.009902861093208724,-0.06947963973854872,1.4869447509969022e-05,0.02052628523908656,0.0506675231462278,-0.0026435356762075785,0.16271651884543076,0.0618600582134865,0.1716806250641939,-6.18328082034955e-05,0.01928470508634067,-0.21614388328851097,0.0009397990659736066,-1.9137228433978997,0.09001438246928131,0.8967641604490373,-0.0004962222595613244,0.16719259191590174,-0.8919405877460401,0.014356034083590208,0.5497150395198499,0.005330557713763024,0.0021322230855051983,0.01676998,0.99985616,0.00251062,0.0,-0.003349288190618846,0.031236880585697364,0.012494752234278947,0.0,0.0,0.0,0.0,-0.019626710913817694,-0.0021044198348806435,-0.0008417679339522573,0.0,0.0,0.0,0.0,0.001322245978665935,-0.012331826164196057,-0.004932730465678423,0.0,0.0,0.0,0.0,0.04736270938873077,0.007939734226500753,0.016693714374139076,-8.038224069273348e-05,-0.0035476034883438743,-0.012156989859595964,0.0005062203614748322,-0.04206134383250407,0.04113974167890609,0.08197439197282766,-1.4869447509969022e-05,-0.02052628523908656,-0.0506675231462278,0.0026435356762075785,-0.18234322975924844,-0.06396447804836715,-0.17252239299814617,6.18328082034955e-05,-0.01928470508634067,0.21614388328851097,-0.0009397990659736066,1.9150450893765656,-0.10234620863347738,-0.9016968909147157,0.0004962222595613244,-0.16719259191590174,0.8919405877460401,-0.014356034083590208,0.2172837498920095,-2.1979072400488784,-2.1262487694256698,-0.4176187414248033,1.5502121693542954,-1.3576271048010362,-0.046953140898334245,-0.2075564449889778,0.14412722750928614,-0.025778196207919848,0.06068194711321015,-0.04347697527698633,0.06929192439587407,0.22286666375881012,0.37859435404555514,-0.1779465876982285,-0.061891565397929775,0.06374765545913173,0.22212703455772365,-2.17139527880178,-2.1126702937879998,-0.43658849925268217,1.5382741355318867,-1.353497530357772,-0.021236611691934793,-0.07864149034098918,0.20814388608078854,-0.12950922244863108,-1.9664579609846728e-05,-0.021236417420269754,0.055195114375639065,-0.07080548746086768,0.26278822513040867,-0.1919723814493235,3.523321750406537e-05,0.05519390199739335,0.5009892854231166,1.060842048410838,0.5694794329088291,0.4886802407622862,0.5000429874039185,0.49999998500304554,0.5001712205562606,0.6219599191619325,0.5147888333010233,0.49757404815797734,0.5000091186982649,0.4999999971243049,0.044134458459947776,32.68616586837467,7.054352707944293,1.3299351949246485,-0.0024032487774394333,5.673866442978201e-07,0.042900753336439626,0.24995893333912667,0.11543747252157374,-0.17186706596671633,-0.10043047269746677,0.037085636309974794,-0.003663309524245772,-1.242907678857069,0.11040557874077407,-0.015035195443143641,-0.04696146288302193,-0.007763099527077132
0.5027540796626568,-0.00270170093067755,-0.015237798898606297,0.012982516608784326,0.9998334426874239,0.002190854521025835,-0.01263888059854106,0.04016378735818445,-0.009276249596998746,-0.06766875071613758,1.4203722537442742e-05,0.020735680549279177,0.04841560672676671,-0.0026327123135889766,0.1451731716299226,0.06266114962099785,0.18108890224111385,-6.657249725262808e-05,0.020939531019261576,-0.22519164194610905,0.0010823362618601895,-1.7543347215508154,0.08010914075113479,0.9408277176919944,-0.0004739689049132581,0.16548259329209059,-0.9047758657598076,0.014253719588658287,0.5496805655260004,0.0056428192436741124,0.002257127697469634,0.01676998,0.99985616,0.00251062,0.0,-0.0035454878962923237,0.031215219936533853,0.01248608797461354,0.0,0.0,0.0,0.0,-0.01961310112656088,-0.002227695745676699,-0.0008910782982706794,0.0,0.0,0.0,0.0,0.0013997025178102305,-0.01232327488266347,-0.004929309953065388,0.0,0.0,0.0,0.0,0.04692648586334358,0.008344520174351663,0.017494926596075933,-8.715640791567836e-05,-0.003754806207195617,-0.012641209042607932,0.000531616224228291,-0.04370927525447677,0.040491469533532595,0.08015483869075112,-1.4203722537442742e-05,-0.020735680549279177,-0.04841560672676671,0.0026327123135889766,-0.1647862727564835,-0.06488884536667455,-0.18197998053938452,6.657249725262808e-05,-0.020939531019261576,0.22519164194610905,-0.0010823362618601895,1.7557344240686257,-0.09243241563379825,-0.9457570276450598,0.0004739689049132581,-0.16548259329209059,0.9047758657598076,-0.014253719588658287,0.21682209946484968,-2.199956432037414,-2.124775423466562,-0.4178907782863313,1.5508128393479614,-1.3580545393039878,-0.046165042715981444,-0.20491919885357027,0.14733459591079442,-0.02720368615280022,0.06006699936660067,-0.042743450295168246,0.07880981823527985,0.26372461354075266,0.32073684015082843,-0.14254899448803723,-0.06149477466094827,0.07335249818180821,0.2219211264188467,-2.172186557903639,-2.1105680531095117,-0.43789952770170654,1.538273943405775,-1.353703436679401,-0.02059081388769312,-0.07912791018588719,0.2102240678487979,-0.13110284490243504,-1.9212611172989e-05,-0.02059063216288941,0.06457978042416733,-0.04864198448980145,0.20801817680093648,-0.15936224538039556,4.5196843685772794e-05,0.06457852573803421,0.501116516473677,1.116300043001924,0.5730825810983983,0.4880447381090517,0.5000448027513076,0.4999999831014349,0.5001878122674234,0.6353149228425963,0.5156309885336035,0.49742101178519577,0.5000095421871065,0.49999999678290896,0.0403005689966898,32.80652150744473,7.026639073171324,1.330877935905313,-0.002275570152363668,5.657366667426559e-07,0.04302938189973185,0.25178681920823376,0.11357727913193756,-0.17232118557131407,-0.09995748168003152,0.037269709224460525,-0.0025712699789689976,-1.2583027397888777,0.10656148260578743,-0.009064921234815596,-0.04666560512002914,-0.006548658879716999
0.5031687241678083,-0.0027878884397855726,-0.01589502903389374,0.012771792218376026,0.9998302660383506,0.002173403752852832,-0.013099494392492516,0.041454490294261584,-0.008642510792366841,-0.06575963112940571,1.349263278265763e-05,0.020961454344898447,0.0460721320490339,-0.002620467610210144,0.12907029360771372,0.06337388046319045,0.19091195867318722,-7.11089754785112e-05,0.02257737956192704,-0.23434746777328125,0.0012244703378832406,-1.6102878022208889,0.07127308421926021,0.9823056432073374,-0.0004536478225883114,0.16378485426654654,-0.9155825827172198,0.014213407602305106,0.5496441302284907,0.005954858004743515,0.002381943201897395,0.01676998,0.99985616,0.00251062,0.0,-0.0037415476321745024,0.031192326963936264,0.012476930785574505,0.0,0.0,0.0,0.0,-0.019598717047654597,-0.0023508837108591404,-0.0009403534843436561,0.0,0.0,0.0,0.0,0.0014771037990957976,-0.012314237099339344,-0.004925694839735737,0.0,0.0,0.0,0.0,0.046475406060682345,0.008742746444529088,0.018276972235791136,-9.391025612004444e-05,-0.003964290588462805,-0.013101992981707068,0.0005567809910363936,-0.04519603792643609,0.0398348377563031,0.07823656191498021,-1.349263278265763e-05,-0.020961454344898447,-0.0460721320490339,0.002620467610210144,-0.1486690106553683,-0.0657247641740496,-0.19185231215753087,7.11089754785112e-05,-0.02257737956192704,0.23434746777328125,-0.0012244703378832406,1.6117649060199846,-0.08358732131859956,-0.9872313380470731,0.0004536478225883114,-0.16378485426654654,0.9155825827172198,-0.014213407602305106,0.21636919138260766,-2.2019752516225686,-2.123275398503836,-0.41817381135656395,1.551407393150344,-1.3584737679776497,-0.0452908082242026,-0.20188195851546478,0.1500024962725739,-0.02830330702326176,0.05945538023826583,-0.04192286736620264,0.08742344917788426,0.30372403381054763,0.266790036177948,-0.10996208704615378,-0.06116191283348382,0.08205829289656086,0.22172252184008584,-2.1729806431707086,-2.108450101490796,-0.4392234591919943,1.5382737567293348,-1.3539020395700034,-0.019860457876087253,-0.07940852670697016,0.2117951618715377,-0.1323931490287749,-1.86676440361665e-05,-0.019860289060236597,0.0730356011605867,-0.028061652108296586,0.15710940227398051,-0.12903041263398474,5.4496713682250126e-05,0.07303431026528147,0.5012548367584486,1.1743837640890855,0.5765731776746076,0.48742497399819834,0.5000465123636259,0.4999999810889251,0.5002050410611653,0.6496204077545238,0.5164600524734015,0.4972683990253789,0.5000099473282535,0.49999999642471676,0.03618948327780175,32.926495223096765,7.001730299340917,1.3319012093308458,-0.0021537672138841873,5.632371094484725e-07,0.043141837641513296,0.2537033220777388,0.11180932653243275,-0.17284823265235544,-0.09948567796870394,0.037436525609763516,-0.001554162859245348,-1.2669090307002688,0.10297110077087654,-0.003847318981888618,-0.04643458894730146,-0.005399128898642215
0.5035947901982399,-0.0028676775348282653,-0.016532169593945198,0.012558686158134682,0.9998271928240826,0.002155801550351727,-0.013535745682150666,0.04259787870404727,-0.00800248674930359,-0.06374900851592118,1.2738231795380672e-05,0.021203367046776805,0.043636576486505825,-0.0026068007628151646,0.11433884097856867,0.0640024043063252,0.20106226134845306,-7.54400987276957e-05,0.02419127018783579,-0.24355555625280717,0.0013666847394979559,-1.4731452629145048,0.06285238431347484,1.0150302675265843,-0.0004331123249184509,0.16138906259087482,-0.9208088479525922,0.014221440161471532,0.5496057350657239,0.006266661678215241,0.0025066646712860853,0.01676998,0.99985616,0.00251062,0.0,-0.0039374596581627196,0.031168202571679956,0.012467281028671983,0.0,0.0,0.0,0.0,-0.019583559244957652,-0.0024739788671780355,-0.000989591546871214,0.0,0.0,0.0,0.0,0.001554446766852583,-0.012304713171019886,-0.004921885268407954,0.0,0.0,0.0,0.0,0.046010944867483916,0.009134339213043506,0.019038834265231282,-0.00010060100514652781,-0.004176219196573793,-0.013538421360732777,0.0005816888713660268,-0.046535338362209994,0.03917068932098355,0.07621628954459315,-1.2738231795380672e-05,-0.021203367046776805,-0.043636576486505825,0.0026068007628151646,-0.1339224002235263,-0.06647638317350324,-0.2020518528953243,7.54400987276957e-05,-0.02419127018783579,0.24355555625280717,-0.0013666847394979559,1.4746997096813574,-0.07515709748449473,-1.0199521527949922,0.0004331123249184509,-0.16138906259087482,0.9208088479525922,-0.014221440161471532,0.21592580143240353,-2.2039597950951464,-2.121753713570126,-0.41846484880473245,1.5519958579636997,-1.3588840054199092,-0.04433899502041306,-0.1984543472578027,0.1521684933710012,-0.029103744816847136,0.058846481335568565,-0.04102374422593828,0.0951813203789542,0.34276112576620876,0.2165997098427294,-0.08004377935853754,-0.060889890269727076,0.08991231402643589,0.2215319784369421,-2.1737756306186173,-2.106321158579363,-0.44055747774203624,1.5382735763658366,-1.3540925814171396,-0.019054340314371917,-0.07949874479085668,0.21289429114334368,-0.13340185500419646,-1.80363498147116e-05,-0.019054184713620075,0.0806117561715336,-0.009021808388652575,0.10991292718059709,-0.10087059754215755,6.312942214548994e-05,0.08061043466165221,0.5014049387906551,1.2350676034164105,0.5799526598014554,0.4868215909695842,0.5000481198302846,0.49999997896704257,0.5002229040026966,0.6649376788861417,0.5172766897153986,0.4971161558436941,0.500010334756465,0.499999996050142,0.03185115711961813,33.04569498775536,6.979490877456907,1.3329928355932026,-0.0020375344898378145,5.596227335700995e-07,0.04323842828620497,0.2557102135181944,0.11013091801374021,-0.17343906682308616,-0.09901413816214558,0.037586291609706085,-0.0005622881115312007,-1.2670754484503917,0.09935802824716572,0.0007543604868684092,-0.04626580906133394,-0.004266167405216711
0.5040309304256596,-0.002941014491456869,-0.017148184001653813,0.012343042422959012,0.9998242681318932,0.0021380589378879253,-0.013946715105976835,0.04360655426018596,-0.0073569688144410565,-0.061634458298379775,1.1942577764554827e-05,0.02146107495786409,0.041109101750218535,-0.0025917067275745068,0.10086755561386912,0.06455179348625328,0.21145502175414013,-7.956540308258454e-05,0.025770791108728486,-0.25274747362872896,0.0015094035240657833,-1.3471285364699548,0.05493891799280837,1.0392760405687067,-0.0004125304354888831,0.15795209208926964,-0.9191917375921788,0.014271878456782738,0.5495653815534753,0.006578217954614155,0.002631287181845651,0.01676998,0.99985616,0.00251062,0.0,-0.004133216239985644,0.03114284771215463,0.012457139084861853,0.0,0.0,0.0,0.0,-0.019567628316874135,-0.0025969763550473847,-0.0010387905420189537,0.0,0.0,0.0,0.0,0.0016317283677126525,-0.012294703473693479,-0.004917881389477391,0.0,0.0,0.0,0.0,0.045534451127815734,0.009519232446071025,0.019779471183499465,-0.00010718616273208692,-0.004390751078470223,-0.013949575526935263,0.0006063135379599233,-0.047739770500171606,0.03849981652659569,0.07409159738324163,-1.1942577764554827e-05,-0.02146107495786409,-0.041109101750218535,0.0025917067275745068,-0.12043518393074326,-0.06714876984130067,-0.21249381229615907,7.956540308258454e-05,-0.025770791108728486,0.25274747362872896,-0.0015094035240657833,1.3487602648376675,-0.06723362146650184,-1.0441939219581842,0.0004125304354888831,-0.15795209208926964,0.9191917375921788,-0.014271878456782738,0.21549262667886443,-2.2059062600393013,-2.1202150387516387,-0.4187611481205309,1.552578255172236,-1.3592845446743729,-0.04331747535391007,-0.19464649441551157,0.15386748184872062,-0.029629931579844664,0.058239720853635005,-0.04005392544636088,0.10215196665029869,0.3807852842291137,0.16989884777194325,-0.05261867629975266,-0.06067604819335602,0.0969818779577398,0.22135017273331511,-2.1745697582833214,-2.1041855988838933,-0.4418989705094368,1.5382734031136271,-1.354274385699444,-0.01818057036269944,-0.07941276647042164,0.2135559695469351,-0.1341492767400541,-1.7325220956044193e-05,-0.018180428230429008,0.08737699516724769,0.008597832043504006,0.06616784035914092,-0.07474217358576507,7.111288586674062e-05,0.08737564831910669,0.5015675220864163,1.2982796933266274,0.5832221701125783,0.4862353153725731,0.5000496285751859,0.49999997673764823,0.5002413996759859,0.6813261078946307,0.5180815113106133,0.49696424120581306,0.5000107050646189,0.499999995659598,0.027334789730762636,33.16379387782888,6.959739962314246,1.3341401264264259,-0.0019264540781833805,5.546180581698002e-07,0.04331976960548924,0.2578089696184425,0.10853772718072308,-0.17408453372015825,-0.09854198032199181,0.03771953847848507,0.0003839810586556587,-1.2574432023903153,0.09585629290034793,0.004745262959785494,-0.04615635905739873,-0.0031713435944131447
0.5044755323952888,-0.003008013711837769,-0.017741559666529974,0.012125549735258064,0.9998232090728079,0.0021213015265831472,-0.014213434588569222,0.044452770661276196,-0.00672259034775244,-0.05937076312184036,8.702154624876561e-06,0.021674138284433275,0.02668596229134962,-0.0023133455691847424,0.08462164010902343,0.06343784666886162,0.2263695176539418,-0.00032404231396782654,0.021306332656918434,-1.4423139458868917,0.02783611583897644,-1.6245915504845692,-0.11139468173916589,1.4914495899801676,-0.0244476910885242,-0.4464458451810052,-118.95664722581627,2.6326712314910656,0.5495230712848326,0.006889514534231933,0.002755805813692762,0.01676998,0.99985616,0.00251062,0.0,-0.004328809649508612,0.031116263386326722,0.01244650535453069,0.0,0.0,0.0,0.0,-0.01955092489232982,-0.0027198713187369726,-0.0010879485274947888,0.0,0.0,0.0,0.0,0.0017089455507307311,-0.012284208402525835,-0.004913683361010334,0.0,0.0,0.0,0.0,0.045047538889543826,0.009897528246069702,0.020497365480222737,-0.0001119344889971563,-0.004607525090355908,-0.014216521664636435,0.0006275387603724236,-0.048781580310784806,0.037838853734079164,0.07181726847637104,-8.702154624876561e-06,-0.021674138284433275,-0.02668596229134962,0.0023133455691847424,-0.10417256500135325,-0.06615771798759859,-0.22745746618143659,0.00032404231396782654,-0.021306332656918434,1.4423139458868917,-0.02783611583897644,1.6263004960352998,0.09911047333664005,-1.496363273341178,0.0244476910885242,0.4464458451810052,118.95664722581627,-2.6326712314910656,0.21507871935898862,-2.207842222304099,-2.1187196995331923,-0.4187426166745702,1.5531032690187625,-1.3596697319841822,-0.04139073198758244,-0.1935962264797806,0.149533921844632,0.0018531445960696183,0.05250138465265627,-0.038518730980925696,0.19267433663276312,0.10502679357309969,-0.43335600040886374,3.148307617591428,-0.573833620097874,0.1535194465435188,0.221186056143242,-2.1753920778957228,-2.102102871799376,-0.4429309496811812,1.5382224169811423,-1.3544420081513566,-0.016411659007313468,-0.08223196124014089,0.20827270845171095,-0.10319791717444382,-0.005098613248488065,-0.016762245191271376,0.1768911355385972,-0.2819194769719244,-0.5283261095224145,3.095135956561029,-0.508128802753202,0.1418183039157632,0.501769669631843,1.3570564261486417,0.5859802570976922,0.4857907293552786,0.5000515810326954,0.4999999744380712,0.5002653208948735,0.6971154500595317,0.5187798833143077,0.4968460517696932,0.5000111721088165,0.49999999526071737,0.15231277503648688,32.77263829888604,6.669106433101936,1.3474077950515102,-0.002921539947828831,1.2198735945539294e-06,0.04464497381786638,0.25482207661492073,0.09858041952488156,-0.1276186954425945,-0.10571787552884385,0.03856658986633044,-0.08255872282289577,-0.5872905448243678,0.7071104504661505,-3.0765288923152623,0.46215176647841455,-0.05064066900075806
0.5049282448941703,-0.003068311814621261,-0.018312162359156642,0.011904316003108482,0.9998207520898739,0.002103299680401685,-0.014571447470707913,0.04526630441797537,-0.006052167785520346,-0.05708868363180488,1.0238984509900259e-05,0.022028738207020764,0.035814893261052194,-0.0025565507536602014,0.08135337566991738,0.06704225622320946,0.22820794900354768,0.00015368298850236976,0.03545999225874896,0.9128930969702576,-0.024320518447545902,-0.326826443910605,0.36044095543478344,0.18384313496058735,0.04777253024701963,1.4153659601830528,235.52070428571488,-5.215663428652234,0.5494788059301325,0.007200539127612638,0.002880215651045044,0.01676998,0.99985616,0.00251062,0.0,-0.004524232165038727,0.031088450643699903,0.01243538025747996,0.0,0.0,0.0,0.0,-0.019533449630747296,-0.0028426589065640613,-0.0011370635626256245,0.0,0.0,0.0,0.0,0.0017860952675046499,-0.012273228371844393,-0.004909291348737757,0.0,0.0,0.0,0.0,0.04455056103596222,0.010268850942233898,0.021192378010201685,-0.00011814639957730133,-0.004827786962388641,-0.014574736593434345,0.0006515357174910454,-0.0497905365830141,0.03714061842922025,0.06952406388928484,-1.0238984509900259e-05,-0.022028738207020764,-0.035814893261052194,0.0025565507536602014,-0.10088682530066467,-0.06988491512977352,-0.22934501256617332,-0.00015368298850236976,-0.03545999225874896,-0.9128930969702576,0.024320518447545902,0.3286125391781097,-0.37271418380662785,-0.1887524263093251,-0.04777253024701963,-1.4153659601830528,-235.52070428571488,5.215663428652234,0.21466771338961985,-2.209701453268154,-2.117159575186584,-0.4190430208477818,1.553673932756274,-1.3600489977408439,-0.041100596936876815,-0.18592309640549848,0.15601243466082074,-0.03004041732116053,0.0570663737511473,-0.03792657566617389,0.029013505070562655,0.7673130074282106,0.6478512816188758,-3.1893561917230144,0.4564989098491037,0.05921553147518079,0.22102343550986897,-2.1761794669520946,-2.099966084583864,-0.44428038349981774,1.5382223028443789,-1.354604629133596,-0.016262063337302273,-0.07873890563718848,0.21367872155118744,-0.1349433818636575,-1.1413676348382928e-05,-0.016262098223936993,0.014959567001119473,0.3493055602952405,0.5406013099476498,-3.1745464689213687,0.5087199572139682,0.050014696733438266,0.501933149999338,1.4339212467220395,0.5895055729547997,0.4849929560015566,0.5000524363679002,0.4999999719742571,0.5002806170456341,0.7181164758972585,0.5196753148759499,0.49662577682652315,0.5000114115516877,0.49999999483415536,-0.1126324030961478,33.9055265907372,7.1998854390253415,1.3245022924879941,-0.000617529941496925,-2.3105229988724835e-08,0.04217107558324614,0.2669435356016763,0.11403890032428707,-0.2227879984370178,-0.08989587671472185,0.037181237744984975,0.17057195044631754,-2.337055916165606,-1.1363213285639029,6.16181190270942,-1.0675733212872467,0.09791222940677223
0.5053874112289767,-0.003122087192519559,-0.01885968963718815,0.011680392463589285,0.9998185488619138,0.0020852525936525565,-0.01490266772004336,0.04591284510575821,-0.005399312627175975,-0.05477866300311784,9.363860745477818e-06,0.02230212857174593,0.03313640424861292,-0.0025323019982575468,0.06465406877828386,0.06528551583443705,0.23100206286870428,-8.751237644224413e-05,0.02733903647251651,-0.2678489012439271,0.0024248755402654643,-1.6699306891633514,-0.17567403887724098,0.27941138651566,-0.02411953649446139,-0.8120955786232453,-118.07419982141846,2.674539398781137,0.5494325872368957,0.007511279456037884,0.0030045117824151423,0.01676998,0.99985616,0.00251062,0.0,-0.004719476071629694,0.031059410582273617,0.012423764232909449,0.0,0.0,0.0,0.0,-0.019515203222019977,-0.0029653342710849323,-0.0011861337084339727,0.0,0.0,0.0,0.0,0.0018631744722956934,-0.012261763815121965,-0.004904705526048785,0.0,0.0,0.0,0.0,0.04404517600791902,0.010633366648557442,0.02186420141960329,-0.000124149813281349,-0.0050508097764746995,-0.014906168737682074,0.0006751292338359852,-0.050632321177387904,0.036458723209449595,0.06720242723602729,-9.363860745477818e-06,-0.02230212857174593,-0.03313640424861292,0.0025323019982575468,-0.08416927200030384,-0.06825085010552198,-0.23218819657713827,8.751237644224413e-05,-0.02733903647251651,0.2678489012439271,-0.0024248755402654643,1.671793863635647,0.16341227506211903,-0.28431609204170877,0.02411953649446139,0.8120955786232453,118.07419982141846,-2.674539398781137,0.2142686200811784,-2.211514389312323,-2.11559455184798,-0.4193417458377565,1.5542384921149903,-1.3604169349707422,-0.039909330844145864,-0.1812936044168997,0.156502333860399,-0.02987249899747389,0.05645593587162948,-0.03679372298982744,0.11912660927309492,0.4629491988598782,0.0489899199578245,0.016791832368664016,-0.06104378795178214,0.11328526763464508,0.22087115545642294,-2.1769616813919095,-2.097833731055183,-0.4456305566555673,1.5382221940845044,-1.3547569094359087,-0.01522800534460391,-0.07822144398148184,0.21323535286811865,-0.1350173155749554,-1.0875987445993321e-05,-0.015228030231251523,0.10340579926983624,0.05174616557066386,-0.04433686830687955,-0.007393371129787996,5.376889023896069e-05,0.10340679926854698,0.50213752630688,1.5011329353646017,0.592408369744799,0.48443440078042427,0.5000536736038675,0.49999996942959885,0.5003010044845165,0.7373001032085738,0.5204372020529249,0.49646650843074774,0.5000117350243184,0.4999999943973669,0.019877194239927263,33.4637753145753,6.905605494072008,1.3360440076986042,-0.0016249219914739972,4.144351092231163e-07,0.04348353127494052,0.2648261738716152,0.10421759522669172,-0.1761401674716409,-0.09716135062282474,0.03801417138273822,-0.08197001390944222,-0.6933038650542711,0.6993883540732262,-3.096696892500921,0.46974269261644086,-0.04984805888765501
0.5058526720213309,-0.0031691996102788706,-0.019380397274414457,0.011453041862793148,0.9998166862564983,0.0020671013828053027,-0.015203578757551219,0.04652357269003956,-0.004732355158848566,-0.052093742116257516,8.386390580557769e-06,0.022649843491817825,0.030106259816348256,-0.002511552138738306,0.06107275842813509,0.0666957468327409,0.26849208868603214,-9.77470164920049e-05,0.03477149200718961,-0.3030144432264667,0.0020749859519240965,-0.35813103501487753,0.14102309983038547,3.7490025817327854,-0.0010234640049760775,0.7432455534673101,-3.5165541982539628,-0.034988958834136774,0.5493844170297569,0.007821723252011572,0.003128689300804618,0.01676998,0.99985616,0.00251062,0.0,-0.004914533661386387,0.031029144348499783,0.012411657739399914,0.0,0.0,0.0,0.0,-0.019496186386484832,-0.0030878925692862445,-0.0012351570277144975,0.0,0.0,0.0,0.0,0.0019401801221488352,-0.012249815184959618,-0.004899926073983847,0.0,0.0,0.0,0.0,0.04353174500842605,0.010990922862290442,0.022509086575219075,-0.00012987038660094985,-0.0052773409660358634,-0.015207302887668785,0.0006983194295994489,-0.05143810635142595,0.035761499507348346,0.06450539985565742,-8.386390580557769e-06,-0.022649843491817825,-0.030106259816348256,0.002511552138738306,-0.08056894481461992,-0.06978363940202714,-0.2697272457137466,9.77470164920049e-05,-0.03477149200718961,0.3030144432264667,-0.0020749859519240965,0.3600712151370264,-0.1532729150153451,-3.753902507806769,0.0010234640049760775,-0.7432455534673101,3.5165541982539628,0.034988958834136774,0.21388184568065105,-2.213272245929602,-2.114028111668596,-0.4196368869905487,1.554797006090535,-1.360773028216636,-0.03867744005273481,-0.17578566172788113,0.15664401793839625,-0.0295141152792169,0.05585139755446006,-0.03560932458936764,0.12318907914110554,0.5507942689018581,0.014168407799726354,0.03583837182569884,-0.060453831716942186,0.11843984004597988,0.22072961449655437,-2.1777371553099836,-2.095709284519223,-0.4469795614906149,1.5382220914626565,-1.3548984505866468,-0.01415409598685761,-0.0775473918073933,0.21244465359601403,-0.13490048350476513,-1.0262184789744258e-05,-0.014154115073807047,0.10739093577463009,0.06740521740885436,-0.07906992721046224,0.011683207019025366,6.138026562490635e-05,0.10739151574444758,0.5023558938518671,1.5725656680335998,0.5952471861837579,0.4839244965278976,0.5000548241375316,0.4999999668043047,0.5003218911040695,0.7584436177106275,0.5212001837109167,0.4963157196002734,0.5000120431390884,0.4999999939489687,0.0008052951411553176,33.67073895294649,6.910297009516277,1.3412348159280012,-0.0015372114691582053,5.647941287117513e-07,0.043503977187841526,0.26742963136386494,0.1029140529327586,-0.176933353840271,-0.09666904554756547,0.03809554466489037,0.004129909192275038,-1.1090564145643413,0.0837759748637503,0.015195242186312834,-0.04690589955318703,0.00023561284273755125
0.5063227226878352,-0.0032097267626829597,-0.019875412674835252,0.011222599575947439,0.9998151646609438,0.0020488800131212856,-0.015475524658624694,0.0470036578962995,-0.004073119963321249,-0.0495216336057854,7.433449672332833e-06,0.02296384476303046,0.027210487765090698,-0.0024892844965243993,0.048008520625993784,0.06592351955273168,0.25721085104721125,-9.52940908224936e-05,0.031400127121263346,-0.28957720512575585,0.002226764221390648,-1.3064237802141303,-0.07722272800092245,-1.1281237638820885,0.00024529256695113077,-0.33713648859262646,1.3437238100710847,0.015177826946655149,0.5493342972103934,0.00813185825974421,0.003252743303897673,0.01676998,0.99985616,0.00251062,0.0,-0.005109397233769161,0.03099765313723747,0.012399061254894988,0.0,0.0,0.0,0.0,-0.019476399874893968,-0.0032103289627762412,-0.0012841315851104963,0.0,0.0,0.0,0.0,0.0020171091770128757,-0.01223738295306881,-0.004894953181227524,0.0,0.0,0.0,0.0,0.043011574522558216,0.011341585022427169,0.023128155978732926,-0.00013530202276590408,-0.005507041836117864,-0.015479482653052877,0.0007210948854955032,-0.052113055130068656,0.03507077310055872,0.06192069486068039,-7.433449672332833e-06,-0.02296384476303046,-0.027210487765090698,0.0024892844965243993,-0.06748492050088775,-0.06913384851550793,-0.25849498263232173,9.52940908224936e-05,-0.031400127121263346,0.28957720512575585,-0.002226764221390648,1.3084408893911432,0.06498534504785364,1.123228810700861,-0.00024529256695113077,0.33713648859262646,-1.3437238100710847,-0.015177826946655149,0.21350777580914462,-2.2149762294610698,-2.112463447919886,-0.41992679282802303,1.5553494813499726,-1.3611168839701595,-0.037406987150643105,-0.17039835314679874,0.15646637487098874,-0.028990583747436547,0.0552475259437701,-0.03438557535235756,0.12704529020917038,0.5387308581082392,-0.017764306740751502,0.05235315317803537,-0.0603871610689955,0.12237492370100848,0.22059916624162446,-2.178504871118211,-2.093595531202703,-0.44832562914057944,1.5382219956411984,-1.3550288990080595,-0.013044825492991203,-0.07677158082275881,0.21137533165203562,-0.13460676499645113,-9.582145810912978e-06,-0.013044842141261375,0.11092704938664068,0.07758109846344868,-0.10693219439784074,0.029371850831400037,6.800389788312798e-05,0.11092729325456722,0.502591364018347,1.6443529618030528,0.5979752633524573,0.48343750895385307,0.5000558900795528,0.4999999640803187,0.5003437170937893,0.780604032882892,0.5219529610391259,0.49616553301409466,0.5000123363082938,0.4999999934852503,0.007275338182150461,33.70075780999837,6.888035279290784,1.3393122439202534,-0.0014418826277633103,4.865002081970091e-07,0.04351591826018836,0.2693426326967262,0.1017068729314757,-0.17774835998661737,-0.09618093691762626,0.03815207786481384,0.004603966304788901,-0.9307249399972466,0.0787683706439424,0.017893673262071252,-0.04647605011776248,0.001872659049524513
0.5067968398264004,-0.0032436459923062765,-0.020343421895596195,0.010988892249896801,0.9998140241431874,0.0020306022676197365,-0.015717443435774144,0.04741134734275949,-0.003411573010200444,-0.046817953505323195,6.445135406544008e-06,0.023295427543331484,0.024208526297250767,-0.0024654614188217624,0.04076894464599898,0.06615469531208051,0.2703680100462208,-9.883142657888248e-05,0.03315827803010256,-0.3001961467839931,0.0023823077702636933,-0.7239575979994806,0.023117575934883394,1.3157158999009544,-0.0003537335756388882,0.17581509088392122,-1.0618941658237235,0.015554354887304528,0.5492822297574499,0.008441672235636724,0.0033766688942546788,0.01676998,0.99985616,0.00251062,0.0,-0.005304059095897835,0.030964938191705784,0.012385975276682313,0.0,0.0,0.0,0.0,-0.01945584446838498,-0.003332638617975751,-0.0013330554471903003,0.0,0.0,0.0,0.0,0.0020939585998604525,-0.012224467610252773,-0.004889787044101109,0.0,0.0,0.0,0.0,0.042485389931049444,0.011685318227943001,0.023720090789850875,-0.0001404075321271847,-0.005740089053126471,-0.015721646865465844,0.0007434241115738705,-0.052715406438657325,0.034376511201906226,0.059203928782005505,-6.445135406544008e-06,-0.023295427543331484,-0.024208526297250767,0.0024654614188217624,-0.06022478911438396,-0.06948733393005627,-0.2717010654934111,9.883142657888248e-05,-0.03315827803010256,0.3001961467839931,-0.0023823077702636933,0.7260515565993411,-0.03534204354513617,-1.3206056869450555,0.0003537335756388882,-0.17581509088392122,1.0618941658237235,-0.015554354887304528,0.2131467433194743,-2.2166226701138236,-2.1109035768548874,-0.42020994440984416,1.5558959015157958,-1.3614481613200489,-0.03610324896703139,-0.1646440652754081,0.15598710649988468,-0.028315158182114466,0.05464201658232258,-0.033127734988931304,0.13037381836117157,0.5754287871390638,-0.0479268371104079,0.06754255653220811,-0.06055093614475188,0.12578403634262597,0.22048010770784332,-2.1792636854370793,-2.0914952328962504,-0.44966714099984595,1.5382219071849073,-1.355147957710439,-0.011905853378114003,-0.07588143188679526,0.21002983064522873,-0.13415118592665332,-8.845629127829503e-06,-0.01190587023795938,0.11389721148772,0.089014893596355,-0.13455010068068873,0.04555790697978179,7.365166830834752e-05,0.11389719033019947,0.5028426738328102,1.71749651474869,0.6005981338034829,0.4829724259448407,0.5000568763302998,0.4999999612709363,0.5003661825045802,0.8041959108913083,0.5226967409463329,0.49601564545760735,0.5000126152952641,0.49999999300813536,0.0009125544198724488,33.816396671087944,6.881831785423616,1.3409796674766183,-0.0013561196113799586,4.774003970834263e-07,0.0435139524809513,0.2719338228009441,0.10055386336949788,-0.1785680385925564,-0.09568920526181546,0.03819350066351401,0.005433444450399311,-0.9245995378156066,0.07659381203474225,0.018705284408986486,-0.04656764994299695,0.002858716544603475
0.5072742457130847,-0.003270967138893378,-0.02078386565912181,0.010751897771217928,0.9998132896662144,0.002012287447498054,-0.01592900500245735,0.0477411547788388,-0.0027509785290803146,-0.044058269314199996,5.4411763163277346e-06,0.023629340592255688,0.021173552838858894,-0.002440174712160792,0.032980743607931295,0.06605944811201295,0.2759684191123199,-0.00010039590902162734,0.033391304892420315,-0.3034973458391873,0.0025286706660970423,-0.7788201038067682,-0.009524720006756637,0.5600409066099099,-0.0001564482442744866,0.023302686231775616,-0.3301199055194215,0.014636289583334905,0.5492282167264603,0.008751152948763833,0.003500461179505522,0.01676998,0.99985616,0.00251062,0.0,-0.005498511562855406,0.03093100080343475,0.0123724003213739,0.0,0.0,0.0,0.0,-0.01943452097845012,-0.003454816706309014,-0.0013819266825236055,0.0,0.0,0.0,0.0,0.002170725356807937,-0.012211069666387124,-0.004884427866554849,0.0,0.0,0.0,0.0,0.04195397101337561,0.012022120087657212,0.024284326838627333,-0.00014516227767435996,-0.005976505974654836,-0.015933465865044214,0.0007652823365412948,-0.053239666341694206,0.033681979332515065,0.056430669635573895,-5.4411763163277346e-06,-0.023629340592255688,-0.021173552838858894,0.002440174712160792,-0.05241526458638142,-0.06951426481832196,-0.2773503457948435,0.00010039590902162734,-0.033391304892420315,0.3034973458391873,-0.0025286706660970423,0.7809908291635762,-0.0026863496596304867,-0.5649253344764648,0.0001564482442744866,-0.023302686231775616,0.3301199055194215,-0.014636289583334905,0.2127990346315389,-2.2182095613213404,-2.109351208307367,-0.420484959956601,1.556436257954845,-1.3617665649794133,-0.03477086879354186,-0.15868912075169425,0.1552368547520162,-0.027501554675687694,0.05403564390492477,-0.03184036593643311,0.1332380173489528,0.5954944523713831,-0.07502517478684749,0.08136035064267702,-0.060637267739781425,0.12873690524981937,0.22037269122414122,-2.1800126601210112,-2.0894108215809992,-0.4510026030647093,1.538221826577419,-1.3552553743858367,-0.010741648370210369,-0.07489746839321901,0.20844113152509994,-0.13354620648633364,-8.060748819748314e-06,-0.010741667539758786,0.11642050079036341,0.09839634935762537,-0.15886991201287948,0.06049794403196751,7.84880308081189e-05,0.11642026982005942,0.5031106803703667,1.790765295945168,0.60311566371027,0.4825305388943787,0.5000577854190749,0.49999995838000283,0.500389383581419,0.8289930014131737,0.5234317703926755,0.4958661813910612,0.5000128804124485,0.4999999925177667,-0.0014538171289157388,33.902254008159325,6.873190958418989,1.3415699329201949,-0.0012717426572628019,4.486933916853702e-07,0.043499226458891,0.27441964655813217,0.09947874647435258,-0.1793912483180051,-0.09519039785703585,0.03822093368872229,0.006191559827015067,-0.8036669201524002,0.07255560451250129,0.01938284267076415,-0.04688879619897496,0.003767858045892125
0.5077542477041003,-0.0032917018896208416,-0.021196033007538605,0.010511567459575714,0.9998129859895712,0.001993954129325485,-0.01610975304249798,0.0480015833867512,-0.0020915302869265974,-0.041227410967888824,4.4194887297550095e-06,0.023968263241168828,0.01809294817099312,-0.0024134168174723275,0.026042860791240102,0.06594482421537172,0.28308583463111725,-0.0001021687586572725,0.03389226489131404,-0.3080604667865774,0.0026757894688464456,-0.6937882816691193,-0.011462389664122774,0.7117415518797354,-0.00017728496356451604,0.05009599988937269,-0.4563120947390087,0.014711880274940331,0.5491722602497665,0.009060288181356898,0.0036241152725427477,0.01676998,0.99985616,0.00251062,0.0,-0.005692746957991434,0.030895842312214362,0.012358336924885745,0.0,0.0,0.0,0.0,-0.019412430246904266,-0.003576858404394306,-0.0014307433617577222,0.0,0.0,0.0,0.0,0.0022474064172352125,-0.012197189650399745,-0.004878875860159899,0.0,0.0,0.0,0.0,0.04141801254566624,0.01235199007097774,0.024820148280081354,-0.00014954227315155944,-0.006216342834889506,-0.01611448383499469,0.0007866433962492451,-0.053694330344742636,0.03298737259914096,0.053585747892774566,-4.4194887297550095e-06,-0.023968263241168828,-0.01809294817099312,0.0024134168174723275,-0.04545529103814437,-0.06952168261976603,-0.284516577992875,0.0001021687586572725,-0.03389226489131404,0.3080604667865774,-0.0026757894688464456,0.6960356880863545,-0.0007347999862769711,-0.7166204277398953,0.00017728496356451604,-0.05009599988937269,0.4563120947390087,-0.014711880274940331,0.21246489332563534,-2.2197346514694893,-2.1078088854162864,-0.4207506106205664,1.556970536185286,-1.3620718430908827,-0.033414130590357284,-0.15250901481489257,0.15423228910805473,-0.02656506639654132,0.053427823044098266,-0.03052781114694522,0.13567382031845773,0.6180105936801679,-0.10045656439614925,0.09364882791463752,-0.060782086082650566,0.13125547894878872,0.22027712425040621,-2.180750886546873,-2.0873445713836705,-0.4523306496881634,1.5382217542271233,-1.3553509415908005,-0.009556697373500114,-0.07382264258616295,0.20662501973288902,-0.13280466234541166,-7.235029573999994e-06,-0.00955672049638786,0.11849509967102548,0.10748258070560623,-0.1816111792210917,0.07415441409219792,8.257192457483196e-05,0.11849470433709253,0.503395532984994,1.8637630308548832,0.6055287122874511,0.482112442145847,0.5000586205347928,0.4999999554142316,0.5004133231568259,0.8550138419369739,0.5241582915093055,0.495717177603421,0.5000131320643568,0.4999999920146305,-0.004794666680965936,33.99158588396144,6.866896511545505,1.3423969031032819,-0.001190875589439812,4.230714265675926e-07,0.0434719434831221,0.27694796564131685,0.09845909295020779,-0.18021686647886964,-0.0946856789386595,0.03823442504187459,0.006933273483527182,-0.6933377708137641,0.07005742300160152,0.02000620080293675,-0.04713209549653059,0.004671596798065438
0.5082361648673996,-0.0033058773480990553,-0.02157950723293625,0.010267913164299152,0.9998131299308983,0.0019756230867452674,-0.016259523069576082,0.04819378217015067,-0.001434779689741171,-0.038354850808285615,3.3885055803913264e-06,0.024306091679034882,0.014995892224187918,-0.0023852080458141127,0.01921987833994679,0.06567505971854264,0.28725601596032085,-0.0001030983149363683,0.033782843786605427,-0.30970559468052017,0.002820877165821481,-0.6822982451293313,-0.026976449682908354,0.4170181329203604,-9.295562790958027e-05,-0.010942110470861521,-0.16451278939427771,0.014508769697503532,0.5491143625364344,0.009369065729286263,0.0037476262917144937,0.01676998,0.99985616,0.00251062,0.0,-0.005886757613225106,0.030859464106041637,0.012343785642416656,0.0,0.0,0.0,0.0,-0.019389573145851664,-0.0036987588942343553,-0.0014795035576937422,0.0,0.0,0.0,0.0,0.0023239987539053117,-0.012182828110249904,-0.004873131244099962,0.0,0.0,0.0,0.0,0.04087819766903478,0.012674943077385318,0.025327133524650745,-0.0001535304524699077,-0.006459588481200028,-0.01626453663128146,0.0008074838038329717,-0.05408053978337578,0.03229424379578281,0.05069863645070227,-3.3885055803913264e-06,-0.024306091679034882,-0.014995892224187918,0.0023852080458141127,-0.03860945148579845,-0.06937381861277699,-0.28873551951801457,0.0001030983149363683,-0.033782843786605427,0.30970559468052017,-0.002820877165821481,0.6846222438832367,0.01479362157265845,-0.4218912641644603,9.295562790958027e-05,0.010942110470861521,0.16451278939427771,-0.014508769697503532,0.21214452450240454,-2.221196374441323,-2.106278925856653,-0.42100580313067665,1.5574987202015271,-1.3623637828150996,-0.032036882323080225,-0.14617229718333266,0.15299595596333074,-0.02551925101102474,0.05281840162413173,-0.029193972421685633,0.13772482672770597,0.6336717631559918,-0.12363331447239902,0.10458153855165779,-0.06094214199665343,0.13338387252595865,0.22019357482361088,-2.181477566056749,-2.085298533456234,-0.45365002825488,1.538221690476009,-1.355434491301154,-0.008354942679533421,-0.07266795098763659,0.20460379274364532,-0.13193785667166028,-6.375111425223831e-06,-0.008354971035357017,0.12017546939666925,0.11546915985263528,-0.20212269892437018,0.08668056737513863,8.599181487761636e-05,0.12017494610308439,0.5036975323171011,1.9357946452785328,0.6078380991963984,0.4817188971621897,0.5000593846221307,0.49999995238002043,0.5004380568998241,0.8821754588947932,0.5248765126018917,0.4955687303607413,0.5000133705915518,0.4999999914990551,-0.006655836692840434,34.067968220237276,6.860517838016718,1.3428143975686906,-0.0011122838956163475,3.901808204963968e-07,0.043432577354807086,0.27939759613480997,0.0975037037647444,-0.18103907756266105,-0.0941741708911751,0.03823451327472244,0.007643131774982606,-0.5579725409610404,0.0667993452957597,0.020261135413551123,-0.04743344388674698,0.0055373401227640584
0.5087193436152334,-0.00331353174410002,-0.021934007049927817,0.01002097559619985,0.9998137328774234,0.0019573159906634803,-0.016378293925967676,0.048320474206458186,-0.000781847213188777,-0.03545415919770908,2.3528192981145875e-06,0.02463991404854955,0.011896717835565136,-0.002355569617880313,0.012669203630751719,0.0652932476552394,0.29006916105765373,-0.00010356862822767388,0.03338223695146664,-0.3099174388622783,0.002963842793379974,-0.655067470919507,-0.03818120633032329,0.2813145097332881,-4.703132913055777e-05,-0.040060683513878925,-0.021184418175812514,0.014296562755849312,0.5490545258721667,0.009677473402543045,0.0038709893610172066,0.01676998,0.99985616,0.00251062,0.0,-0.006080535869347952,0.030821867621065875,0.012328747048426349,0.0,0.0,0.0,0.0,-0.01936595057765153,-0.00382051336340655,-0.00152820534536262,0.0,0.0,0.0,0.0,0.0024004993430839297,-0.012167985612906614,-0.0048671942451626446,0.0,0.0,0.0,0.0,0.04033518225693333,0.012991005146643066,0.025804996410945025,-0.0001571146929125744,-0.0067062024527132285,-0.01638360336043514,0.0008277815652779327,-0.05440101007580614,0.03160371483425465,0.047782906246135425,-2.3528192981145875e-06,-0.02463991404854955,-0.011896717835565136,0.002355569617880313,-0.03203515420840325,-0.06911376101864596,-0.29159736640301637,0.00010356862822767388,-0.03338223695146664,0.3099174388622783,-0.002963842793379974,0.657467970262591,0.026013220717416678,-0.2861817039784507,4.703132913055777e-05,0.040060683513878925,0.021184418175812514,-0.014296562755849312,0.21183809717495639,-2.222593503597368,-2.104763469218258,-0.4212495748603421,1.5580207914725928,-1.3626422080593663,-0.030642732744814875,-0.13971291560454907,0.15154566383950932,-0.024377172966545967,0.052207127106568024,-0.0278425244266767,0.13941495782653487,0.6459381578783598,-0.1450292123821409,0.11420780444787715,-0.06112745175637074,0.135144799500893,0.22012217385832447,-2.182191961672779,-2.083274586857588,-0.4549595965831067,1.5382216356051983,-1.3555058926121955,-0.007140096528640571,-0.07143956160302106,0.202394659864593,-0.1309568328226699,-5.4870810833137965e-06,-0.0071401311041433884,0.12148461508928506,0.12283893846155303,-0.22091328790523057,0.09810238489903755,8.88030341910034e-05,0.12148399312136285,0.5040167056933346,2.00636184027772,0.6100450312182982,0.48135040138806096,0.5000600807836323,0.4999999492848839,0.5004636198729732,0.9104494594292972,0.5255866003340227,0.4954209224580058,0.5000135963455773,0.499999990971468,-0.007955528182616344,34.13730532396385,6.854773552000059,1.3430511900473932,-0.0010362164565164934,3.5432103262716087e-07,0.043381297173153546,0.2817846576524845,0.09660466370665685,-0.181854267291056,-0.09365564202784449,0.03822142166863769,0.008341221392342198,-0.42253369239763705,0.06402465272659599,0.020294522292884646,-0.04774977244049558,0.006386151423924102
0.5092031451577707,-0.003314715708854353,-0.022259457756551464,0.009770836636610934,0.9998147995617305,0.0019390555756788879,-0.016466250096238144,0.04838312964566749,-0.0001339798955387961,-0.03254602940404435,1.3185197341477488e-06,0.0249655761732836,0.008815988406531517,-0.0023245381848475636,0.006265543920930261,0.06478673176499808,0.29081297936647266,-0.00010342995639668387,0.032566212473405035,-0.30807294290336185,0.0031031433032749356,-0.6403659709821458,-0.050651589024132415,0.07438183088189221,1.3867183099001436e-05,-0.08160244780616027,0.18444959589164478,0.013930050989496151,0.5489927526192123,0.009985499025720383,0.0039941996102881416,0.01676998,0.99985616,0.00251062,0.0,-0.006274074076326221,0.030783054341531918,0.012313221736612768,0.0,0.0,0.0,0.0,-0.019341563474882414,-0.003942117005252924,-0.0015768468021011694,0.0,0.0,0.0,0.0,0.0024769051646587967,-0.012152662744326252,-0.0048610650977305,0.0,0.0,0.0,0.0,0.03978960746144167,0.013300214734574736,0.026253657366839607,-0.00016028883234986413,-0.006956102496068486,-0.01647186865617072,0.0008475170549397011,-0.05465720372199371,0.030917034237070713,0.04485925114065712,-1.3185197341477488e-06,-0.0249655761732836,-0.008815988406531517,0.0023245381848475636,-0.025607107395812675,-0.068728848770251,-0.29238982616857384,0.00010342995639668387,-0.032566212473405035,0.30807294290336185,-0.0031031433032749356,0.6428428761468046,0.03849892627980617,-0.07924289597962271,-1.3867183099001436e-05,0.08160244780616027,-0.18444959589164478,-0.013930050989496151,0.2115457472685675,-2.2239252980679356,-2.1032644697270926,-0.4214810820156661,1.5585367303252153,-1.3629069764512673,-0.0292349906388868,-0.13317944705674487,0.14989994911655977,-0.023150715532397174,0.05159388526226003,-0.026476839190099126,0.14077421059280756,0.6533468547804199,-0.16457147229495453,0.1226457434148794,-0.06132418443079918,0.13656852365775737,0.2200630186765286,-2.1828934151544592,-2.081274431102016,-0.4562583133172426,1.5382215898406686,-1.3555650482094126,-0.005915518179586415,-0.07014534816802452,0.2000155755572124,-0.12987167341359104,-4.576452982591173e-06,-0.0059155597217213154,0.12245783490541558,0.12942134349965412,-0.23790843073806245,0.10851594090788563,9.106281007226234e-05,0.1224571382422073,0.5043529711566805,2.07494708062838,0.612151049442513,0.4810073373353818,0.5000607121132808,0.4999999461368174,0.5004900532405039,0.9397892866042019,0.5262887173995728,0.49527384783706524,0.5000138096640053,0.49999999043231413,-0.008297428242412494,34.19694065117339,6.849241500414616,1.34300465346651,-0.000962372634244088,3.1460064510210287e-07,0.043318440646115515,0.2840783949644248,0.09576242280590214,-0.18265809623035728,-0.09312970790550677,0.038195564515214143,0.009017531653814937,-0.28331062032962867,0.061117461780128376,0.02005569232244154,-0.0480911985036764,0.007205377150519224
0.509686946167195,-0.003309491127067249,-0.02255595398303207,0.009517611123939788,0.999816328725843,0.0019208651403443192,-0.016523745603921162,0.04838329047715094,0.0005076912970052383,-0.02964742392725718,2.9070936407587944e-07,0.02527975092861204,0.005770657704287394,-0.002292161190079446,1.608314834505853e-05,0.06416711925440344,0.28986054767871705,-0.00010278103700718692,0.031417475532844255,-0.3045330702244123,0.0032376994768117465,-0.6249460772585202,-0.06196125105946415,-0.0952431687755606,6.489193894969455e-05,-0.11487369405607795,0.35398726789495627,0.013455617353681087,0.5489290452162736,0.0102931304384941,0.004117252175397628,0.01676998,0.99985616,0.00251062,0.0,-0.006467364593602891,0.03074302579972159,0.012297210319888638,0.0,0.0,0.0,0.0,-0.01931641280030537,-0.0040635650190699165,-0.0016254260076279663,0.0,0.0,0.0,0.0,0.0025532132022589036,-0.012136860109429437,-0.004854744043771775,0.0,0.0,0.0,0.0,0.039242099049078605,0.013602621565561348,0.026673206158429698,-0.0001630521442460564,-0.007209172879461978,-0.016529686593499782,0.0008666729114259898,-0.05485065507075383,0.030235334502716354,0.04194463424714582,-2.9070936407587944e-07,-0.02527975092861204,-0.005770657704287394,0.002292161190079446,-0.019332495948650427,-0.06823068427347335,-0.291485973686345,0.00010278103700718692,-0.031417475532844255,0.3045330702244123,-0.0032376994768117465,0.6274992904607791,0.049824390950034714,0.09038842473178883,-6.489193894969455e-05,0.11487369405607795,-0.35398726789495627,-0.013455617353681087,0.21126757989629721,-2.2251914168386215,-2.101783715491363,-0.4216995923801587,1.5590465164396183,-1.3631579770446827,-0.027816737227028602,-0.12661187706859522,0.148075423572958,-0.02185103644925822,0.050978611440310406,-0.02510005934153274,0.14182534118581966,0.6567569988149637,-0.18245255436017663,0.12996790831389532,-0.06152738219496226,0.13767798485663849,0.22001617561083509,-2.183581331530947,-2.0792996065078526,-0.45754523304556716,1.5382215533577193,-1.3556118917657078,-0.00468430656935181,-0.06879163764875855,0.1974824594163127,-0.12869197283245662,-3.6482949293410205e-06,-0.004684355629526723,0.12312116102346053,0.13537105192659715,-0.2533116140899683,0.11797005811344241,9.281580532501526e-05,0.12312040921945927,0.5047060676733445,2.1411154730423707,0.6141580350825835,0.48068989832025216,0.5000612817504407,0.49999994294439587,0.5005173911744494,0.9701660878164439,0.5269830040341055,0.49512759855516564,0.5000140108840133,0.4999999898820907,-0.007907044024496946,34.248276990891526,6.84403225335737,1.3427281372492386,-0.0008907203611994322,2.724352644956532e-07,0.0432442860011854,0.2862729067861041,0.09497322397140098,-0.1834472408304051,-0.09259618978564804,0.03815729462335806,0.009676706708018306,-0.14815840969759053,0.05839459224963392,0.019609214373738866,-0.04844399111583342,0.007999184182988308
0.5101701354294618,-0.003297930767990496,-0.02282376711677967,0.009261447039550133,0.9998183131363854,0.00190276832812367,-0.01655130775908779,0.04832216776917368,0.001142073372881149,-0.026776047104167332,-7.254851562847623e-07,0.025579091515825617,0.002778054102529643,-0.0022584980108078835,-0.006112270797725694,0.06343820758759107,0.2871376823089848,-0.00010161945203606417,0.0299340587213575,-0.2992603601757751,0.003366317927156262,-0.6128353946070753,-0.0728911666812368,-0.27228653697322636,0.00011615849711227544,-0.1483416811486754,0.5272710048637164,0.012861845034451563,0.5488634061784097,0.010600355496102764,0.004240142198441094,0.01676998,0.99985616,0.00251062,0.0,-0.006660399790399309,0.03070178357589319,0.012280713430357276,0.0,0.0,0.0,0.0,-0.019290499546825962,-0.004184852610297893,-0.0016739410441191569,0.0,0.0,0.0,0.0,0.002629420443373586,-0.012120578332077137,-0.004848231332830854,0.0,0.0,0.0,0.0,0.038693270748947906,0.01389828626409326,0.027063909315220763,-0.00016540931993191954,-0.007465264197636835,-0.016557584431620555,0.0008852343194928661,-0.054982567559572995,0.02955971020301204,0.03905676053452461,7.254851562847623e-07,-0.025579091515825617,-0.002778054102529643,0.0022584980108078835,-0.013178228749100268,-0.06762306019788897,-0.28881162335310395,0.00010161945203606417,-0.0299340587213575,0.2992603601757751,-0.003366317927156262,0.6154648150504488,0.06077058834915966,0.2674383056403955,-0.00011615849711227544,0.1483416811486754,-0.5272710048637164,-0.012861845034451563,0.21100367172313894,-2.226391930230529,-2.1003228336603494,-0.4219044762082716,1.5595501296885173,-1.3633951279190106,-0.02639081731582761,-0.12005133919074205,0.1460881831013457,-0.020488382811290288,0.05036132488988723,-0.023715087432807206,0.14259199112009907,0.6560537877853168,-0.1987240471612297,0.13626536379679335,-0.06172865504231714,0.13849719087255336,0.21998168277067,-2.1842551804090564,-2.077351499892417,-0.45881949929605664,1.5382215262851364,-1.3556463851756286,-0.0034492840165070357,-0.0673848878109563,0.19481066154356788,-0.12742662504895105,-2.7072582859653657e-06,-0.003449340992083618,0.12350225528447739,0.1406749837802243,-0.26717978727448244,0.1265347783505566,9.410366433756549e-05,0.12350146374431048,0.5050755971922825,2.2044680656910733,0.616068197058651,0.48039812065838433,0.5000617928334187,0.4999999397165401,0.5005456660890624,1.0015516591121585,0.5276695921770056,0.49498226884906377,0.5000142003385037,0.4999999893213305,-0.006745157464426179,34.291041334927804,6.839047871633743,1.3422109160235896,-0.0008211300022532,2.2826909916319056e-07,0.04315918391321116,0.2883546122512137,0.09423538437302514,-0.18421839277973423,-0.0920549821341374,0.0381070379525178,0.01031476540903849,-0.018749688242304233,0.05570579114711874,0.01895321947836316,-0.048803259323149176,0.008762776595250273
