JhonPool4/journal_ws/src/ur5_motion_rviz/src/Data/PDi/circular_traj/articular_kp_0.5_alpha_0.5_beta_0.2_gamma_0.8_t_10.csv
x,y,z,w,ex,ey,ez,dx,dy,dz,dw,dex,dey,dez,ddx,ddy,ddz,ddw,ddex,ddey,ddez,dddx,dddy,dddz,dddw,dddex,dddey,dddez,x_des,y_des,z_des,w_des,ex_des,ey_des,ez_des,dx_des,dy_des,dz_des,dw_des,dex_des,dey_des,dez_des,ddx_des,ddy_des,ddz_des,ddw_des,ddex_des,ddey_des,ddez_des,dddx_des,dddy_des,dddz_des,dddw_des,dddex_des,dddey_des,dddez_des,e_x,e_y,e_z,e_w,e_ex,e_ey,e_ez,de_x,de_y,de_z,de_w,de_ex,de_ey,de_ez,dde_x,dde_y,dde_z,dde_w,dde_ex,dde_ey,dde_ez,ddde_x,ddde_y,ddde_z,ddde_w,ddde_ex,ddde_ey,ddde_ez,q1,q2,q3,q4,q5,q6,dq1,dq2,dq3,dq4,dq5,dq6,ddq1,ddq2,ddq3,ddq4,ddq5,ddq6,q1_des,q2_des,q3_des,q4_des,q5_des,q6_des,dq1_des,dq2_des,dq3_des,dq4_des,dq5_des,dq6_des,ddq1_des,ddq2_des,ddq3_des,ddq4_des,ddq5_des,ddq6_des,KP1,KP2,KP3,KP4,KP5,KP6,KD1,KD2,KD3,KD4,KD5,KD6,u1,u2,u3,u4,u5,u6,P1,P2,P3,P4,P5,P6,J1,J2,J3,J4,J5,J6
0.49988694035225434,-0.00020254560215720837,-0.0007865643203438938,0.01677267754201805,0.9998561531558996,0.002480791047862866,0.0,-0.011339522034442488,-0.020259282496726202,-0.07864023717142217,2.2609624466498066e-05,-0.00027518540462647843,-0.00018168736545595167,-1.5920275635541298e-05,-1.1339522034442489,-2.0259282496726203,-7.864023717142217,0.0022609624466498066,-0.02751854046264784,-0.018168736545595168,-0.0015920275635541298,-113.39522034442489,-202.59282496726203,-786.4023717142217,0.22609624466498066,-2.7518540462647842,-1.8168736545595168,-0.15920275635541298,0.55,2.7755575615628914e-17,0.0,0.01676998,0.99985616,0.00251062,0.0,-0.0,0.031415926535897934,0.012566370614359173,0.0,0.0,0.0,0.0,-0.019739208802178717,-0.0,-0.0,0.0,0.0,0.0,0.0,0.0,-0.012402510672119928,-0.0049610042688479706,0.0,0.0,0.0,0.0,0.050113059647745706,0.00020254560215723612,0.0007865643203438938,-1.603626236246214e-07,2.697268779033174e-06,5.070034337020536e-07,2.9824644357723338e-05,0.011339522034442488,0.05167520903262414,0.09120660778578134,-2.2609624466498066e-05,0.00027518540462647843,0.00018168736545595167,1.5920275635541298e-05,1.1142129946420702,2.0259282496726203,7.864023717142217,-0.0022609624466498066,0.02751854046264784,0.018168736545595168,0.0015920275635541298,113.39522034442489,202.5804224565899,786.3974107099529,-0.22609624466498066,2.7518540462647842,1.8168736545595168,0.15920275635541298,0.22520671971656808,-2.1628070437723386,-2.140041717498536,-0.4178167939993015,1.5382739831535273,-1.3504172933634502,-0.035275028343193134,-0.18832837723384507,-0.02858874985359755,0.2157226000698497,-0.00032668464727229494,-0.03521633634502949,-3.5275028343193133,-18.832837723384507,-2.858874985359755,21.57226000698497,-0.03266846472722949,-3.5216336345029493,0.22546782457104814,-2.161155536055847,-2.139181478154563,-0.4203160656245024,1.5382770500253027,-1.3501567818604419,-0.009166666933045029,-0.023169591169724627,0.057448532399291805,-0.0342814002848871,-7.413328583871736e-06,-0.009166459995748957,-0.9379070718790573,-2.2368149669613446,5.878331795899977,-4.196518374944805,0.12510007873841117,-0.9293855152540236,0.5000000607183838,0.5000014606562075,0.5000046060619248,0.49999999955180247,0.49999999999970146,0.500000000001818,1.4142196451582136,1.414359614000253,1.414674091451086,1.4142136558405192,1.4142135623364889,1.414213562597467,0.0,0.0,0.0,0.0,0.0,0.0,-0.013009447412945203,-0.032882638094787975,0.08153166958022717,-0.048652244032279426,-1.0584017174262472e-05,-0.013009157975159554,1.3309842347635228,3.174918858380723,-8.341940816090387,5.951913900737289,-0.1769145213415112,1.3189328303432217
0.49978452375157156,-0.00040045303407176174,-0.001559607280423786,0.016775397655658334,0.999856102948174,0.002480603889320377,0.0,-0.010273288671482073,-0.019795522834909533,-0.07729030026407253,2.304419509622031e-05,-0.0002713148580680345,-0.00018317027786413304,-1.5643131869243904e-05,0.1066233362960415,0.04637596618166685,0.1349936907349636,4.3457062972224224e-05,0.00038705465584439047,-0.00014829124081813675,2.7714376629739412e-05,124.05755397402905,207.23042158542873,799.9017407877182,-0.22175053836775827,2.790559511849223,1.8020445304777029,0.16197419401838692,0.5499990130428069,0.00031415719827797533,0.00012566287931117904,0.01676998,0.99985616,0.00251062,0.0,-0.00019739078923647043,0.031415306412404455,0.012566122564961781,0.0,0.0,0.0,0.0,-0.01973881916709643,-0.00012402429067031733,-4.960971626812693e-05,0.0,0.0,0.0,0.0,7.792676008731081e-05,-0.012402265857177509,-0.0049609063428710035,0.0,0.0,0.0,0.0,0.05021448929123529,0.0007146102323497371,0.001685270159734965,-1.654167600673162e-07,5.417833140727163e-06,5.169712504239925e-07,3.0011649926807177e-05,0.010075897882245603,0.05121082924731399,0.08985642282903432,-2.304419509622031e-05,0.0002713148580680345,0.00018317027786413304,1.5643131869243904e-05,-0.12636215546313792,-0.04649999047233717,-0.13504330045123172,-4.3457062972224224e-05,-0.00038705465584439047,0.00014829124081813675,-2.7714376629739412e-05,-124.05747604726896,-207.24282385128592,-799.906701694061,0.22175053836775827,-2.790559511849223,-1.8020445304777029,-0.16197419401838692,0.22485817550874682,-2.1646707154126514,-2.140293123127759,-0.41571351326297484,1.5382707538547176,-1.3507652582197374,-0.034854420782125944,-0.18636716403130119,-0.025140562922318588,0.21032807363266579,-0.0003229298809799728,-0.03479648562871476,0.042060756106719235,0.19612132025438844,0.34481869312789637,-0.5394526437183904,0.0003754766292322142,0.04198507163147283,0.22537695546050568,-2.1613868515690955,-2.138595344723598,-0.42067090812635544,1.5382769760088542,-1.350247649184121,-0.0090869110542453,-0.023131551324832342,0.05861334309647731,-0.035484250185299895,-7.4016448511695995e-06,-0.009086732367930287,0.007975587879972823,0.0038039844892284735,0.1164810697185506,-0.12028499004127988,1.1683732702136204e-06,0.007972762781867024,0.4999997350614289,0.5001254422874789,0.5000350435517721,0.4999987575431213,0.5000000000279662,0.4999999999902848,1.4142045678298294,1.4278078104498437,1.417011222975113,1.414089730301727,1.4142135638828022,1.4142135619619605,0.015122738113409251,31.08486671375091,6.654777493464585,0.1773135594677503,7.860286042667467e-06,-6.070233437931692e-08,0.03712086782204273,0.23435781710277237,0.1240857346663317,-0.3566872151337647,0.0004530307799109185,0.03703766241937925,-5.013053030644426,-26.726796883223425,-4.25677714824944,30.803499137582236,-0.04636147970732537,-5.004682040245873
0.49978132125796343,-0.0005944535126697825,-0.0023227694913835473,0.016778044452489097,0.9998560536391558,0.0024804173632353324,0.0,-0.0003491810043890261,-0.019407886077085865,-0.0763174733823865,2.633655700104663e-05,-0.000263938698831105,-0.0001866388654665781,-1.5521142913636765e-05,0.9924107667093047,0.03876367578236686,0.09728268816860397,0.0003292361904826323,0.0007376159236929542,-0.0003468587602445069,1.2198895560713852e-05,88.57874304132632,-0.7612290399299989,-3.771100256635962,0.028577912751040803,0.035056126784856374,-0.019856751942637016,-0.001551548106902556,0.5499960522101908,0.0006283019941676582,0.0002513207976670522,0.01676998,0.99985616,0.00251062,0.0,-0.0003947737858225689,0.03141344606640544,0.012565378426562175,0.0,0.0,0.0,0.0,-0.019737650277231702,-0.00024804368507400256,-9.921747402960102e-05,0.0,0.0,0.0,0.0,0.00015585044375956536,-0.012401531422015132,-0.004960612568806052,0.0,0.0,0.0,0.0,0.05021473095222734,0.0012227555068374408,0.0025740902890505997,-1.7080025183080494e-07,8.065076167480117e-06,5.267443901989103e-07,3.0198025385732522e-05,-4.5592781433542826e-05,0.050821332143491306,0.08888285180894867,-2.633655700104663e-05,0.000263938698831105,0.0001866388654665781,1.5521142913636765e-05,-1.0121484169865365,-0.039011719467440864,-0.09738190564263358,-0.0003292361904826323,-0.0007376159236929542,0.0003468587602445069,-1.2198895560713852e-05,-88.57858719088256,0.7488275085079837,3.766139644067156,-0.028577912751040803,-0.035056126784856374,0.019856751942637016,0.001551548106902556,0.2244719270582343,-2.166624009807245,-2.1402555098545304,-0.41380919128851656,1.538267528304059,-1.3511509356713145,-0.038624845051252986,-0.19532943945935138,0.003761327322848375,0.19043219744582823,-0.0003225550658669731,-0.03856774515771152,-0.3770424269127041,-0.8962275428050206,2.890189024516696,-1.9895876186837542,3.748151129997254e-05,-0.3771259528996755,0.22524619294296563,-2.1617264798711386,-2.137742336319053,-0.4211843238903498,1.5382768689709674,-1.3503784093020026,-0.013076251754004137,-0.033962830204314814,0.08530084045452303,-0.05134157639944121,-1.0703788686040181e-05,-0.013076011788138957,-0.39893406997588365,-1.0831278879482473,2.668749735804572,-1.5857326214141314,-0.0003302143834870582,-0.398927942020867,0.4999992885532778,0.5003485540659921,0.5001085648070466,0.49999619248774413,0.5000000000775194,0.49999999997305805,1.4141864586104251,1.4391270453352951,1.4203991260524156,1.413962824891841,1.414213566067628,1.4142135612010234,-0.09019719893841238,30.03239963630164,7.860569362178259,0.17710327288223832,0.0007899110792480415,-2.6315329112198277e-06,0.0309927947328486,0.21907658528697407,0.15777219085908872,-0.37275976335849065,0.00044461193284528233,0.030910813136445926,0.6128006669878162,1.5453078809017926,-3.3740803133343036,1.6071248366666588,0.0008418847076448648,0.6126849280133774
0.4998242280519555,-0.0007838132063600987,-0.003073947809031377,0.01678059311414472,0.9998560058950243,0.00248023008176505,0.0,0.004263750452413856,-0.018945283870951856,-0.07512572852304278,2.79914457723586e-05,-0.00025411759288492355,-0.0001887736021738256,-1.5560433777383337e-05,0.4612931456802882,0.04626022061340086,0.11917448593437158,0.00016548887713119698,0.0009821105946181434,-0.00021347367072474966,-3.929086374657165e-06,-53.11176210290165,0.7496544831033999,2.1891797765767604,-0.01637473133514353,0.024449467092518915,0.013338508951975725,-0.0016127981935371016,0.5499911176190404,0.0009424219857704366,0.0003769687943081635,0.01676998,0.99985616,0.00251062,0.0,-0.0005921411974155642,0.03141034557134415,0.01256413822853766,0.0,0.0,0.0,0.0,-0.019735702178730295,-0.0003720532871377199,-0.00014882131485508796,0.0,0.0,0.0,0.0,0.00023376797472315897,-0.012400307395627034,-0.004960122958250813,0.0,0.0,0.0,0.0,0.05016688956708493,0.0017262351921305352,0.0034509166033395407,-1.7626670345549655e-07,1.0614171891742963e-05,5.362838176357646e-07,3.0385160050076885e-05,-0.00485589164982942,0.050355629442296004,0.08768986675158044,-2.79914457723586e-05,0.00025411759288492355,0.0001887736021738256,1.5560433777383337e-05,-0.48102884785901845,-0.04663227390053858,-0.11932330724922667,-0.00016548887713119698,-0.0009821105946181434,0.00021347367072474966,3.929086374657165e-06,53.11199587087637,-0.7620547904990269,-2.194139899535011,0.01637473133514353,-0.024449467092518915,-0.013338508951975725,0.0016127981935371016,0.22407389052788104,-2.168600173707154,-2.140081941894809,-0.4120172851761997,1.5382643283058544,-1.3515484106417577,-0.03980365303532553,-0.1976163899909085,0.01735679597210334,0.1791906112316866,-0.0003199998204721398,-0.039747497044319145,-0.11788079840725417,-0.22869505315571195,1.3595468649254965,-1.1241586214141643,0.0002555245394833305,-0.11797518866076295,0.22510093907255393,-2.162108584409445,-2.1367731014352858,-0.4217714942195528,1.538276749225344,-1.350523660738088,-0.01452538704117001,-0.038210453830646876,0.09692348837671633,-0.058717032920294246,-1.1974562342586865e-05,-0.014525143608536444,-0.14491352871658733,-0.42476236263320616,1.1622647922193294,-0.7375456520853036,-0.00012707736565466834,-0.1449131820397487,0.49999866705908913,0.5007335637336102,0.500188935604623,0.499992545270544,0.5000000001441742,0.4999999999463496,1.4141722053546415,1.4521836815209515,1.42277871150099,1.4138432524550215,1.414213567793904,1.4142135604407486,-0.022587181877993162,30.739632654319532,7.09167774666211,0.17825702069183352,0.0002948403730378529,9.755306751993778e-07,0.03439563273736117,0.22837346812269818,0.13406903441868884,-0.3562688707370627,0.0004438376220835012,0.0343150106239925,-0.3402795860175054,-0.9350599637834136,2.376162834464906,-1.6489310103254036,7.743107651771489e-05,-0.34041974857754254
0.49993175648894606,-0.0009684836251432562,-0.0038151372904800113,0.016783020946077382,0.9998559600885246,0.002480040192699981,0.0,0.010727533698795234,-0.018478932935533446,-0.07413557139256823,3.0299914534609902e-05,-0.00024202109193078442,-0.00019129914684660543,-1.5778430801489246e-05,0.6463783246381378,0.04663509354184102,0.09901571304745532,0.0002308468762251301,0.0012096500954139134,-0.0002525544672779827,-2.1799702410590927e-05,18.508517895784966,0.03748729284401564,-2.0158772886916254,0.006535799909393312,0.022753950079577,-0.003908079655323303,-0.0017870616035933762,0.549984209464165,0.001256504772166902,0.0005026019088667496,0.01676998,0.99985616,0.00251062,0.0,-0.0007894852322879936,0.031406005049622834,0.012562402019849133,0.0,0.0,0.0,0.0,-0.019732974948499807,-0.0004960482011747184,-0.00019841928046988733,0.0,0.0,0.0,0.0,0.0003116762769273854,-0.012398593826335685,-0.004959437530534273,0.0,0.0,0.0,0.0,0.050052452975218986,0.002224988397310158,0.004317739199346761,-1.8182866068361392e-07,1.304242277913939e-05,5.455636168659629e-07,3.0574906798788194e-05,-0.011517018931083228,0.04988493798515628,0.08669797341241736,-3.0299914534609902e-05,0.00024202109193078442,0.00019129914684660543,1.5778430801489246e-05,-0.6661112995866376,-0.04713114174301574,-0.09921413232792521,-0.0002308468762251301,-0.0012096500954139134,0.0002525544672779827,2.1799702410590927e-05,-18.50820621950804,-0.04988588667035133,2.010917851161091,-0.006535799909393312,-0.022753950079577,0.003908079655323303,0.0017870616035933762,0.22365585348537959,-2.17062436698486,-2.13971931071646,-0.41036553761478095,1.5382611458017394,-1.3519658951777702,-0.04180370425014474,-0.2024193277705932,0.036263117834906294,0.16517475614186988,-0.0003182504114838164,-0.041748453601245156,-0.2000051214819216,-0.4802937779684726,1.8906321862802953,-1.40158550898167,0.00017494089883233826,-0.20009565569260077,0.22493326414081943,-2.1625576340155575,-2.1356346981731664,-0.42246089445949403,1.5382766100542757,-1.3506913330163783,-0.016767493173449124,-0.04490496061120459,0.1138403262119404,-0.06894002399412566,-1.3917106825841747e-05,-0.01676722782903149,-0.22421061322791136,-0.6694506780557712,1.6916837835224074,-1.0222991073831413,-0.00019425444832548824,-0.22420842204950442,0.49999796349766024,0.5012015425673035,0.5003069663280187,0.4999877400311204,0.500000000228244,0.49999999991139404,1.41415901164547,1.4638331830415352,1.4254936941429495,1.4137267481214284,1.4142135696191611,1.4142135595054008,-0.0327846061795508,30.514809373172227,7.318008969077492,0.17837062388895042,0.0004398960602999775,1.3958987348265325e-06,0.033006782655746775,0.2247907481607202,0.13949917493920502,-0.35603955112875835,0.0004390072007182334,0.032927547159482574,0.13888350693223006,0.36396798666222535,-0.5438121546883352,-0.022920686226449355,0.00048304213728037163,0.13874634637083497
0.5000872814253436,-0.0011480700938756314,-0.004545605438003988,0.01678530700527187,0.9998559166983193,0.0024798462174718265,0.0,0.01552860069475971,-0.01797251586805218,-0.0730693631591144,3.205575966953071e-05,-0.0002278459338626443,-0.00019326616564044877,-1.615374557903393e-05,0.48010669959644753,0.05064170674812657,0.10662082334538248,0.0001755845134920806,0.0014175158068140126,-0.0001967018793843343,-3.75314777544683e-05,-16.62716250416903,0.40066132062855503,0.7605110297927153,-0.00552623627330495,0.02078657114000992,0.0055852587893648374,-0.0015731775343877374,0.5499753280182866,0.0015705379539064424,0.0006282151815625659,0.01676998,0.99985616,0.00251062,0.0,-0.0009867980996352674,0.031400424672597856,0.012560169869039142,0.0,0.0,0.0,0.0,-0.019729468694206623,-0.000620023532078105,-0.00024800941283124195,0.0,0.0,0.0,0.0,0.000389572274685874,-0.012396390781789866,-0.004958556312715946,0.0,0.0,0.0,0.0,0.04988804659294299,0.002718608047782074,0.005173820619566554,-1.8736245577244404e-07,1.532888079974759e-05,5.545560034974763e-07,3.076874518922893e-05,-0.016515398794394977,0.049372940540650036,0.08562953302815354,-3.205575966953071e-05,0.0002278459338626443,0.00019326616564044877,1.615374557903393e-05,-0.49983616829065414,-0.05126173028020468,-0.10686883275821372,-0.0001755845134920806,-0.0014175158068140126,0.0001967018793843343,3.75314777544683e-05,16.627552076443713,-0.4130577114103449,-0.7654695861054313,0.00552623627330495,-0.02078657114000992,-0.0055852587893648374,0.0015731775343877374,0.2232263334327106,-2.1726752115229555,-2.1392156718178406,-0.4088270725308411,1.5382579875470594,-1.3523948720828836,-0.042952005266900066,-0.20508445380956808,0.050363889861963176,0.1538465083939849,-0.00031582546799201677,-0.04289769051132514,-0.1148301016755321,-0.2665126038974859,1.410077202705688,-1.1328247747884999,0.00024249434917995925,-0.11492369100799843,0.22475156369187949,-2.1630523955962264,-2.134374120274354,-0.4232267617777344,1.538276458069193,-1.3508730307691494,-0.018170044893993754,-0.0494761580669184,0.126057789881249,-0.0765867318240342,-1.5198508267131998e-05,-0.018169775277108013,-0.14025517205446292,-0.4571197455713813,1.2217463669308593,-0.7646707829908533,-0.00012814014412902507,-0.14025474480765243,0.49999716924692594,0.5018308270072163,0.5004346082414984,0.4999819278982033,0.5000000003283013,0.49999999986395594,1.4141483508336676,1.4763247749905253,1.4278005795092963,1.4136155055122879,1.4142135712845865,1.4142135583559434,-0.008146396491990886,30.77676907465904,7.06232075526533,0.1790714218508055,0.00027109659880878085,3.2732578723730123e-06,0.03396960522849375,0.2276783706720506,0.1306759747842314,-0.34821513660630415,0.0004362362475582171,0.03389171880542438,-0.0962814523235109,-0.28910379122486296,0.8841254303562536,-0.7823684106415483,0.00027709531652928275,-0.09641716453738085
0.5002921136914228,-0.0013224232421406704,-0.005266215135556723,0.016787431377982345,0.9998558761201322,0.0024796465922605152,-0.000510380789141465,0.020460444535552666,-0.0174514101513468,-0.07208918475126301,1.1163592618438595e-05,-0.0002148728663644234,0.001086539943437985,-3.809799640586142e-05,0.4931843840792956,0.052110571670537995,0.09801784078513898,-0.002089216705109211,0.001297306749822088,0.12798061090784335,-0.0021944250826827494,1.3077684482848073,0.14688649224114253,-0.86029825602435,-0.2264801218601292,-0.012020905699192466,12.817731278722768,-0.2156893604928281,0.5499644736320295,0.0018845091334967548,0.0007538036533986909,0.01676998,0.99985616,0.00251062,0.0,-0.001184072009883237,0.03139360466057294,0.012557441864229175,0.0,0.0,0.0,0.0,-0.019725183554271646,-0.0007439743855140956,-0.0002975897542056382,0.0,0.0,0.0,0.0,0.0004674528927980127,-0.012393698348962002,-0.0049574793395848,0.0,0.0,0.0,0.0,0.0496723599406067,0.0032069323756374253,0.006020018788955414,-1.9281030139151056e-07,1.873500065267651e-05,-0.0005097441387618419,3.9527315436328346e-05,-0.021644516545435904,0.048845014811919746,0.08464662661549219,-1.1163592618438595e-05,0.0002148728663644234,-0.001086539943437985,3.809799640586142e-05,-0.5129095676335672,-0.05285454605605209,-0.09831543053934462,0.002089216705109211,-0.001297306749822088,-0.12798061090784335,0.0021944250826827494,-1.3073009953920094,-0.15928019059010454,0.8553407766847652,0.2264801218601292,0.012020905699192466,-12.817731278722768,0.2156893604928281,0.22278517344214616,-2.1747557266259885,-2.1385673851571476,-0.40740232240329566,1.5382548526264088,-1.3528354982198332,-0.04411599905644412,-0.2080515103032855,0.06482866606929513,0.14247501275454325,-0.00031349206505670336,-0.0440626136949604,-0.11639937895440594,-0.2967056493717428,1.4464776207331949,-1.1371495639441636,0.00023334029353133982,-0.11649231836352653,0.22455576674130615,-2.1635956359991018,-2.1329873108089923,-0.42407038637992844,1.5382762929890985,-1.3510688249600198,-0.019579695057333667,-0.05432404028752139,0.13868094653617286,-0.08436246021940526,-1.650800945418647e-05,-0.019579419087045295,-0.14096501633399128,-0.4847882220602992,1.2623156654923862,-0.7775728395371064,-0.0001309501187054471,-0.14096438099372824,0.4999963389475527,0.5025552269929929,0.5005884438885592,0.4999751165826015,0.5000000004438544,0.4999999998023828,1.4141394868677324,1.4881760827385635,1.4301239082038133,1.4135088134115184,1.414213572935775,1.4142135569029621,-0.0013070469733296453,30.785290108842275,7.054175555214023,0.1793988329899277,0.0002650123864109559,4.318390577886123e-06,0.03371662682903157,0.22712774446442416,0.12921603210144156,-0.3443572730298023,0.00043245153301215496,0.033640039166892,0.0252975798902859,0.05769435953475521,0.14632386424878047,-0.38574822300019085,0.0003784714552052646,0.025167963824422032
0.5005390868386157,-0.0014912945437508146,-0.005976823970006123,0.016789375804599403,0.9998558387574132,0.0024794399105605887,-0.000520519482327692,0.02467551268770697,-0.016905156025217007,-0.07109346311537212,1.1340934436341774e-05,-0.0001967651302437791,0.0010326861614341418,-3.790892596583495e-05,0.42150681521543054,0.05462541261297936,0.09957216358908866,1.773418179031789e-05,0.001810773612064432,-0.0053853782003843165,1.890704400264731e-05,-7.167756886386506,0.25148409424413654,0.15543228039496815,0.21069508868995288,0.05134668622423441,-13.336598910822767,0.22133321266853967,0.5499516467339063,0.002198405915893273,0.0008793623663572982,0.01676998,0.99985616,0.00251062,0.0,-0.0013812991749957123,0.031385545282790486,0.012554218113116194,0.0,0.0,0.0,0.0,-0.01972011969786487,-0.0008678958681152343,-0.00034715834724609367,0.0,0.0,0.0,0.0,0.0005453150566703512,-0.012390516634144732,-0.004956206653657892,0.0,0.0,0.0,0.0,0.049412559895290586,0.0036897004596440877,0.006856186336363422,-1.9807854978459716e-07,2.0705228561346626e-05,-0.0005198730258341135,3.9903899285528654e-05,-0.026056811862702683,0.04829070130800749,0.08364768122848831,-1.1340934436341774e-05,0.0001967651302437791,-0.0010326861614341418,3.790892596583495e-05,-0.4412269349132954,-0.05549330848109459,-0.09991932193633475,-1.773418179031789e-05,-0.001810773612064432,0.0053853782003843165,-1.890704400264731e-05,7.1683022014431765,-0.2638746108782813,-0.16038848704862604,-0.21069508868995288,-0.05134668622423441,13.336598910822767,-0.22133321266853967,0.2223362576458586,-2.176856969013709,-2.137795240986716,-0.40607926269313777,1.5382517438225964,-1.3532838895486041,-0.04489157962875528,-0.2101242387720763,0.07721441704313775,0.1323059710157902,-0.00031088038124727093,-0.04483913287709085,-0.07755805723111535,-0.20727284687908176,1.238575097384262,-1.016904173875304,0.0002611683809432459,-0.0776519182130448,0.22434973850224793,-2.16417837996197,-2.1314943657601493,-0.42498064655987106,1.5382761178218511,-1.351274850440688,-0.020602823905821896,-0.05827439628684662,0.14929450488429896,-0.0910260179942627,-1.7516724735500308e-05,-0.020602548066819333,-0.10231288484882292,-0.3950355999325229,1.0613558348126106,-0.6663557774857443,-0.00010087152813138384,-0.10231289797740378,0.49999549253817,0.5034239851115255,0.5007544124231861,0.49996739822169634,0.5000000005742057,0.4999999997219984,1.4141327795573644,1.50028712923192,1.4322479855042092,1.413407204767176,1.4142135745167443,1.4142135550751074,0.01250004029645757,30.925327502242805,6.932626696881521,0.17990714120703738,0.00018322422957364173,5.667908064422482e-06,0.03403318624422818,0.22821041967459058,0.12433728728936362,-0.3388444895736217,0.0004292049412671299,0.0339578667464145,-0.031655797134482716,-0.10721068105094775,0.48875625184693783,-0.5512297060891648,0.0003246591750222104,-0.03178275793020216
0.5008256605742738,-0.0016545303414462176,-0.006677811723018165,0.01679112312241303,0.9998558049778252,0.0024792247935453986,-0.0005299819395155794,0.02863637383971439,-0.016343473748867878,-0.07013508290221614,1.1474597020983505e-05,-0.00017691034967223448,0.0009640225696091534,-3.7610072153682755e-05,0.396086115200742,0.056168227634912846,0.09583802131559876,1.3366258464173153e-05,0.0019854780571544606,-0.006866359182498838,2.9885381215219442e-05,-2.5420700014688546,0.15428150219334857,-0.3734142273489893,-0.0004367923326144736,0.017470444509002855,-0.14809809821145214,0.0010978337212572131,0.5499368478303008,0.002512215908988506,0.0010048863635953912,0.01676998,0.99985616,0.00251062,0.0,-0.0015784718087819213,0.03137624685742093,0.012550498742968371,0.0,0.0,0.0,0.0,-0.019714277324898683,-0.0009917830876735752,-0.00039671323506943005,0.0,0.0,0.0,0.0,0.0006231556924379812,-0.012386845762946708,-0.004954738305178683,0.0,0.0,0.0,0.0,0.049111187256027033,0.004166746250434724,0.0076826980866135566,-2.030908712313817e-07,2.2476618158057886e-05,-0.0005293261275830674,4.02775857683701e-05,-0.030214845648496313,0.047719720606288804,0.08268558164518451,-1.1474597020983505e-05,0.00017691034967223448,-0.0009640225696091534,3.7610072153682755e-05,-0.41580039252564066,-0.05716001072258642,-0.0962347345506682,-1.3366258464173153e-05,-0.0019854780571544606,0.006866359182498838,-2.9885381215219442e-05,2.5426931571612927,-0.1666683479562953,0.36845948904381065,0.0004367923326144736,-0.017470444509002855,0.14809809821145214,-0.0010978337212572131,0.22188116706773223,-2.178976601022081,-2.1369066739703073,-0.40485262789169985,1.5382486618943338,-1.3537384650380784,-0.04550905781263839,-0.21196320083720063,0.08885670164085344,0.12266348014379386,-0.0003081928262668442,-0.045457548947430856,-0.06174781838831166,-0.1838962065124321,1.1642284597715684,-0.9642490871996345,0.0002687554980426691,-0.06184160703400093,0.2241350942933234,-2.1647981648647767,-2.129902200790737,-0.4259530888951336,1.5382759337616334,-1.3514894919039664,-0.021464420892452,-0.061978490280673974,0.15921649694124404,-0.09724423352625633,-1.840602176511016e-05,-0.021464146327841938,-0.08615969866301032,-0.3704093993827352,0.9921992056945078,-0.6218215531993628,-8.89297029609853e-05,-0.08615982610226045,0.49999466901057765,0.5044006645310741,0.5009388413382123,0.49995881699222566,0.5000000007189123,0.4999999996189762,1.4141280203344175,1.512104433707788,1.4343003967206676,1.4133106467662624,1.4142135760705818,1.4142135528051514,0.021716906865315785,30.996784279340602,6.875381722141463,0.18028247500106293,0.0001447184830936989,6.76177431844561e-06,0.03402852331644503,0.228331850952415,0.12139978844678807,-0.3343841781344295,0.0004257161789101354,0.03395442164946614,0.0004662549134038848,-0.010296076232037876,0.2942595959314082,-0.445992771861048,0.0003488762362060252,0.0003445096811651501
0.5011473880768093,-0.0018119583274719127,-0.0073692130410277085,0.01679265752924868,0.9998557751342153,0.002478999956009713,-0.0005386493116066957,0.03215246077214147,-0.01576433187924052,-0.06917935385978441,1.1542395354566455e-05,-0.00015544216556656783,0.0008794210424978785,-3.717301565263342e-05,0.3516086932427078,0.0579141869627358,0.09557290424317272,6.779833358294946e-06,0.0021468184105666657,-0.008460152711127489,4.3705650104933214e-05,-4.447742195803417,0.17459593278229546,-0.026511707242604654,-0.0006586425105878207,0.016134035341220515,-0.1593793528628651,0.0013820268889713772,0.5499200775054488,0.002825926724101254,0.0011303706896404907,0.01676998,0.99985616,0.00251062,0.0,-0.0017755821272038967,0.031365709751550175,0.012546283900620072,0.0,0.0,0.0,0.0,-0.019707656666019955,-0.0011156311533338198,-0.00044625246133352787,0.0,0.0,0.0,0.0,0.0007009717270858873,-0.01238268588028764,-0.004953074352115056,0.0,0.0,0.0,0.0,0.04877268942863955,0.004637885051573167,0.0084995837306682,-2.0776269815669934e-07,2.4033065239087165e-05,-0.0005379846301259157,4.064766769408117e-05,-0.03392804289934537,0.047130041630790695,0.08172563776040448,-1.1542395354566455e-05,0.00015544216556656783,-0.0008794210424978785,3.717301565263342e-05,-0.3713163499087278,-0.05902981811606962,-0.09601915670450624,-6.779833358294946e-06,-0.0021468184105666657,0.008460152711127489,-4.3705650104933214e-05,4.4484431675305025,-0.1869786186625831,0.0215586328904896,0.0006586425105878207,-0.016134035341220515,0.1593793528628651,-0.0013820268889713772,0.22142236741649723,-2.1811093695241492,-2.13591462038374,-0.40371457625312723,1.538245608480635,-1.3541967590030337,-0.045879965123499844,-0.21327685020682338,0.09920535865671934,0.11380516385726204,-0.00030534136988716,-0.045829396495542504,-0.03709073108614521,-0.13136493696227394,1.0348657015865899,-0.8858316286531812,0.0002851456379684224,-0.03718475481116474,0.2239143067740575,-2.1654496753355366,-2.1282231845109303,-0.4269806595032688,1.538275742771177,-1.3517102767202294,-0.022078751926589674,-0.06515104707598292,0.16790162798064245,-0.10275706081352069,-1.9099045644250133e-05,-0.022078481626287817,-0.061433103413767454,-0.31725567953089434,0.8685131039398414,-0.5512827287264362,-6.930238791399729e-05,-0.06143352984458797,0.4999938978584382,0.505508338063851,0.5011355688427072,0.4999494430184969,0.5000000008775977,0.49999999948783325,1.4141252812805116,1.5239382026203732,1.436226700295476,1.4132193205269765,1.4142135775902989,1.4142135500246071,0.03186088553538825,31.10318359446387,6.794254867016458,0.18070032355728136,8.980425366628684e-05,7.881098980609463e-06,0.034150011092984295,0.22881829892988229,0.11772406635646825,-0.32965235504166956,0.0004223807877551227,0.03407708801565623,-0.012148756860626109,-0.047212236658453005,0.3681645603751676,-0.4731443684553646,0.0003335391159861558,-0.012266636615681805
0.5015011384494312,-0.001963448951267832,-0.008051210620608845,0.01679396433244924,0.9998557495543328,0.0024787641700617286,-0.0005464186426700536,0.0353553616489711,-0.015172064738347462,-0.0682412971202496,1.1561780619073632e-05,-0.00013247440707145688,0.0007805265233739034,-3.6619575493331696e-05,0.32029008768296313,0.05922671408930581,0.0938056739534815,1.9385264507177166e-06,0.0022967758495110943,-0.009889451912397512,5.5344015930172685e-05,-3.131860555974469,0.13125271265700122,-0.1767230289691224,-0.00048413069075772293,0.014995743894442859,-0.14292992012700234,0.0011638365825239472,0.5499013364214136,0.003139525976465696,0.0012558103905862673,0.01676998,0.99985616,0.00251062,0.0,-0.0019726223486837727,0.031353934381165134,0.012541573752466055,0.0,0.0,0.0,0.0,-0.019700257982600965,-0.0012394351757863968,-0.0004957740703145587,0.0,0.0,0.0,0.0,0.0007787600885702636,-0.012378037150392575,-0.00495121486015703,0.0,0.0,0.0,0.0,0.04840019797198236,0.005102974927733528,0.009307021011195113,-2.1201580668872566e-07,2.535961528115305e-05,-0.0005457456086368099,4.101364703179609e-05,-0.03732798399765487,0.04652599911951259,0.08078287087271566,-1.1561780619073632e-05,0.00013247440707145688,-0.0007805265233739034,3.6619575493331696e-05,-0.3399903456655641,-0.06046614926509221,-0.09430144802379606,-1.9385264507177166e-06,-0.0022967758495110943,0.009889451912397512,-5.5344015930172685e-05,3.1326393160630395,-0.1436307498073938,0.17177181410896536,0.00048413069075772293,-0.014995743894442859,0.14292992012700234,-0.0011638365825239472,0.22096162852495718,-2.183251939894997,-2.134828211536967,-0.40265916135152907,1.5382425846437042,-1.3546570016031554,-0.04607388915400505,-0.2142570370847791,0.10864088467733268,0.10554149015981731,-0.00030238369308011823,-0.04602426001216453,-0.019392403050520708,-0.09801868779557164,0.9435526020613343,-0.826367369744473,0.00029576768070417917,-0.019486351662202687,0.22368916572219125,-2.1661294967474864,-2.1264659407416864,-0.42805814871673653,1.538275546291657,-1.351935415125726,-0.022514105186623758,-0.06798214119496758,0.17572437692437748,-0.10774892134677415,-1.9647952001344568e-05,-0.022513840549655887,-0.0435353260034084,-0.28310941189846617,0.7822748943735025,-0.4991860533253456,-5.4890635709443404e-05,-0.04353589233680698,0.4999932130593649,0.5067300695803151,0.5013462301309775,0.49993933210601704,0.5000000010500126,0.49999999932314393,1.4141244829001318,1.5355995371453959,1.4380664360700155,1.4131332949747901,1.4142135790928414,1.4142135466744385,0.04039986493083243,31.190778416385086,6.7322801095277365,0.1810639858521259,4.812417163349255e-05,8.889528161874576e-06,0.034175638576118786,0.22899260829351642,0.11463372656364097,-0.32527506924628574,0.0004190004161395763,0.03410384708252537,-0.0025627479469102384,-0.01579616641688919,0.3095054924621162,-0.43769534549422046,0.00033803716202243346,-0.0026759067015193847
0.5018834763904401,-0.0021088784145218606,-0.00872386660699137,0.01679503000048148,0.9998557285456994,0.002478516281794915,-0.0005531895448839972,0.03821467567804882,-0.014567199762390126,-0.06730886932751641,1.1530205437306655e-05,-0.00010812388085172132,0.000667837629724069,-3.59506404342437e-05,0.2859314029077721,0.06048649759573359,0.09324277927331842,-3.1575181766976804e-06,0.002435052621973556,-0.011268889364983437,6.689350590879939e-05,-3.435868477519105,0.12597835064277751,-0.0562894680163073,-0.0005096044627415397,0.013827677246246173,-0.13794374525859243,0.0011549489978626704,0.5498806253180613,0.003453001285720317,0.0013812005142881157,0.01676998,0.99985616,0.00251062,0.0,-0.002169584694410994,0.03134092121113726,0.012536368484454904,0.0,0.0,0.0,0.0,-0.019692081566729067,-0.0013631902674604872,-0.0005452761069841948,0.0,0.0,0.0,0.0,0.0008565177059397943,-0.012372899756785405,-0.004949159902714162,0.0,0.0,0.0,0.0,0.04799714892762119,0.005561879700242177,0.010105067121279487,-2.157725398355126e-07,2.6442481504580082e-05,-0.0005525087043554273,4.13749947923757e-05,-0.04038426037245982,0.04590812097352739,0.07984523781197131,-1.1530205437306655e-05,0.00010812388085172132,-0.000667837629724069,3.59506404342437e-05,-0.30562348447450116,-0.06184968786319407,-0.09378805538030262,3.1575181766976804e-06,-0.002435052621973556,0.011268889364983437,-6.689350590879939e-05,3.4367249952250445,-0.13835125039956292,0.051340308113593136,0.0005096044627415397,-0.013827677246246173,0.13794374525859243,-0.0011549489978626704,0.2205008292131691,-2.185400403050312,-2.133657460506406,-0.4016801385161971,1.538239591613738,-1.355117314012776,-0.04607993117880829,-0.2148463155314743,0.11707510305607959,0.09790228353319687,-0.0002993029966243025,-0.04603124096205776,-0.0006042024803240027,-0.058927844669516866,0.84342183787469,-0.7639206626620445,0.00030806964558157475,-0.0006980949893231891,0.22346156227467745,-2.1668336609676193,-2.1246399803293476,-0.42918001329674443,1.53827534590111,-1.3521630160001978,-0.022760344751378968,-0.07041642201329991,0.18259604123387196,-0.11218645800078907,-2.0039054715095748e-05,-0.02276008744718907,-0.024623956475521014,-0.24342808183323295,0.6871664309494485,-0.44375366540149175,-3.911027137511805e-05,-0.024624689753318177,0.4999926460683654,0.5080745223507427,0.5015680556111283,0.49992854711534956,0.5000000012360092,0.49999999911851045,1.4141256163310534,1.5471845827118726,1.439809657150743,1.4130526617312396,1.4142135805824148,1.4142135426953186,0.048600352283489565,31.287168268642894,6.667804067685697,0.18142668197743816,4.6595684804654576e-06,9.858127054858834e-06,0.03421820383089105,0.22920121754973174,0.1114602597259051,-0.3209374298006715,0.00041567625029717776,0.03414750079335083,-0.004256513688903432,-0.019340992647342375,0.3178027870961276,-0.4337332314344655,0.0003324165847020323,-0.004365371095928952
0.5022914466078173,-0.0022481469816838994,-0.00938727467410197,0.01679584204617572,0.9998557123930173,0.002478255200456469,-0.0005588704441225362,0.04077841192301157,-0.013952159783085201,-0.06638532248410495,1.145498451897908e-05,-8.249738280497777e-05,0.0005426605090698006,-3.518177015699592e-05,0.2563736244962748,0.061503997930492486,0.0923546843411463,-7.522091832757517e-06,0.002562649804674355,-0.012517712065426845,7.688702772477851e-05,-2.9557778411497257,0.10175003347588987,-0.08880949321721232,-0.00043645736560598365,0.012759718270079906,-0.12488227004434083,0.0009993521815979123,0.5498579450130308,0.0037663402763966633,0.0015065361105586542,0.01676998,0.99985616,0.00251062,0.0,-0.0023664613886494046,0.031326670755204226,0.012530668302081688,0.0,0.0,0.0,0.0,-0.01968312774119516,-0.0014868915427169735,-0.0005947566170867894,0.0,0.0,0.0,0.0,0.0009342415094568877,-0.012367273902281635,-0.004946909560912653,0.0,0.0,0.0,0.0,0.04756649840521343,0.006014487258080563,0.010893810784660623,-2.1896038449042976e-07,2.726894385357157e-05,-0.0005581823693864349,4.1731266590247555e-05,-0.043144873311660975,0.045278830538289426,0.07891599078618663,-1.145498451897908e-05,8.249738280497777e-05,-0.0005426605090698006,3.518177015699592e-05,-0.27605675223747,-0.06299088947320947,-0.09294944095823308,7.522091832757517e-06,-0.002562649804674355,0.012517712065426845,-7.688702772477851e-05,2.9567120826591826,-0.11411730737817151,0.08386258365629967,0.00043645736560598365,-0.012759718270079906,0.12488227004434083,-0.0009993521815979123,0.22004156815837914,-2.1875515221422974,-2.1324109927898287,-0.40077198695408733,1.5382366304187993,-1.355576097536484,-0.04592610547899713,-0.2151119091985769,0.12464677165771655,0.09081515621097563,-0.0002961194938524419,-0.04587835237079544,0.015382569981116472,-0.026559366710259547,0.7571668601636966,-0.7087127322221232,0.0003183502771860558,0.015288859126232027,0.2232331099873114,-2.1675588718104013,-2.122753457413133,-0.4303413948228355,1.5382751429886066,-1.3523914657989784,-0.02284522873660407,-0.07252108427819079,0.18865229162146938,-0.11613815260910704,-2.029125033994596e-05,-0.022844979878065712,-0.008488398522510376,-0.21046622648908803,0.6056250387597412,-0.3951694608317971,-2.5219562485021197e-05,-0.0084892430876643,0.4999922287426598,0.5095339684980977,0.501800991463998,0.4999171466928369,0.5000000014355386,0.4999999988672966,1.4141286298655258,1.558629802847386,1.441470868496575,1.4129774836732594,1.4142135820686998,1.414213538035202,0.05592729253345055,31.377955028830385,6.611079237651326,0.18175980057912172,-3.327612470774776e-05,1.0754675937660579e-05,0.034222908205415806,0.2292682309887056,0.10852662695801851,-0.3167789882328763,0.0004123578882156233,0.03415324853394694,-0.0004704153424164685,-0.005137114390405401,0.2937619315375713,-0.41581673159816035,0.00033183620860020884,-0.0005747740858675666
0.5027221660894368,-0.0023811667178280267,-0.0100414814470325,0.01679638900436943,0.9998557013592262,0.0024779799018956406,-0.0005633750700720204,0.04305381808754781,-0.013328115722241657,-0.06546599725061888,1.1338368475458925e-05,-5.569918564388501e-05,0.0004061316113093405,-3.4325337374917914e-05,0.22754061645362395,0.06240440608435444,0.09193252334860624,-1.1661604352015503e-05,0.002679819716109276,-0.013652889776046007,8.564327820780038e-05,-2.8833008042650876,0.09004081538619563,-0.04221609925400549,-0.0004139512519257986,0.01171699114349209,-0.11351777106191618,0.0008756250483021866,0.5498332964017015,0.0040795305784079045,0.0016318122313631507,0.01676998,0.99985616,0.00251062,0.0,-0.0025632446590442212,0.03131118357594962,0.012524473430379848,0.0,0.0,0.0,0.0,-0.01967339685948094,-0.0016105341180413198,-0.0006442136472165278,0.0,0.0,0.0,0.0,0.0010119284307188654,-0.012361159808980365,-0.004944463923592146,0.0,0.0,0.0,0.0,0.04711113031226477,0.006460697296235931,0.01167329367839565,-2.2151128042935397e-07,2.7827317813270506e-05,-0.0005626803574349832,4.20820403375551e-05,-0.04561706274659203,0.04463929929819128,0.07799047068099874,-1.1338368475458925e-05,5.569918564388501e-05,-0.0004061316113093405,3.4325337374917914e-05,-0.24721401331310489,-0.06401494020239576,-0.09257673699582276,1.1661604352015503e-05,-0.002679819716109276,0.013652889776046007,-8.564327820780038e-05,2.8843127326958067,-0.10240197519517599,0.03727163533041335,0.0004139512519257986,-0.01171699114349209,0.11351777106191618,-0.0008756250483021866,0.21958537189940838,-2.189702074574457,-2.1310972285952374,-0.3999293853558631,1.5382337020769539,-1.3560318256135182,-0.04561962589707493,-0.21505524321596375,0.13137641945911996,0.08426015982242284,-0.0002928341845475463,-0.045572807703434005,0.030647958192219795,0.005666598261314326,0.6729647801403396,-0.65549963885528,0.00032853093048956084,0.030554466736143242,0.22300534759113042,-2.168301856180088,-2.1208143377045467,-0.4315376002138294,1.538274938923314,-1.3526192258015917,-0.022776239618098548,-0.07429843696870735,0.19391197085860973,-0.11962053909939348,-2.0406529272806044e-05,-0.022776000261326163,0.006898911850552331,-0.17773526905165565,0.5259679237140352,-0.34823864902864404,-1.1527893286008382e-05,0.006897961673954858,0.4999919918544154,0.5111105297995133,0.5020435906029789,0.49990519102563163,0.5000000016486479,0.4999999985622462,1.4141334880570315,1.5699608719876776,1.443051319979173,1.4129078151171521,1.4142135835578544,1.4142135326441503,0.06269770860585835,31.47040901169368,6.5566628896806085,0.18207910941418967,-6.952950016519543e-05,1.15983104976567e-05,0.03421875477552619,0.22928443314988467,0.10566297986816026,-0.3127211568317436,0.0004090712715732326,0.03415009497776441,0.0004153782157917795,-9.548431596359541e-05,0.28673264493396255,-0.40575843942758005,0.0003286616646807803,0.0003153555849551813
0.5031730085790046,-0.002507866291157062,-0.010686532790657566,0.016796660362109122,0.9998556956847451,0.002477689424638345,-0.0005666238342414316,0.04506657830975693,-0.012696737787413395,-0.06455087953215305,1.1185023405222038e-05,-2.782730331073527e-05,0.0002596989112747805,-3.3399359682353275e-05,0.20127602222091215,0.06313779348282623,0.09151177184658355,-1.5334507023688726e-05,0.0027871882333149745,-0.014643270003456,9.25977692564639e-05,-2.6264594232711795,0.07333873984717923,-0.04207515020226982,-0.00036729026716732227,0.010736851720569845,-0.09903802274099927,0.0006954491048663525,0.5498066804571586,0.004392559827537186,0.0017570239310148634,0.01676998,0.99985616,0.00251062,0.0,-0.002759926736928877,0.03129446028478077,0.012517784113912309,0.0,0.0,0.0,0.0,-0.019662889305744963,-0.001734113112236362,-0.0006936452448945446,0.0,0.0,0.0,0.0,0.0010895754027790974,-0.012354557718255537,-0.004941823087302215,0.0,0.0,0.0,0.0,0.04663367187815404,0.006900426118694248,0.01244355672167243,-2.233635596482486e-07,2.8106888094098842e-05,-0.0005659231017281925,4.242694327628195e-05,-0.047826505046685806,0.04399119807219416,0.07706866364606536,-1.1185023405222038e-05,2.782730331073527e-05,-0.0002596989112747805,3.3399359682353275e-05,-0.22093891152665712,-0.0648719065950626,-0.09220541709147809,1.5334507023688726e-05,-0.0027871882333149745,0.014643270003456,-9.25977692564639e-05,2.6275489986739586,-0.08569329756543477,0.037133327114967606,0.00036729026716732227,-0.010736851720569845,0.09903802274099927,-0.0006954491048663525,0.21913360353443206,-2.1918491658244292,-2.129723848075118,-0.39914743252735974,1.538230807503071,-1.3564831351169235,-0.045176836497630685,-0.21470912499721898,0.1373380520119491,0.07819528285033261,-0.00028945738827391916,-0.045130950340542306,0.044278939944424514,0.03461182187447916,0.5961632552829141,-0.6064876972090221,0.0003376796273627141,0.0441857362891698,0.22277965025409216,-2.1690596718206705,-2.118829869203646,-0.4327643232898677,1.538274734972754,-1.352844920848205,-0.02256973370382471,-0.07578156405822316,0.19844685009010007,-0.12267230760382522,-2.039505598924407e-05,-0.022569504661331057,0.020650591427383985,-0.14831270895158122,0.45348792314903463,-0.3051768504431743,1.1473283561972883e-06,0.020649559999510667,0.4999919654565049,0.5128001104162409,0.5022953182812092,0.4998927388312205,0.5000000018754716,0.4999999981957993,1.414140141822287,1.5811547523169869,1.4445582335737204,1.4128436963403828,1.4142135850570037,1.414213526477734,0.06882008966834588,31.560650334302544,6.506860393881368,0.18237648222314382,-0.00010236438493120049,1.2382467818795601e-05,0.034192738043675265,0.22920477618324114,0.10294482260977925,-0.3087908563482347,0.0004058035642674852,0.034125034835730976,0.0026017272144627356,0.009490873347674927,0.2721463271333975,-0.3930081158837685,0.00032677073099794733,0.0025060141569614985
0.5036414963566689,-0.0026281865596293496,-0.011322452433463831,0.01679664651648903,0.99985569558763,0.0024773828697474284,-0.0005685427805867691,0.04683155664665173,-0.012059249778045428,-0.06363780074523773,1.0998289311777445e-05,1.0242693115440626e-06,0.00010487259873853683,-3.24229092462415e-05,0.17649783368947972,0.06374880093679668,0.09130787869153223,-1.867340934445925e-05,0.002885157262227933,-0.015482631253624368,9.764504361117754e-05,-2.4778188531432432,0.06110074539704413,-0.020389315505131567,-0.0003338902320770525,0.009796902891295867,-0.0839361250168369,0.0005047274354713638,0.549778098230154,0.0047054156659257435,0.0018821662663702863,0.01676998,0.99985616,0.00251062,0.0,-0.0029564998576317105,0.03127650154190458,0.012510600616761831,0.0,0.0,0.0,0.0,-0.01965160549480745,-0.00185762364661501,-0.000743049458646004,0.0,0.0,0.0,0.0,0.0011671793602680797,-0.01234746789074638,-0.004938987156298552,0.0,0.0,0.0,0.0,0.04613660187348512,0.0073336022255550935,0.013204618699834117,-2.244624943692486e-07,2.80978638392511e-05,-0.0005678366658939888,4.2765634520355706e-05,-0.04978805650428344,0.04333575131995001,0.07614840136199956,-1.0998289311777445e-05,-1.0242693115440626e-06,-0.00010487259873853683,3.24229092462415e-05,-0.19614943918428718,-0.06560642458341169,-0.09205092815017824,1.867340934445925e-05,-0.002885157262227933,0.015482631253624368,-9.764504361117754e-05,2.4789860325035113,-0.07344821328779051,0.015450328348833014,0.0003338902320770525,-0.009796902891295867,0.0839361250168369,-0.0005047274354713638,0.2186875207521632,-2.193990049957213,-2.1282981059038626,-0.3984215121192512,1.5382279475591132,-1.3569287683250153,-0.04460827822688704,-0.21408841327836045,0.14257421712554752,0.07259204081085274,-0.00028599439578104626,-0.04456332080917286,0.056855827074364755,0.06207117188585372,0.5236165113598419,-0.5603242039479874,0.0003462992492872929,0.05676295313694506,0.22255728630299942,-2.169829529543705,-2.1168068926870998,-0.4340175120418671,1.5382745323468032,-1.3530672826191656,-0.022236395109272885,-0.076985772303433,0.20229765165459712,-0.1253188751999427,-2.0262595071828446e-05,-0.022236177096059705,0.033333859455182344,-0.12042082452098368,0.3850801564497047,-0.2646567596117477,1.324609174156251e-05,0.03333275652713519,0.4999921785945962,0.5146020977190457,0.5025552524500537,0.49987984881076863,0.5000000021162287,0.49999999775997767,1.4141485444916189,1.5922155014047303,1.4459951643059716,1.4127851558784312,1.4142135865720455,1.4142135194948817,0.07439493067510619,31.650545321565872,6.460184800766152,0.18265662200717583,-0.00013283005671941488,1.311332292153254e-05,0.03415281291495372,0.22905360553288914,0.10032605073128849,-0.3049649948691214,0.00040256135552109337,0.034086024250703874,0.003992586303730401,0.016619787218917104,0.2621789197110947,-0.38256676432761905,0.00032422087506949707,0.0039010584441667648
0.504125337937295,-0.0027420813322466013,-0.011949256556296917,0.0167963387212702,0.9998557012633025,0.0024770593987914276,-0.0005690637617001322,0.048367382549481384,-0.011416957707964914,-0.06272605152858152,1.0782046772926738e-05,3.07664235215388e-05,-5.666209811953926e-05,-3.14182223788359e-05,0.1535825902829656,0.06422920700805135,0.09117492166562102,-2.1624253885070704e-05,0.0029742154209994737,-0.01615346968580761,0.00010046868674055964,-2.2915243406514127,0.04804060712546715,-0.013295702591120673,-0.0002950844540611453,0.008905815877154055,-0.06708384321832406,0.0002823643129382103,0.549747550849065,0.005018085742560773,0.002007234297024298,0.01676998,0.99985616,0.00251062,0.0,-0.003152956260782504,0.03125730805630147,0.012502923222520584,0.0,0.0,0.0,0.0,-0.019639545872133946,-0.0019810608451928512,-0.0007924243380771405,0.0,0.0,0.0,0.0,0.0012447372395144498,-0.01233989060634715,-0.00493595624253886,0.0,0.0,0.0,0.0,0.045622212911770044,0.007760167074807374,0.013956490853321214,-2.247614705463974e-07,2.779132569837802e-05,-0.0005683529202247981,4.3097810040602795e-05,-0.05152033881026389,0.04267426576426638,0.0752289747511021,-1.0782046772926738e-05,-3.07664235215388e-05,5.666209811953926e-05,3.14182223788359e-05,-0.17322213615509954,-0.0662102678532442,-0.09196734600369816,2.1624253885070704e-05,-0.0029742154209994737,0.01615346968580761,-0.00010046868674055964,2.2927690778909273,-0.0603804977318143,0.008359746348581814,0.0002950844540611453,-0.008905815877154055,0.06708384321832406,-0.0002823643129382103,0.21824825861510586,-2.1961222024007885,-2.1268267215779892,-0.39774732931390944,1.538225123031376,-1.3573675901377902,-0.043926213705734574,-0.21321524435753925,0.1471384325873442,0.06741828053417451,-0.0002824527737287286,-0.04388218127749136,0.06820645211524677,0.0873168920821204,0.45642154617966596,-0.5173760276678234,0.0003541622052317687,0.0681139531681492,0.2223394006746424,-2.170608863898369,-2.1147517326488057,-0.43529340702820835,1.5382743321776866,-1.353285166183576,-0.021788562835703136,-0.0779334354663874,0.2055160038294107,-0.12758949863412494,-2.0016911661421416e-05,-0.021788356441045455,0.04478322735697489,-0.09476631629544013,0.3218352174813588,-0.2270623434182245,2.456834104070296e-05,0.044782065501424925,0.4999926592177052,0.5165136112622545,0.5028227877020868,0.49986657885024266,0.5000000023712164,0.4999999972465325,1.414158644056019,1.6031329454097658,1.4473669114845962,1.412732211196808,1.4142135881087676,1.4142135116591357,0.07942793930835657,31.739017237412252,6.4170332036726725,0.1829174105722469,-0.00016057914218454386,1.3790599967172367e-05,0.03409637870456195,0.22882007365868104,0.09782132023754186,-0.30124502466121317,0.00039934128114909695,0.034030463577977836,0.005643517617490379,0.024842577983899772,0.2507466343960223,-0.3719800918316911,0.00032200743762636334,0.005556067198871764
0.5046223943082087,-0.0028495154476980943,-0.012566948911878983,0.016795729042085938,0.9998557128845366,0.0024767182326551817,-0.0005681240147568734,0.04968930867290906,-0.010770974992642509,-0.06181442717285149,1.053976874388453e-05,6.131423289706603e-05,-0.00022311506076991283,-3.040940721584645e-05,0.13219261234276788,0.06459827153224053,0.09116243557300285,-2.4227802904220767e-05,0.003054780937552723,-0.016645296265037357,0.00010088151629894515,-2.13899779401977,0.036906452418918045,-0.0012486092618169131,-0.00026035490191500635,0.008056551655324928,-0.049182657922974826,4.1282955838550794e-05,0.5497150395198499,0.005330557713763024,0.0021322230855051983,0.01676998,0.99985616,0.00251062,0.0,-0.003349288190618846,0.031236880585697364,0.012494752234278947,0.0,0.0,0.0,0.0,-0.019626710913817694,-0.0021044198348806435,-0.0008417679339522573,0.0,0.0,0.0,0.0,0.001322245978665935,-0.012331826164196057,-0.004932730465678423,0.0,0.0,0.0,0.0,0.04509264521164125,0.008180073161461118,0.014699171997384183,-2.2422275436362327e-07,2.7179179975034555e-05,-0.0005674091177782117,4.342319674257098e-05,-0.05303859686352791,0.04200785557833987,0.07430917940713043,-1.053976874388453e-05,-6.131423289706603e-05,0.00022311506076991283,3.040940721584645e-05,-0.1518193232565856,-0.06670269136712118,-0.09200420350695511,2.4227802904220767e-05,-0.003054780937552723,0.016645296265037357,-0.00010088151629894515,2.140320039998436,-0.0492382785831141,-0.0036841212038615095,0.00026035490191500635,-0.008056551655324928,0.049182657922974826,-4.1282955838550794e-05,0.21781684949340208,-2.1982432656483075,-2.1253159775592985,-0.3971208667803383,1.5382223346442834,-1.357798568143991,-0.04314091217037876,-0.21210632475190733,0.15107440186906845,0.06264625335711,-0.00027883870925145873,-0.04309780062009208,0.0785301535355808,0.1108919605631919,0.39359692817242636,-0.47720271770645184,0.00036140644772698666,0.07843806573992845,0.22212703455772284,-2.171395278801778,-2.1126702937879958,-0.43658849925270005,1.5382741355318919,-1.3534975303577792,-0.02123661169195601,-0.07864149034091666,0.20814388608100506,-0.1295092224491698,-1.9664579471827557e-05,-0.02123641742030334,0.05519511437471272,-0.07080548745292681,0.26278822515943545,-0.19197238150448492,3.523321895938588e-05,0.05519390207421142,0.49999343410363445,0.5185329008855792,0.5030972402567838,0.4998529863472501,0.5000000026408052,0.4999999966469326,1.4141703877178624,1.6139051116909728,1.4486771173070239,1.4126848689609048,1.4142135896723231,1.4142135029378227,0.08396749535475764,31.82650981991622,6.376895126371285,0.1831603815169251,-0.00018595712953480145,1.4417195320223179e-05,0.03402605631603454,0.2285114112550482,0.09541544929210492,-0.29762122947097014,0.00039614488548685584,0.03396097510802681,0.007032359356437373,0.03233529303444796,0.2408363893961118,-0.3623649038520495,0.00031963956664358094,0.006948846905485305
0.5051306813411439,-0.0029504644204744763,-0.013175526019845382,0.01679481031029224,0.9998557306013703,0.00247635865003913,-0.0005656660477366579,0.05081282674716017,-0.010122381729134445,-0.06090223966897972,1.0274973357640951e-05,9.258704040160728e-05,-0.00039257183835295084,-2.942282060334686e-05,0.11235180742511092,0.06485932635080636,0.09121875038717656,-2.6479538624357913e-05,0.0031272807504541256,-0.0169456777583038,9.865866124995903e-05,-1.9840804917656967,0.02610548185658368,0.005631481417370243,-0.00022517357201371456,0.007249981290140262,-0.030038149326644392,-0.00022228550489861165,0.5496805655260004,0.0056428192436741124,0.002257127697469634,0.01676998,0.99985616,0.00251062,0.0,-0.0035454878962923237,0.031215219936533853,0.01248608797461354,0.0,0.0,0.0,0.0,-0.01961310112656088,-0.002227695745676699,-0.0008910782982706794,0.0,0.0,0.0,0.0,0.0013997025178102305,-0.01232327488266347,-0.004929309953065388,0.0,0.0,0.0,0.0,0.0445498841848565,0.008593283664148589,0.015432653717315016,-2.2281835798665384e-07,2.625411219960714e-05,-0.0005649477807051087,4.374155205872702e-05,-0.0543583146434525,0.0413376016656683,0.07338832764359327,-1.0274973357640951e-05,-9.258704040160728e-05,0.00039257183835295084,2.942282060334686e-05,-0.1319649085516718,-0.06708702209648307,-0.09210982868544723,2.6479538624357913e-05,-0.0031272807504541256,0.0169456777583038,-9.865866124995903e-05,1.985480194283507,-0.03842875673924715,-0.01056079137043563,0.00022517357201371456,-0.007249981290140262,0.030038149326644392,0.00022228550489861165,0.2173942238803059,-2.200351060621586,-2.1237717118663277,-0.3965383805066094,1.5382195830555232,-1.358220771805857,-0.04226256130961605,-0.21077949732785073,0.15442656929708617,0.05824862737289103,-0.0002751588760154431,-0.042220366186587116,0.08783508607627084,0.13268274240566058,0.33521674280177194,-0.43976259842189674,0.00036798332360156336,0.08774344335049644,0.22192112641884587,-2.172186557903637,-2.110568053109509,-0.43789952770172436,1.53827394340578,-1.3537034366794145,-0.020590813887697023,-0.07912791018589733,0.2102240678486803,-0.13110284490242952,-1.921261119673589e-05,-0.020590632163532845,0.06457978042589858,-0.04864198449806706,0.20801817676752432,-0.15936224532597243,4.5196827509166705e-05,0.06457852567704966,0.49999452874638256,0.5206573897338483,0.5033780521116457,0.4998391279787956,0.5000000029254338,0.4999999959524467,1.414183720033498,1.6245261546388778,1.4499295167185138,1.4126431259729617,1.4142135912675182,1.414213493302428,0.08803869530316584,31.912696350890524,6.339723333554009,0.18338516269601957,-0.00020895852765173023,1.4994343617236389e-05,0.03394179274596089,0.22812580326701662,0.09310840769122206,-0.2940897549268678,0.0003929711369871612,0.03387750726271931,0.008426503362074966,0.04001080305419863,0.2309310726719511,-0.3531350406668131,0.0003173748503988883,0.00834678442336926
0.5056483550491107,-0.0030449133496884113,-0.013774976787949658,0.0167935760803155,0.9998557545411214,0.0024759799859444967,-0.0005616373817471538,0.05175195327690444,-0.009472149063272393,-0.05998875876616398,9.990967998631695e-06,0.00012450816891959246,-0.0005630203656028093,-2.8486592626258272e-05,0.09391265297442677,0.06502326658620518,0.09134809028157401,-2.8400535900925618e-05,0.0031921128517985176,-0.01704485272498585,9.362279770885884e-05,-1.843915445068414,0.016394023539881286,0.012933989439745108,-0.0001920997276567705,0.006483210134439199,-0.00991749666820474,-0.0005035863541100194,0.5496441302284907,0.005954858004743515,0.002381943201897395,0.01676998,0.99985616,0.00251062,0.0,-0.0037415476321745024,0.031192326963936264,0.012476930785574505,0.0,0.0,0.0,0.0,-0.019598717047654597,-0.0023508837108591404,-0.0009403534843436561,0.0,0.0,0.0,0.0,0.0014771037990957976,-0.012314237099339344,-0.004925694839735737,0.0,0.0,0.0,0.0,0.043995775179380026,0.008999771354431927,0.016156919989847054,-2.2053074411054752e-07,2.500954383595137e-05,-0.0005609164426920912,4.405266114186401e-05,-0.055493500909078945,0.04066447602720866,0.07246568955173849,-9.990967998631695e-06,-0.00012450816891959246,0.0005630203656028093,2.8486592626258272e-05,-0.11351137002208136,-0.06737415029706431,-0.09228844376591766,2.8400535900925618e-05,-0.0031921128517985176,0.01704485272498585,-9.362279770885884e-05,1.8453925488675098,-0.02870826063922063,-0.017859684279480845,0.0001920997276567705,-0.006483210134439199,0.00991749666820474,0.0005035863541100194,0.2169812202526801,-2.2024435656918384,-2.1221993606650984,-0.3959963779862462,1.5382168688605178,-1.3586333625990799,-0.04130036276258018,-0.2092505070252478,0.1572351201229258,0.05420025203631786,-0.000271419500534496,-0.04125907932228583,0.096219854703587,0.15289903026029275,0.2808550825839616,-0.4048375336573163,0.00037393754809470425,0.09612868643012872,0.2217225218400853,-2.1729806431707064,-2.108450101490793,-0.4392234591920115,1.5382737567293379,-1.353902039570016,-0.01986045787605689,-0.07940852670695299,0.21179516187158712,-0.1323931490287158,-1.866764421667461e-05,-0.019860289060151193,0.07303560116401313,-0.028061652105565438,0.15710940229068104,-0.1290304126286279,5.449669800612802e-05,0.07303431033816518,0.4999959673134173,0.5228848224624122,0.503664672961033,0.49982505974395725,0.5000000032256042,0.4999999951541677,1.4141985843533769,1.6349928527047728,1.451127361614616,1.4126069694593877,1.4142135928986983,1.4142134827282455,0.09167522536288376,31.997653954463694,6.305259909836242,0.18359241693220255,-0.00022974816008852902,1.5524056417396412e-05,0.03384481526891972,0.2276661878398447,0.09089297809241771,-0.2906444674648219,0.00038982022311657803,0.033781288883928805,0.009697920493221462,0.0473897196728586,0.22174991162799373,-0.34451841729868016,0.00031509138749062946,0.009621837752851426
0.5061737060474941,-0.0031328563201521034,-0.014365284846850596,0.016792020588099064,0.9998557848084213,0.0024755816303409063,-0.0005559903743416004,0.05252014968883707,-0.008821188844247985,-0.05907348468913583,9.690941234241291e-06,0.0001570048212079199,-0.0007323557910459411,-2.7630551691811e-05,0.07681964119326326,0.06509602190244088,0.09152740770281553,-3.0002676439040403e-05,0.0032496652288327432,-0.016933542544313174,8.560409344472719e-05,-1.7093011781163514,0.007275531623569809,0.017931742124152605,-0.00016021405381147854,0.005755237703422567,0.011131018067267462,-0.0008018704264131649,0.5496057350657239,0.006266661678215241,0.0025066646712860853,0.01676998,0.99985616,0.00251062,0.0,-0.0039374596581627196,0.031168202571679956,0.012467281028671983,0.0,0.0,0.0,0.0,-0.019583559244957652,-0.0024739788671780355,-0.000989591546871214,0.0,0.0,0.0,0.0,0.001554446766852583,-0.012304713171019886,-0.004921885268407954,0.0,0.0,0.0,0.0,0.043432029018229734,0.009399517998367343,0.01687194951813668,-2.1735349076124066e-07,2.3439590289770264e-05,-0.0005552674723864463,4.435633523442162e-05,-0.056457609346999796,0.039989391415927944,0.0715407657178078,-9.690941234241291e-06,-0.0001570048212079199,0.0007323557910459411,2.7630551691811e-05,-0.09640320043822091,-0.06757000076961892,-0.09251699924968675,3.0002676439040403e-05,-0.0032496652288327432,0.016933542544313174,-8.560409344472719e-05,1.710855624883204,-0.019580244794589696,-0.02285362739256056,0.00016021405381147854,-0.005755237703422567,-0.011131018067267462,0.0008018704264131649,0.2165785898828577,-2.2045189130424316,-2.120603973886069,-0.3954916060339961,1.5382141925921817,-1.3590355892012238,-0.040263036982242345,-0.20753473505934122,0.15953867790293802,0.05047719522501016,-0.00026762683360563686,-0.04022266021439145,0.10373257803378363,0.17157719659065715,0.23035577800122314,-0.37230568113077067,0.00037926669288591456,0.10364191078943805,0.22153197843694167,-2.1737756306186165,-2.1063211585793606,-0.4405574777420497,1.5382735763658386,-1.3540925814171423,-0.019054340314364274,-0.07949874479099649,0.2128942911432595,-0.1334018550038162,-1.803634991503921e-05,-0.019054184712610833,0.0806117561692618,-0.00902180840434974,0.10991292716723833,-0.10087059751004157,6.312943016354007e-05,0.08061043475403595,0.4999977725708456,0.5252126288416022,0.5039566156869415,0.49981083687194205,0.5000000035418769,0.4999999942430692,1.414214922523484,1.64530114792143,1.4522737474757985,1.4125763777533968,1.4142135945698304,1.4142134711944225,0.09490405420262153,32.08126172843713,6.273366173208805,0.18378229142575842,-0.0002484009372701005,1.6007898643340688e-05,0.03373565419410969,0.22713323201997562,0.08876583545311587,-0.2872807982378604,0.00038669164866086497,0.03367285190852704,0.010916307482377628,0.054701345193998774,0.2129030730396918,-0.3363585715420041,0.0003128574460009278,0.010843697393805866
0.5067051501446685,-0.0032142956289927865,-0.014946429251035842,0.01679013871177803,0.9998558214853194,0.002475163026579596,-0.0005486820102991258,0.0531299357219737,-0.008170335538351477,-0.058155984609248534,9.377874352625995e-06,0.0001900079000747082,-0.0008983970880922926,-2.688592695955852e-05,0.060978603313662644,0.06508533058965076,0.09175000798872929,-3.130668816152958e-05,0.00330030788667883,-0.01660412970463515,7.446247322524802e-05,-1.5841037879600617,-0.0010691312790120366,0.022260028591375436,-0.00013040117224891764,0.005064265784608668,0.03294128396780227,-0.0011141620219479176,0.5495653815534753,0.006578217954614155,0.002631287181845651,0.01676998,0.99985616,0.00251062,0.0,-0.004133216239985644,0.03114284771215463,0.012457139084861853,0.0,0.0,0.0,0.0,-0.019567628316874135,-0.0025969763550473847,-0.0010387905420189537,0.0,0.0,0.0,0.0,0.0016317283677126525,-0.012294703473693479,-0.004917881389477391,0.0,0.0,0.0,0.0,0.04286023140880679,0.009792513583606942,0.017577716432881495,-2.132918515140858e-07,2.1539021062046907e-05,-0.0005479578642786795,4.4652409746695875e-05,-0.057263151961959344,0.03931318325050611,0.07061312369411038,-9.377874352625995e-06,-0.0001900079000747082,0.0008983970880922926,2.688592695955852e-05,-0.08054623163053679,-0.06768230694469814,-0.09278879853074824,3.130668816152958e-05,-0.00330030788667883,0.01660412970463515,-7.446247322524802e-05,1.5857355163277744,-0.011225572194681442,-0.027177909980852826,0.00013040117224891764,-0.005064265784608668,-0.03294128396780227,0.0011141620219479176,0.21618700366307642,-2.2065753770886687,-2.11899024213958,-0.39502103524884463,1.538211554723099,-1.3594267806675313,-0.03915862197812678,-0.2056464046237033,0.16137317464891646,0.047057078515146164,-0.00026378690826527415,-0.03911914663074558,0.11044150041155663,0.18883304356379255,0.18344967459784278,-0.3420116709863993,0.0003839925340362734,0.11035135836458661,0.22135017273331484,-2.17456975828332,-2.1041855988838907,-0.4418989705094513,1.5382734031136291,-1.3542743856994408,-0.018180570362681756,-0.07941276647035567,0.21355596954698203,-0.13414927674016322,-1.7325220945320976e-05,-0.018180428229861087,0.08737699516825174,0.00859783206408199,0.06616784037225265,-0.07474217363470093,7.111289697182333e-05,0.08737564827497463,0.499999965852308,0.5276383053200248,0.504253420287492,0.499796513795581,0.5000000038748661,0.4999999932100404,1.4142326754629047,1.655447994160799,1.4533714883802853,1.4125513206802185,1.4142135962844888,1.4142134586837627,0.0977529545924604,32.16350845742834,6.243860127631627,0.18395523282323265,-0.0002650318251882143,1.6447620378109073e-05,0.033615134616375116,0.2265288962960283,0.08672204326556587,-0.2839938966814522,0.0003835852043003956,0.033553023131196985,0.01205218512921412,0.061815368662683834,0.20455167152991838,-0.3286836785841656,0.0003106444364819376,0.011982877565482197
0.5072403551953817,-0.0032894828981455725,-0.015517253717311538,0.01678859830731112,0.9998559103976742,0.002474717581388732,0.0,0.053503682060297084,-0.007544603880143537,-0.057123506151440996,2.1626653251091363e-05,0.0001563425277088023,-0.00285270200648873,2.977910997147004e-06,0.03737463383233844,0.06257316582079404,0.10324784578075383,0.0012248778898465368,-0.00336653723659059,-0.19543049183964376,0.0029863837956705525,-2.3603969481324203,-0.25121647688567117,1.149783779202454,0.12561845780080663,-0.666684512326942,-17.88263621350086,0.29119213224453044,0.5495230712848326,0.006889514534231933,0.002755805813692762,0.01676998,0.99985616,0.00251062,0.0,-0.004328809649508612,0.031116263386326722,0.01244650535453069,0.0,0.0,0.0,0.0,-0.01955092489232982,-0.0027198713187369726,-0.0010879485274947888,0.0,0.0,0.0,0.0,0.0017089455507307311,-0.012284208402525835,-0.004913683361010334,0.0,0.0,0.0,0.0,0.04228271608945089,0.010178997432377506,0.0182730595310043,-1.5134318154252924e-07,1.86198150798067e-05,6.488263367640342e-07,3.589662775078375e-05,-0.05783249170980569,0.03866086726647026,0.06957001150597168,-2.1626653251091363e-05,-0.0001563425277088023,0.00285270200648873,-2.977910997147004e-06,-0.05692555872466826,-0.06529303713953101,-0.10433579430824862,-0.0012248778898465368,0.00336653723659059,0.19543049183964376,-0.0029863837956705525,2.362105893683151,0.23893226848314533,-1.1546974625634643,-0.12561845780080663,0.666684512326942,17.88263621350086,-0.29119213224453044,0.21581552519932634,-2.208642497176643,-2.117418699205663,-0.3942629092345436,1.5381574070038784,-1.3598014307804018,-0.03714784637500609,-0.20671200879743,0.15715429339173204,0.07581260143010263,-0.00541477192205983,-0.03746501128705333,0.20107756031206947,-0.1065604173726738,-0.4218881257184408,2.875552291495646,-0.5150985013794556,0.16541353436922526,0.22118605614324263,-2.175392077895725,-2.10210287179938,-0.44293094968116076,1.5382224169811387,-1.3544420081513548,-0.016411659007219328,-0.08223196124046642,0.2082727084510497,-0.10319791717094247,-0.005098613249049889,-0.016762245191412714,0.17689113554624283,-0.281919477011075,-0.5283261095932329,3.095135956922075,-0.5081288028104568,0.1418183038448373,0.5000027730656352,0.5294186460970405,0.5044813926091214,0.499781455855428,0.5000000151532844,0.4999999924827596,1.4142637637411095,1.6624784974874554,1.4541907129496188,1.4122541318175224,1.4142153216029683,1.4142134909819863,0.2654494315991918,32.18097040264884,6.412635663180849,0.7777321790612042,-0.1306978117571292,0.0007011832420723051,0.034669024370379074,0.22075969588970307,0.07667795950005525,-0.2361881008047012,-0.006832046017750047,0.03410981713421275,-0.10539020496723497,0.5813973305631639,1.0051758019468,-4.780495614929237,0.7215631230785864,-0.05567939988480255
0.5077797417569613,-0.0033579526135473453,-0.01607989463079952,0.01678602740502552,0.9998559591515492,0.002474258609045202,0.0,0.053925167173205876,-0.006872089232841213,-0.05630304436195268,2.107685309944509e-05,0.00025693638590586904,-0.00012487183792511664,-4.381061220419882e-05,0.042148511290879265,0.06725146473023236,0.08204617894883165,-5.4980015164627304e-05,0.010059385819706675,0.2727830168563613,-0.004678852320134583,0.4773877458540826,0.4678298909438314,-2.1201666831922177,-0.12798579050111641,1.3425923056297264,46.82135086960051,-0.7665236115805135,0.5494788059301325,0.007200539127612638,0.002880215651045044,0.01676998,0.99985616,0.00251062,0.0,-0.004524232165038727,0.031088450643699903,0.01243538025747996,0.0,0.0,0.0,0.0,-0.019533449630747296,-0.0028426589065640613,-0.0011370635626256245,0.0,0.0,0.0,0.0,0.0017860952675046499,-0.012273228371844393,-0.004909291348737757,0.0,0.0,0.0,0.0,0.04169906417317126,0.010558491741159984,0.018960110281844564,-1.4686260429996878e-07,1.6048464991282735e-05,6.500687350893117e-07,3.635565647818568e-05,-0.058449399338244605,0.03796053987654112,0.06873842461943264,-2.107685309944509e-05,-0.00025693638590586904,0.00012487183792511664,4.381061220419882e-05,-0.06168196092162656,-0.07009412363679642,-0.08318324251145727,5.4980015164627304e-05,-0.010059385819706675,-0.2727830168563613,0.004678852320134583,-0.47560165058657794,-0.4801031193156758,2.11525739184348,0.12798579050111641,-1.3425923056297264,-46.82135086960051,0.7665236115805135,0.21544769104940334,-2.210656337571948,-2.11578082746195,-0.39385290505400566,1.53815498904211,-1.3601688925622901,-0.03678341499230008,-0.20138403953048042,0.16378717437129894,0.041000418053793265,-0.00024179617684154647,-0.03674617818882915,0.03644313827060054,0.5327969266949597,0.6632880979566901,-3.481218337630936,0.5172975745218283,0.07188330982241817,0.22102343550986953,-2.1761794669520964,-2.0999660845838672,-0.4442803834997998,1.538222302844375,-1.3546046291335914,-0.016262063337311596,-0.078738905637141,0.21367872155130188,-0.13494338186390525,-1.141367637405197e-05,-0.016262098223660607,0.014959566990773235,0.34930556033254123,0.5406013100252183,-3.1745464692962786,0.5087199572675837,0.050014696775210754,0.5000056873373807,0.5331305154509607,0.5048901325849993,0.49976516743115323,0.5000000233808803,0.4999999911991669,1.4142727264264543,1.676463418042823,1.455498020384711,1.4126132068549346,1.4142173633651731,1.4142134320196238,-0.06402132708029394,32.39160884505447,5.995160780018428,-0.4094716872342852,0.13023310467965107,-0.0006676575392602199,0.03214197572471874,0.22993906577041126,0.09100181781350819,-0.3226388143187285,0.007673959940390205,0.03258384648670781,0.25271059202314133,-0.9213697910774938,-1.4331872123438905,8.643270155881826,-1.450602362287875,0.15259706849309637
0.5083211723033524,-0.0034199626201817834,-0.016633356652340253,0.016783164824328182,0.9998560134585103,0.0024737704170757525,0.0,0.05413005740123304,-0.006225341574764462,-0.05538375988200285,1.961928605805735e-05,0.0002860672188833187,-0.0001246816099313613,-4.6736938569266057e-05,0.020489022802716583,0.06467476580767506,0.09192844799498293,-0.00014575670413877382,0.0029130832977449644,1.902279937553413e-05,-0.00029263263650672333,-2.165948848816268,-0.25766989225572967,0.9882269046151276,-0.009077668897414652,-0.714630252196171,-27.276399405698577,0.43862196836278594,0.5494325872368957,0.007511279456037884,0.0030045117824151423,0.01676998,0.99985616,0.00251062,0.0,-0.004719476071629694,0.031059410582273617,0.012423764232909449,0.0,0.0,0.0,0.0,-0.019515203222019977,-0.0029653342710849323,-0.0011861337084339727,0.0,0.0,0.0,0.0,0.0018631744722956934,-0.012261763815121965,-0.004904705526048785,0.0,0.0,0.0,0.0,0.04111141493354331,0.010931242076219667,0.019637868434755394,-1.4179454044249695e-07,1.3185385320902548e-05,6.510688523027902e-07,3.684391457024457e-05,-0.05884953347286274,0.03728475215703808,0.0678075241149123,-1.961928605805735e-05,-0.0002860672188833187,0.0001246816099313613,4.6736938569266057e-05,-0.040004226024736564,-0.06764010007876,-0.0931145817034169,0.00014575670413877382,-0.0029130832977449644,-1.902279937553413e-05,0.00029263263650672333,2.167812023288564,0.24540812844060772,-0.9931316101411765,0.009077668897414652,0.714630252196171,27.276399405698577,-0.43862196836278594,0.21509250387397924,-2.21264707955573,-2.1141366560894634,-0.3934691236839764,1.5381525135815681,-1.3605237005821618,-0.03551871754240996,-0.19907419837822662,0.16441713724866372,0.03837813700292349,-0.0002475460541900263,-0.035480801987175146,0.12646974498901234,0.23098411522538043,0.06299628773647868,-0.26222810508697814,-0.0005749877348479818,0.12653762016540052,0.2208711554564236,-2.1769616813919113,-2.0978337310551862,-0.44563055665554896,1.5382221940845011,-1.3547569094359038,-0.015228005344590644,-0.078221443981493,0.21323535286811499,-0.13501731557491584,-1.0875987370801624e-05,-0.015228030231242879,0.1034057992720952,0.051746165564800495,-0.04433686831868955,-0.007393371101058199,5.376890032503465e-05,0.10340679924177275,0.5000091596989956,0.5347424833627373,0.5051302000101274,0.49975071720870273,0.5000000237867074,0.49999998973884185,1.4142944341035313,1.6822144061972648,1.4562490342742775,1.4126043318219739,1.414217365063676,1.4142134165404476,0.10504919241369987,32.398498687781924,6.166899305889338,0.18435121040365607,-0.0005270147746655526,2.0187155175628493e-05,0.033196991020287114,0.22444123532628707,0.08103303779807233,-0.27452164188642564,0.00036017386426796864,0.033137245389367354,-0.10550219254041932,0.5560533376259568,0.9977828734759652,-4.81296747411163,0.731379663699171,-0.05533988837963308
0.5088634342483311,-0.0034755575755041797,-0.017177540411475276,0.01677996518099997,0.9998560739929342,0.002473260523325783,0.0,0.054213703418486914,-0.0055829841035118215,-0.05445446894999778,1.81210259279773e-05,0.00031943416670224267,-6.573488545949958e-08,-5.099947047422157e-05,0.008364601725387166,0.06423574712526407,0.09292909320050696,-0.0001498260130080052,0.003336694781892399,0.01246158750459018,-0.0004262531904955513,-1.2124421077329417,-0.04390186824109882,0.10006452055240367,-0.00040693088692313705,0.04236114841474348,1.2442564705214647,-0.0133620553988828,0.5493844170297569,0.007821723252011572,0.003128689300804618,0.01676998,0.99985616,0.00251062,0.0,-0.004914533661386387,0.031029144348499783,0.012411657739399914,0.0,0.0,0.0,0.0,-0.019496186386484832,-0.0030878925692862445,-0.0012351570277144975,0.0,0.0,0.0,0.0,0.0019401801221488352,-0.012249815184959618,-0.004899926073983847,0.0,0.0,0.0,0.0,0.040520982781425796,0.011297280827515752,0.020306229712279893,-1.3620692784765964e-07,9.985187068309309e-06,6.515866717592256e-07,3.7353886956032444e-05,-0.0591282370798733,0.0366121284520116,0.06686612668939769,-1.81210259279773e-05,-0.00031943416670224267,6.573488545949958e-08,5.099947047422157e-05,-0.027860788111872,-0.06732363969455031,-0.09416425022822146,0.0001498260130080052,-0.003336694781892399,-0.01246158750459018,0.0004262531904955513,1.2143822878550905,0.031652053056139204,-0.10496444662638751,0.00040693088692313705,-0.04236114841474348,-1.2442564705214647,0.0133620553988828,0.21475034565352683,-2.214613246103168,-2.112489806305801,-0.3931094126672697,1.5381500744270151,-1.3608654884109472,-0.03421582204524149,-0.196616654743776,0.16468497836627496,0.03597110167067473,-0.00024391545529855953,-0.03417878287855169,0.1302895497168469,0.2457543634450634,0.026784111761123303,-0.24070353322487578,0.00036305988914667555,0.1302019108623456,0.22072961449655454,-2.1777371553099845,-2.095709284519226,-0.4469795614906009,1.5382220914626559,-1.3548984505866513,-0.014154095986907828,-0.07754739180730963,0.21244465359604808,-0.13490048350519399,-1.0262184520799972e-05,-0.014154115074746572,0.10739093576828153,0.06740521741833705,-0.07906992720669026,0.011683206972185056,6.138028500016516e-05,0.10739151564963072,0.5000130882324818,0.5375384850772946,0.5054445220108129,0.49973656562328783,0.5000000242277242,0.49999998811895524,1.4143172262127015,1.6917085492930297,1.457182257084512,1.4126008985183567,1.4142173670444733,1.414213399877806,0.10556819046298196,32.47854918521112,6.145002959875769,0.1843890233994694,-0.0003127829555223785,1.7614190396687563e-05,0.033034472298199155,0.22310196433792,0.07924824618640565,-0.271516009613915,0.0003703599111346275,0.032973111701947735,0.016252212179734712,0.13467194182768588,0.17857432502514578,-0.3005633001937603,-0.0010186046878456446,0.016413368476733324
0.5094055145300518,-0.003524759976094706,-0.01771245629548962,0.016776425801345776,0.999856140729831,0.0024727286214229548,0.0,0.05419604129828434,-0.0049428177300886965,-0.05352618197893278,1.6605257736484605e-05,0.00035338093005922097,-1.8721250702837585e-08,-5.3201659761616116e-05,-0.001766212020257174,0.0640166373423125,0.09282869710649996,-0.00015157681914926947,0.00339467633569783,4.701363475666199e-06,-0.0002202189287394546,-1.013081374564434,-0.02191097829515737,-0.010039609400699923,-0.0001750806141264272,0.0057981553805430686,-1.2456886141114514,0.020603426175609674,0.5493342972103934,0.00813185825974421,0.003252743303897673,0.01676998,0.99985616,0.00251062,0.0,-0.005109397233769161,0.03099765313723747,0.012399061254894988,0.0,0.0,0.0,0.0,-0.019476399874893968,-0.0032103289627762412,-0.0012841315851104963,0.0,0.0,0.0,0.0,0.0020171091770128757,-0.01223738295306881,-0.004894953181227524,0.0,0.0,0.0,0.0,0.03992878268034161,0.011656618235838915,0.020965199599387294,-1.3017036004647764e-07,6.445197342060116e-06,6.516206186842085e-07,3.788587990107874e-05,-0.0593054385320535,0.03594047086732617,0.06592524323382777,-1.6605257736484605e-05,-0.00035338093005922097,1.8721250702837585e-08,5.3201659761616116e-05,-0.017710187854636794,-0.06722696630508875,-0.09411282869161046,0.00015157681914926947,-0.00339467633569783,-4.701363475666199e-06,0.0002202189287394546,1.015098483741447,0.009673595342088559,0.005144656219472399,0.0001750806141264272,-0.0057981553805430686,1.2456886141114514,-0.020603426175609674,0.2144215666754157,-2.2165538641649944,-2.110843318442116,-0.3927716698581516,1.5381476719270208,-1.3611939057285936,-0.032877897811111945,-0.19406180618263,0.1646487863685251,0.03377428091180763,-0.00024024999942172758,-0.03284173176462597,0.1337924234129548,0.255484856114599,-0.0036191997749878413,-0.21968207588670985,0.00036654558768319336,0.13370511139257152,0.22059916624162457,-2.1785048711182124,-2.093595531202705,-0.44832562914056756,1.5382219956411982,-1.3550288990080641,-0.013044825492998187,-0.07677158082278558,0.2113753316520796,-0.13460676499666369,-9.582145761092438e-06,-0.01304484214128827,0.11092704939096414,0.07758109845240474,-0.10693219439684709,0.029371850853029957,6.800387597075342e-05,0.11092729334583017,0.500017489295886,0.5404020241665002,0.5057597824844795,0.49972257086542593,0.5000000246894793,0.4999999863304619,1.4143411604763343,1.700973801483029,1.4580720743172473,1.412602689381242,1.4142173690790807,1.414213382216895,0.10740723759180301,32.551243350262865,6.125812927369671,0.18447860425444718,-0.00032019126257033055,1.78579949967699e-05,0.03286699196469989,0.22215257733081048,0.07758636223330716,-0.2685520101087046,0.0003673588448589269,0.03280619681495814,0.016748391491179015,0.09620027472151604,0.16629850661160236,-0.29640143721749385,0.0003001066280496719,0.016691488412026945
0.5099464145104261,-0.003567615569156001,-0.018238055940833803,0.016772544494304285,0.9998562136232374,0.002472174448788216,0.0,0.05407851929963334,-0.00430717416703866,-0.0525930248091366,1.5093892845306441e-05,0.00038755126315839425,2.8394872342730332e-08,-5.543008344050665e-05,-0.011752199865100454,0.06356435630500362,0.0933157169796181,-0.00015113648911781636,0.003417033309917328,4.711612304556792e-06,-0.00022284236788905343,-0.998598784484328,-0.0452281037308877,0.048701987311813855,4.4033003145311014e-05,0.0022356974219497894,1.0248828890592476e-06,-0.00026234391495988385,0.5492822297574499,0.008441672235636724,0.0033766688942546788,0.01676998,0.99985616,0.00251062,0.0,-0.005304059095897835,0.030964938191705784,0.012385975276682313,0.0,0.0,0.0,0.0,-0.01945584446838498,-0.003332638617975751,-0.0013330554471903003,0.0,0.0,0.0,0.0,0.0020939585998604525,-0.012224467610252773,-0.004889787044101109,0.0,0.0,0.0,0.0,0.039335815247023787,0.012009287804792726,0.021614724835088483,-1.237681969135096e-07,2.5632261668045997e-06,6.51169595600812e-07,3.844015583126959e-05,-0.05938257839553117,0.035272112358744445,0.06497900008581892,-1.5093892845306441e-05,-0.00038755126315839425,-2.8394872342730332e-08,5.543008344050665e-05,-0.007703644603284526,-0.06689699492297937,-0.0946487724268084,0.00015113648911781636,-0.003417033309917328,-4.711612304556792e-06,0.00022284236788905343,1.0006927430841885,0.03300363612063493,-0.053591774355914966,-4.4033003145311014e-05,-0.0022356974219497894,-1.0248828890592476e-06,0.00026234391495988385,0.21410646108158482,-2.2184678340563324,-2.109200200241765,-0.39245395802279265,1.538145306351705,-1.3615086583548053,-0.03151055938308802,-0.19139698913379824,0.16431182003506933,0.03177118353589268,-0.00023655753159183872,-0.03147526262116842,0.13673384280239265,0.2664817048831762,-0.033696633345575044,-0.20030973759149545,0.0003692467829888848,0.1366469143457552,0.2204801077078431,-2.1792636854370797,-2.0914952328962517,-0.4496671409998372,1.5382219071849077,-1.3551479577104464,-0.011905853378148028,-0.07588143188673639,0.21002983064532105,-0.13415118592696335,-8.84562904841087e-06,-0.011905870238223835,0.11389721148501591,0.08901489360491899,-0.1345501006758565,0.045557906970034034,7.365167126815677e-05,0.11389719030644348,0.500022374913136,0.5433540612971504,0.5060776037718867,0.49970878091886206,0.5000000251727778,0.4999999843647335,1.4143661229043194,1.710088618642412,1.4589259231440452,1.4126096294213664,1.414217371169145,1.4142133635597494,0.10818647432781223,32.625658381699566,6.1074839327098465,0.18456351494318704,-0.0003261028501641532,1.80661643984629e-05,0.03269100213670988,0.22117340859286908,0.07595431690051804,-0.2656439171815712,0.00036437371063901126,0.032630749465306,0.01759936667695159,0.09912084585749298,0.16330673100133053,-0.2908121177980232,0.0002985134224822752,0.0175447346528333
0.5104852514827055,-0.00360416575796295,-0.018754322625472414,0.016768319503891887,0.999856292607107,0.0024715977826784592,0.0,0.05387272462229058,-0.0036756308775369654,-0.05165817816816555,1.3607432060732427e-05,0.00042190183924057517,7.557300004778882e-08,-5.768076583356069e-05,-0.020579467734276047,0.06315432895016948,0.09348466409710501,-0.0001486460784574014,0.0034350576082180923,4.717812770505848e-06,-0.00022506823930540376,-0.8827267869175592,-0.041002735483414154,0.01689471174869117,0.0002490410660414946,0.0018024298300764463,6.200465949056724e-07,-0.00022258714163503335,0.5492282167264603,0.008751152948763833,0.003500461179505522,0.01676998,0.99985616,0.00251062,0.0,-0.005498511562855406,0.03093100080343475,0.0123724003213739,0.0,0.0,0.0,0.0,-0.01943452097845012,-0.003454816706309014,-0.0013819266825236055,0.0,0.0,0.0,0.0,0.002170725356807937,-0.012211069666387124,-0.004884427866554849,0.0,0.0,0.0,0.0,0.03874296524375476,0.012355318706726784,0.022254783804977935,-1.1709648273239281e-07,-1.6624810808864299e-06,6.502329292989387e-07,3.90169372918559e-05,-0.05937123618514598,0.034606631680971715,0.06403057848953946,-1.3607432060732427e-05,-0.00042190183924057517,-7.557300004778882e-08,5.768076583356069e-05,0.001144946755825927,-0.06660914565647849,-0.09486659077962861,0.0001486460784574014,-0.0034350576082180923,-4.717812770505848e-06,0.00022506823930540376,0.8848975122743672,0.02879166581702703,-0.02177913961524602,-0.0002490410660414946,-0.0018024298300764463,-6.200465949056724e-07,0.00022258714163503335,0.21380527838299418,-2.220354265364258,-2.1075631191472004,-0.39215447622942,1.5381429778937241,-1.3618094967332142,-0.03011826985906293,-0.18864313079257786,0.16370810945643183,0.029948179337265263,-0.00023284579809085954,-0.03008383784089833,0.1392289524025089,0.275385834122037,-0.06037105786374966,-0.1823004198627416,0.0003711733500979187,0.139142478027009,0.22037269122414155,-2.180012660121013,-2.0894108215810023,-0.45100260306469364,1.538221826577417,-1.3552553743858373,-0.010741648370156384,-0.07489746839333924,0.20844113152494437,-0.13354620648564805,-8.060749077895155e-06,-0.010741667539097367,0.11642050079916436,0.0983963493397147,-0.15886991203766798,0.060497944131529535,7.84879970515715e-05,0.11642026991264681,0.5000277560463949,0.5463814143499235,0.5063980279545005,0.49969524291549045,0.5000000256784459,0.4999999822132405,1.4143920803496983,1.7190185213691613,1.4597463975309157,1.4126216461944783,1.4142173733159278,1.4142133439106437,0.10914060141926993,32.696849335746116,6.090989126556286,0.184629050962149,-0.0003307543509999526,1.824236747905751e-05,0.03250809942393843,0.22011927943119863,0.0743963578358503,-0.26278620909357564,0.0003614042338697183,0.0324483691264138,0.018290676878533016,0.10660107253906453,0.1558887602893309,-0.2857748985333086,0.0002969476774282196,0.018238033552609174
0.5110212009527547,-0.0036344605673557157,-0.019261225717085592,0.01676374947754914,0.9998563775958823,0.002470998439127095,0.0,0.053584478375735774,-0.0030490583340297864,-0.05072025784535316,1.2165074631577986e-05,0.00045639245231868936,1.2277915222995471e-07,-5.9949805397814526e-05,-0.02882462465548033,0.06265725435071791,0.09379203228123897,-0.00014423574291544408,0.0034490613078114185,4.72061521821659e-06,-0.00022690395642538386,-0.8245156921204283,-0.049707459945157184,0.03073681841339604,0.0004410335541957331,0.0014003699593326258,2.80244771074141e-07,-0.0001835717119980096,0.5491722602497665,0.009060288181356898,0.0036241152725427477,0.01676998,0.99985616,0.00251062,0.0,-0.005692746957991434,0.030895842312214362,0.012358336924885745,0.0,0.0,0.0,0.0,-0.019412430246904266,-0.003576858404394306,-0.0014307433617577222,0.0,0.0,0.0,0.0,0.0022474064172352125,-0.012197189650399745,-0.004878875860159899,0.0,0.0,0.0,0.0,0.03815105929701179,0.012694748748712613,0.02288534098962834,-1.1026390633883665e-07,-6.233275331106458e-06,6.488103091318234e-07,3.961640800816341e-05,-0.05927722533372721,0.03394490064624415,0.0630785947702389,-1.2165074631577986e-05,-0.00045639245231868936,-1.2277915222995471e-07,5.9949805397814526e-05,0.009412194408576064,-0.06623411275511222,-0.0952227756429967,0.00014423574291544408,-0.0034490613078114185,-4.72061521821659e-06,0.00022690395642538386,0.8267630985376635,0.03751027029475744,-0.03561569427355594,-0.0004410335541957331,-0.0014003699593326258,-2.80244771074141e-07,0.0001835717119980096,0.21351822343445861,-2.2222122988932154,-2.1059345761048713,-0.3918715638946253,1.5381406866766936,-1.3620962159582388,-0.028705494853555745,-0.18580335289572364,0.162854304232918,0.028291233479470348,-0.00022912170306571892,-0.028671922502476625,0.1412775005507188,0.2839777896854223,-0.08538052235138362,-0.16569458577949164,0.0003724095025140616,0.14119153384217042,0.22027712425040671,-2.1807508865468743,-2.087344571383673,-0.45233064968814585,1.53822175422712,-1.3553509415908003,-0.009556697373484663,-0.07382264258614445,0.2066250197329184,-0.13280466234522034,-7.235029714792954e-06,-0.009556720496296411,0.11849509966717214,0.10748258071947986,-0.1816111792025954,0.07415441404277079,8.257193631022009e-05,0.11849470428009559,0.5000336419921797,0.5494871660383792,0.506720594445402,0.4996820027650431,0.5000000262073305,0.4999999798676706,1.4144189601849528,1.7277805157126145,1.4605345169151935,1.4126386578376,1.4142173755205014,1.4142133232766563,0.10967646126021369,32.76730477105104,6.075705577207024,0.18468372732445076,-0.0003341328440384093,1.8387446220066023e-05,0.03231822784969859,0.21901709599078634,0.07288643788481292,-0.2599779347545248,0.0003584508369653497,0.03225900071708583,0.018987584977273764,0.1113701016061289,0.15107771790205402,-0.2808327190131546,0.00029533969094353696,0.018936840571246262
0.5115535177433459,-0.003658551708790126,-0.019758744597660832,0.016758833438671992,0.9998564684851012,0.002470376271938849,0.0,0.053221709193502054,-0.00242763417305144,-0.049780275162486724,1.0783972526874951e-05,0.0004909856052169558,1.6998379920630277e-07,-6.223343597473556e-05,-0.03627691822337201,0.06214241609783463,0.0939982682866436,-0.0001381102104703035,0.0034593152898266394,4.7204646976348056e-06,-0.00022836305769210336,-0.7452293567891677,-0.05148382528832804,0.020623600540461973,0.0006125532445140576,0.0010253982015220875,-1.5052058178425393e-08,-0.0001459101266719498,0.5491143625364344,0.009369065729286263,0.0037476262917144937,0.01676998,0.99985616,0.00251062,0.0,-0.005886757613225106,0.030859464106041637,0.012343785642416656,0.0,0.0,0.0,0.0,-0.019389573145851664,-0.0036987588942343553,-0.0014795035576937422,0.0,0.0,0.0,0.0,0.0023239987539053117,-0.012182828110249904,-0.004873131244099962,0.0,0.0,0.0,0.0,0.03756084479308852,0.01302761743807639,0.023506370889375326,-1.0339165990025379e-07,-1.1150131295604299e-05,6.469017349096154e-07,4.023871389217167e-05,-0.05910846680672716,0.033287098279093076,0.06212406080490338,-1.0783972526874951e-05,-0.0004909856052169558,-1.6998379920630277e-07,6.223343597473556e-05,0.016887345077520342,-0.06584117499206898,-0.09547777184433734,0.0001381102104703035,-0.0034593152898266394,-4.7204646976348056e-06,0.00022836305769210336,0.747553355543073,0.03930099717807813,-0.025496731784561934,-0.0006125532445140576,-0.0010253982015220875,1.5052058178425393e-08,0.0001459101266719498,0.2132454617180962,-2.2240411885040294,-2.1043168403091674,-0.39160368400258544,1.538138432763098,-1.3623686504922923,-0.027276171636242796,-0.1828889610813962,0.16177357957040928,0.026787989203985906,-0.00022539135956114407,-0.027243453405349203,0.14293232173129483,0.29143918143274294,-0.10807246625087075,-0.15032442754844427,0.0003730343504574849,0.14284690971274216,0.22019357482361154,-2.1814775660567514,-2.085298533456238,-0.4536500282548594,1.538221690476005,-1.3554344913011513,-0.008354942679516562,-0.07266795098769635,0.2046037927434833,-0.1319378566713553,-6.375111477809923e-06,-0.008354971035116916,0.1201754693968101,0.1154691598448096,-0.20212269894351043,0.08668056738650454,8.599182369830314e-05,0.12017494611794959,0.5000400407323106,0.5526655517304363,0.5070451694673189,0.4996691052646597,0.5000000267602945,0.4999999773199031,1.4144467104746716,1.7363652017693783,1.4612920308185595,1.4126605797703613,1.4142173777836846,1.4142133016670946,0.11011498405338263,32.83575033354387,6.061791266739213,0.18472388972598783,-0.0003363327716435156,1.8502900331998293e-05,0.03212210711188983,0.2178563559596444,0.071433276831151,-0.2572153936564728,0.0003555140019402479,0.032063365647933016,0.019612521217750735,0.1171991043101781,0.14539464515253303,-0.276260524578505,0.00029368350301565375,0.019563506529279767
0.5120815186973082,-0.003676495483837765,-0.0202468570109387,0.01675357075995388,0.9998565651520374,0.0024697311713173533,0.0,0.05279061748695962,-0.0018118250285604756,-0.04883807306474431,9.47891326198244e-06,0.0005256464312866881,2.1716196767619742e-07,-6.452800855698271e-05,-0.04310917065424302,0.06158091444909645,0.09422020977424145,-0.00013050592648925117,0.003466082606973231,4.717816846989465e-06,-0.0002294572582247148,-0.6832252430871016,-0.05615016487381802,0.022194148759785426,0.0007604283981052328,0.0006767317146591512,-2.647850645340344e-07,-0.00010942005326114446,0.5490545258721667,0.009677473402543045,0.0038709893610172066,0.01676998,0.99985616,0.00251062,0.0,-0.006080535869347952,0.030821867621065875,0.012328747048426349,0.0,0.0,0.0,0.0,-0.01936595057765153,-0.00382051336340655,-0.00152820534536262,0.0,0.0,0.0,0.0,0.0024004993430839297,-0.012167985612906614,-0.0048671942451626446,0.0,0.0,0.0,0.0,0.03697300717485852,0.01335396888638081,0.02411784637195591,-9.66132477353554e-08,-1.6413674132593342e-05,6.445074729868191e-07,4.088396441633696e-05,-0.058871153356307576,0.03263369264962635,0.06116682011317066,-9.47891326198244e-06,-0.0005256464312866881,-2.1716196767619742e-07,6.452800855698271e-05,0.023743220076591492,-0.065401427812503,-0.09574841511960407,0.00013050592648925117,-0.003466082606973231,-4.717816846989465e-06,0.0002294572582247148,0.6856257424301856,0.04398217926091141,-0.02706134300494807,-0.0007604283981052328,-0.0006767317146591512,2.647850645340344e-07,0.00010942005326114446,0.21298712164047207,-2.2258402523011793,-2.1027120008765734,-0.3913494200420258,1.5381362161604424,-1.3626266718695883,-0.02583400776241314,-0.1799063797149876,0.16048394325939905,0.025426396055967054,-0.00022166026556259507,-0.025802137729608477,0.1442163873829657,0.29825813664086065,-0.1289636311010238,-0.13615931480188523,0.00037310939985490076,0.1441315675740726,0.22012217385832475,-2.1821919616727814,-2.083274586857591,-0.454959596583087,1.5382216356051952,-1.3555058926121866,-0.007140096528680789,-0.07143956160298949,0.20239465986472374,-0.13095683282275775,-5.487080983109169e-06,-0.007140131103532482,0.1214846150835773,0.122838938470686,-0.22091328787595677,0.09810238485975509,8.880304947007543e-05,0.12148399315844334,0.5000469587985021,0.5559156380947216,0.5073714735281619,0.4996565939755156,0.5000000273382132,0.4999999745620589,1.4144752701648406,1.744777254716791,1.4620201859497906,1.4126873218848959,1.4142173801060882,1.4142132790935715,0.11031749371487479,32.902821683238244,6.049035438391147,0.18475211890372292,-0.0003373967189231664,1.858991118202551e-05,0.031920036616466266,0.2166454850485836,0.0700286338846515,-0.25449688389239733,0.00035259387548916104,0.0318617645913348,0.02020751587691836,0.12218024208431161,0.14053658855318904,-0.271858456917322,0.00029201264562355296,0.02016010524940004
0.5126045846676288,-0.003688350877409214,-0.020725545489433124,0.016747961139266274,0.9998566674563669,0.002469063062608085,0.0,0.05229760202182822,-0.0012019064853864103,-0.047894137310922784,8.26183726115809e-06,0.0005603424415270668,2.6429242655341364e-07,-6.683000220927826e-05,-0.049301546513140504,0.06099185431740653,0.0943935753821526,-0.00012170760008243493,0.0034696010240378716,4.713045887721622e-06,-0.0002301993652295553,-0.6192375858897481,-0.05890601316899183,0.017336560791114675,0.0008798326406816241,0.0003518417064640733,-4.770959267843405e-07,-7.421070048405087e-05,0.5489927526192123,0.009985499025720383,0.0039941996102881416,0.01676998,0.99985616,0.00251062,0.0,-0.006274074076326221,0.030783054341531918,0.012313221736612768,0.0,0.0,0.0,0.0,-0.019341563474882414,-0.003942117005252924,-0.0015768468021011694,0.0,0.0,0.0,0.0,0.0024769051646587967,-0.012152662744326252,-0.0048610650977305,0.0,0.0,0.0,0.0,0.036388167951583505,0.013673849903129597,0.024719745099721267,-9.007422752116412e-08,-2.202420357392404e-05,6.416280167883563e-07,4.155223387214456e-05,-0.05857167609815444,0.031984960826918325,0.060207359047535554,-8.26183726115809e-06,-0.0005603424415270668,-2.6429242655341364e-07,6.683000220927826e-05,0.02995998303825809,-0.06493397132265945,-0.09597042218425376,0.00012170760008243493,-0.0034696010240378716,-4.713045887721622e-06,0.0002301993652295553,0.6217144910544069,0.04675335042466558,-0.022197625888845177,-0.0008798326406816241,-0.0003518417064640733,4.770959267843405e-07,7.421070048405087e-05,0.21274329798896083,-2.2276088900940607,-2.1011219596939434,-0.39110746550156433,1.5381340368267913,-1.3628701852403136,-0.024382365151122833,-0.17686377928814948,0.15900411826300614,0.024195454046142626,-0.00021793336511178568,-0.02435133707252002,0.14516426112903066,0.30426004268381246,-0.14798249963929075,-0.12309420098244288,0.0003726900450809385,0.14508006570884588,0.22006301867652936,-2.1828934151544614,-2.081274431102019,-0.45625831331722366,1.5382215898406648,-1.3555650482094024,-0.00591551817953986,-0.07014534816800876,0.2000155755571574,-0.1298716734136693,-4.576453043501163e-06,-0.005915559721579703,0.12245783491409284,0.12942134349807344,-0.2379084307566337,0.10851594090884598,9.106279396080054e-05,0.12245713819527791,0.500054401396262,0.5592339290799754,0.5076993220965033,0.4996445112407216,0.5000000279419712,0.4999999715865061,1.4145045841148245,1.7530144495823283,1.4627203415148367,1.4127187904709635,1.4142173824881075,1.4142132555697386,0.11037424561118389,32.968192091279306,6.037413717726723,0.18476781100367173,-0.00033739278683870774,1.8649805806839146e-05,0.03171249172766203,0.2153833696739886,0.06867285576824585,-0.2518197703855607,0.0003496905430493749,0.031654674345144275,0.02075497250051094,0.1272750686709302,0.13564424102331146,-0.26771983679642614,0.00029033324451161027,0.020709024184625006
0.5131221533894811,-0.0036941800507713693,-0.02119479448453683,0.0167420045767474,0.999856775240868,0.0024683719050498515,0.0,0.05174834919537388,-0.0005982026169102702,-0.04694866532181415,7.141475677154697e-06,0.000595043408012752,3.1135727722691846e-07,-6.913603100290946e-05,-0.05492528264543356,0.06037038684761401,0.09454719891086316,-0.00011203615840033931,0.003470096648568524,4.706485067350482e-06,-0.0002306028793631204,-0.5623736132293056,-0.062146746979251793,0.015362352871056695,0.0009671441682095625,4.9562453065254974e-05,-6.560820371140016e-07,-4.035141335650971e-05,0.5489290452162736,0.0102931304384941,0.004117252175397628,0.01676998,0.99985616,0.00251062,0.0,-0.006467364593602891,0.03074302579972159,0.012297210319888638,0.0,0.0,0.0,0.0,-0.01931641280030537,-0.0040635650190699165,-0.0016254260076279663,0.0,0.0,0.0,0.0,0.0025532132022589036,-0.012136860109429437,-0.004854744043771775,0.0,0.0,0.0,0.0,0.03580689182679253,0.01398731048926547,0.02531204665993446,-8.393189843136639e-08,-2.7981716844770882e-05,6.382640502256506e-07,4.224356262019866e-05,-0.058215713788976775,0.03134122841663186,0.05924587564170279,-7.141475677154697e-06,-0.000595043408012752,-3.1135727722691846e-07,6.913603100290946e-05,0.03560886984512819,-0.06443395186668392,-0.09617262491849113,0.00011203615840033931,-0.003470096648568524,-4.706485067350482e-06,0.0002306028793631204,0.5649268264315644,0.050009886869822356,-0.02021709691482847,-0.0009671441682095625,-4.9562453065254974e-05,6.560820371140016e-07,4.035141335650971e-05,0.2125140545010186,-2.2293465678295976,-2.0995484522695924,-0.3908766183893278,1.5381318946753837,-1.363099126801875,-0.022924348794223344,-0.17376777355370643,0.15735074243510935,0.02308471122365212,-0.00021421514076650492,-0.022894156156147153,0.14580163568994872,0.3096005734443059,-0.16533758278968014,-0.11107428224905087,0.00037182243452807764,0.14571809163728666,0.22001617561083583,-2.183581331530949,-2.079299606507859,-0.45754523304553707,1.5382215533577148,-1.35561189176571,-0.0046843065693519086,-0.06879163764878538,0.1974824594160251,-0.12869197283134104,-3.648294989435917e-06,-0.004684355630778757,0.12312116101879517,0.13537105192233806,-0.2533116141132302,0.11797005823282469,9.281580540652465e-05,0.12312040908009463,0.5000623723993024,0.5626183630698763,0.5080285013262262,0.4996328981258469,0.5000000285724584,0.4999999683858868,1.4145345957642397,1.7610784707547065,1.463393680789436,1.41275488777399,1.4142173849299409,1.4142132311112026,0.11025948627279125,33.03202586786422,6.026819778755231,0.18477199360969906,-0.00033637584995663023,1.8683835849699158e-05,0.031499828627712306,0.2140737304541609,0.0673622462313939,-0.24918220666900953,0.00034680393888186295,0.03144245238302281,0.021266809560580073,0.13199647869696096,0.13112208538179754,-0.26376580490473683,0.00028866041728248145,0.021222195754099168
