JhonPool4/journal_ws/src/ur5_motion_rviz/src/Data/SMCi/circular_traj/articular_lambda_0.5_alpha_[0.5 0.1]_beta_0.01_gamma_0.99_t_10.csv
x,y,z,w,ex,ey,ez,dx,dy,dz,dw,dex,dey,dez,ddx,ddy,ddz,ddw,ddex,ddey,ddez,dddx,dddy,dddz,dddw,dddex,dddey,dddez,x_des,y_des,z_des,w_des,ex_des,ey_des,ez_des,dx_des,dy_des,dz_des,dw_des,dex_des,dey_des,dez_des,ddx_des,ddy_des,ddz_des,ddw_des,ddex_des,ddey_des,ddez_des,dddx_des,dddy_des,dddz_des,dddw_des,dddex_des,dddey_des,dddez_des,e_x,e_y,e_z,e_w,e_ex,e_ey,e_ez,de_x,de_y,de_z,de_w,de_ex,de_ey,de_ez,dde_x,dde_y,dde_z,dde_w,dde_ex,dde_ey,dde_ez,ddde_x,ddde_y,ddde_z,ddde_w,ddde_ex,ddde_ey,ddde_ez,q1,q2,q3,q4,q5,q6,dq1,dq2,dq3,dq4,dq5,dq6,ddq1,ddq2,ddq3,ddq4,ddq5,ddq6,q1_des,q2_des,q3_des,q4_des,q5_des,q6_des,dq1_des,dq2_des,dq3_des,dq4_des,dq5_des,dq6_des,ddq1_des,ddq2_des,ddq3_des,ddq4_des,ddq5_des,ddq6_des,Lambda1,Lambda2,Lambda3,Lambda4,Lambda5,Lambda6,K1,K2,K3,K4,K5,K6,u1,u2,u3,u4,u5,u6,P1,P2,P3,P4,P5,P6,J1,J2,J3,J4,J5,J6
0.49988694035225434,-0.00020254560215720837,-0.0007865643203438938,0.01677267754201805,0.9998561531558996,0.002480791047862866,0.0,-0.011339522034442488,-0.020259282496726202,-0.07864023717142217,2.2609624466498066e-05,-0.00027518540462647843,-0.00018168736545595167,-1.5920275635541298e-05,-1.1339522034442489,-2.0259282496726203,-7.864023717142217,0.0022609624466498066,-0.02751854046264784,-0.018168736545595168,-0.0015920275635541298,-113.39522034442489,-202.59282496726203,-786.4023717142217,0.22609624466498066,-2.7518540462647842,-1.8168736545595168,-0.15920275635541298,0.55,2.7755575615628914e-17,0.0,0.01676998,0.99985616,0.00251062,0.0,-0.0,0.031415926535897934,0.012566370614359173,0.0,0.0,0.0,0.0,-0.019739208802178717,-0.0,-0.0,0.0,0.0,0.0,0.0,0.0,-0.012402510672119928,-0.0049610042688479706,0.0,0.0,0.0,0.0,0.050113059647745706,0.00020254560215723612,0.0007865643203438938,-1.603626236246214e-07,2.697268779033174e-06,5.070034337020536e-07,2.9824644357723338e-05,0.011339522034442488,0.05167520903262414,0.09120660778578134,-2.2609624466498066e-05,0.00027518540462647843,0.00018168736545595167,1.5920275635541298e-05,1.1142129946420702,2.0259282496726203,7.864023717142217,-0.0022609624466498066,0.02751854046264784,0.018168736545595168,0.0015920275635541298,113.39522034442489,202.5804224565899,786.3974107099529,-0.22609624466498066,2.7518540462647842,1.8168736545595168,0.15920275635541298,0.22520671971656808,-2.1628070437723386,-2.140041717498536,-0.4178167939993015,1.5382739831535273,-1.3504172933634502,-0.035275028343193134,-0.18832837723384507,-0.02858874985359755,0.2157226000698497,-0.00032668464727229494,-0.03521633634502949,-3.5275028343193133,-18.832837723384507,-2.858874985359755,21.57226000698497,-0.03266846472722949,-3.5216336345029493,0.22546782457104814,-2.161155536055847,-2.139181478154563,-0.4203160656245024,1.5382770500253027,-1.3501567818604419,-0.009166666933045029,-0.023169591169724627,0.057448532399291805,-0.0342814002848871,-7.413328583871736e-06,-0.009166459995748957,-0.9379070718790573,-2.2368149669613446,5.878331795899977,-4.196518374944805,0.12510007873841117,-0.9293855152540236,0.5000120408190996,0.5002944164438837,0.5010477251698204,0.5000001988218957,0.49999999992764055,0.5000000004441102,0.5000024256702047,0.500059231464192,0.5002102268180221,0.5000000894955028,0.49999999998533173,0.5000000001157122,0.0,0.0,0.0,0.0,0.0,0.0,-0.01381860416509198,-0.03492611496907043,0.08657152904395776,-0.05167182221782253,-1.1269973898671313e-05,-0.01381829859140964,0.9401587463110057,2.2419980286269787,-5.882870440935066,4.202589960242934,-0.12509822540273435,0.9316375013003264
0.49978320032820805,-0.0004012992475062034,-0.0015628946872488364,0.016775388642551247,0.9998561031275952,0.0024806015996277847,0.0,-0.010406117294395908,-0.019880196865865608,-0.07761875694606069,2.3111009778393094e-05,-0.0002704127059800993,-0.00018390511769141005,-1.5859817069311527e-05,0.093340474004658,0.037908563086059416,0.10214802253614846,5.013853118950281e-05,0.000477269864637914,-0.0002217752235458381,6.045856622977075e-06,122.72926774489068,206.38368127586796,796.6171739678366,-0.22108239154603038,2.7995810327285757,1.7946961322049328,0.15980734201771069,0.5499990130428069,0.00031415719827797533,0.00012566287931117904,0.01676998,0.99985616,0.00251062,0.0,-0.00019739078923647043,0.031415306412404455,0.012566122564961781,0.0,0.0,0.0,0.0,-0.01973881916709643,-0.00012402429067031733,-4.960971626812693e-05,0.0,0.0,0.0,0.0,7.792676008731081e-05,-0.012402265857177509,-0.0049609063428710035,0.0,0.0,0.0,0.0,0.050215812714598795,0.0007154564457841787,0.0016885575665600155,-1.653942628410121e-07,5.408818321193942e-06,5.169870200360559e-07,3.0013939740508675e-05,0.010208726505159438,0.051295503278270066,0.09018487951102247,-2.3111009778393094e-05,0.0002704127059800993,0.00018390511769141005,1.5859817069311527e-05,-0.11307929317175444,-0.03803258737672973,-0.10219763225241658,-5.013853118950281e-05,-0.000477269864637914,0.0002217752235458381,-6.045856622977075e-06,-122.72918981813059,-206.39608354172515,-796.6221348741794,0.22108239154603038,-2.7995810327285757,-1.7946961322049328,-0.15980734201771069,0.22485709005710725,-2.1646776659415035,-2.1402967776126753,-0.41570277221557866,1.5382707405695581,-1.3507663412479025,-0.034962965946083537,-0.18706221691648875,-0.025506011413940953,0.2114021783722824,-0.00032425839691695824,-0.034904788445231365,0.031206239710960003,0.12661603173563235,0.3082738439656597,-0.4320421697567314,0.00024262503553367111,0.031154789979812813,0.22537695546050568,-2.1613868515690955,-2.138595344723598,-0.42067090812635544,1.5382769760088542,-1.350247649184121,-0.0090869110542453,-0.023131551324832342,0.05861334309647731,-0.035484250185299895,-7.4016448511695995e-06,-0.009086732367930287,0.007975587879972823,0.0038039844892284735,0.1164810697185506,-0.12028499004127988,1.1683732702136204e-06,0.007972762781867024,0.49998064832313893,0.5668971244175938,0.5058908648591531,0.49929836478518946,0.5000000029762803,0.4999999991217424,0.4999972592582796,0.5133666290479134,0.5011895360238938,0.4997869951634082,0.5000000001548134,0.5000000058823254,0.016214163922043112,30.965627979378546,6.61604769235125,0.17706181735709697,-5.9323436902900374e-06,1.0078728039295795e-06,0.039406897704482094,0.24811792877783964,0.13179568300547728,-0.3763304165488402,0.00048116913962049554,0.039318637519651145,-3.5409220214744836,-18.639627979531724,-3.0094554650988896,21.08769392481958,-0.03274945215409986,-3.5349221053549695
0.49977714481820645,-0.0005969437063055422,-0.002332017930953015,0.01677788879902226,0.9998560566273726,0.0024804010131089125,0.0,-0.0006353611359351712,-0.019572370001429248,-0.0769131523537644,2.6402738865578735e-05,-0.0002492939457780757,-0.00018790031103422888,-1.6906439037088494e-05,0.9770756158460736,0.030782686443635993,0.070560459229628,0.000329172908718564,0.00211187602020236,-0.00039951933428188243,-0.00010466219677769673,88.37351418414157,-0.7125876642423423,-3.158756330652046,0.027903437752906123,0.16346061555644462,-0.017774411073604432,-0.01107080534006738,0.5499960522101908,0.0006283019941676582,0.0002513207976670522,0.01676998,0.99985616,0.00251062,0.0,-0.0003947737858225689,0.03141344606640544,0.012565378426562175,0.0,0.0,0.0,0.0,-0.019737650277231702,-0.00024804368507400256,-9.921747402960102e-05,0.0,0.0,0.0,0.0,0.00015585044375956536,-0.012401531422015132,-0.004960612568806052,0.0,0.0,0.0,0.0,0.05021890739198431,0.0012252457004732005,0.002583338728620067,-1.7046381928231824e-07,7.909394977499012e-06,5.266277947850649e-07,3.021438066262705e-05,0.00024058735011260227,0.050985816067834686,0.08947853078032658,-2.6402738865578735e-05,0.0002492939457780757,0.00018790031103422888,1.6906439037088494e-05,-0.9968132661233053,-0.031030730128709993,-0.07065967670365761,-0.000329172908718564,-0.00211187602020236,0.00039951933428188243,0.00010466219677769673,-88.37335833369781,0.7001861328203272,3.15379571808324,-0.027903437752906123,-0.16346061555644462,0.017774411073604432,0.01107080534006738,0.22446885826098828,-2.1666432693638202,-2.1402673111269856,-0.4137765542621388,1.538267488799249,-1.351153997223599,-0.03882317961189717,-0.19656034223166097,0.0029466485689723376,0.19262179534399043,-0.0003251770309137938,-0.03876559756965022,-0.3860213665813633,-0.9498125315172208,2.845265998291329,-1.8780383028291956,-9.18633996835551e-05,-0.3860809124418854,0.22524619294296563,-2.1617264798711386,-2.137742336319053,-0.4211843238903498,1.5382768689709674,-1.3503784093020026,-0.013076251754004137,-0.033962830204314814,0.08530084045452303,-0.05134157639944121,-1.0703788686040181e-05,-0.013076011788138957,-0.39893406997588365,-1.0831278879482473,2.668749735804572,-1.5857326214141314,-0.0003302143834870582,-0.398927942020867,0.49994458149557514,0.5989607529872363,0.5130109902610178,0.49905312449212597,0.5000000073327818,0.49999999748021734,0.4999905490168465,0.5198288124361995,0.5026382546530244,0.4997037513229139,0.5000000004611553,0.5000000118309904,-0.09151795305772033,29.940139174469763,7.8234645551793935,0.1799455089426594,0.0007314919301613124,4.960238888990573e-06,0.033120032594680965,0.23359897962537235,0.16804786799026655,-0.3951327361174296,0.0004749282081896398,0.03303233424328921,0.4247057951050901,-0.99504839994903,-2.5085862166184496,1.1325775107164069,0.0004944505508841948,0.4245239172837282
0.49981631787686126,-0.0007886439520376669,-0.003090030958453782,0.016779747397091548,0.9998560220822076,0.0024801577175741804,0.0,0.0038893196988929865,-0.01917943937529469,-0.07580868625450518,2.7832894902538985e-05,-0.00018521909318274877,-0.0001897278316337463,-2.1147670245219574e-05,0.45246808348281575,0.039293062613455706,0.11044660992592242,0.00014301560369602503,0.006407485259532692,-0.0001827520599517415,-0.000424123120813108,-52.460753236325786,0.8510376169819713,3.988615069629442,-0.0186157305022539,0.4295609239330332,0.021676727433014093,-0.031946092403541126,0.5499911176190404,0.0009424219857704366,0.0003769687943081635,0.01676998,0.99985616,0.00251062,0.0,-0.0005921411974155642,0.03141034557134415,0.01256413822853766,0.0,0.0,0.0,0.0,-0.019735702178730295,-0.0003720532871377199,-0.00014882131485508796,0.0,0.0,0.0,0.0,0.00023376797472315897,-0.012400307395627034,-0.004960122958250813,0.0,0.0,0.0,0.0,0.050174799742179144,0.0017310659378081035,0.0034669997527619458,-1.744461856079127e-07,9.76830502777068e-06,5.353740895213305e-07,3.0457554471947316e-05,-0.00448146089630855,0.05058978494663884,0.08837282448304284,-2.7832894902538985e-05,0.00018521909318274877,0.0001897278316337463,2.1147670245219574e-05,-0.472203785661546,-0.03966511590059343,-0.11059543124077752,-0.00014301560369602503,-0.006407485259532692,0.0001827520599517415,0.000424123120813108,52.460987004300506,-0.8634379243775984,-3.993575192587693,0.0186157305022539,-0.4295609239330332,-0.021676727433014093,0.031946092403541126,0.22406784330447505,-2.1686337979678343,-2.1401054263680983,-0.4119521586220413,1.5382642501569113,-1.3515544431436224,-0.0401014956513234,-0.1990528604014049,0.016188475888746043,0.18243956400974654,-0.0003238642337594825,-0.040044592002330376,-0.12783160394262308,-0.24925181697439358,1.3241827319773707,-1.0182231334243907,0.00013127971543112514,-0.12789944326801544,0.22510093907255393,-2.162108584409445,-2.1367731014352858,-0.4217714942195528,1.538276749225344,-1.350523660738088,-0.01452538704117001,-0.038210453830646876,0.09692348837671633,-0.058717032920294246,-1.1974562342586865e-05,-0.014525143608536444,-0.14491352871658733,-0.42476236263320616,1.1622647922193294,-0.7375456520853036,-0.00012707736565466834,-0.1449131820397487,0.49991623764302845,0.6339841338371829,0.5179876689869524,0.4988242054173944,0.5000000109037549,0.4999999947809213,0.4999853769667276,0.5269246524987943,0.5036579640973627,0.4996272481914637,0.5000000006570205,0.500000017749142,-0.03350776332248389,30.713987465044216,7.077207560213494,0.19086096436005148,0.00010733056555817949,2.9208354022344123e-05,0.03691797961249367,0.2440761422586753,0.14376014523905545,-0.3802152740797822,0.00047674901732541557,0.03683096643656113,-0.24689640032070603,-1.7624538870965012,1.5291151892186843,-1.059385440318531,-4.3086930028187804e-05,-0.24715151993344814
0.49991920045726534,-0.0009763348326346268,-0.0038391496073802572,0.016781000422560723,0.9998559988131762,0.002479873981132837,0.0,0.010261708417169413,-0.01878110296697299,-0.07492798937597372,2.970893558528321e-05,-0.0001247400437652279,-0.00019116497115571852,-2.5168674569964883e-05,0.6372388718276426,0.0398336408321702,0.08806968785314562,0.00018760406827442253,0.006047904941752086,-0.00014371395219722294,-0.00040210043247453087,18.477078834482686,0.054057821871449085,-2.2376922072776804,0.004458846457839751,-0.035958031778060645,0.0039038107754518553,0.0022022688338577123,0.549984209464165,0.001256504772166902,0.0005026019088667496,0.01676998,0.99985616,0.00251062,0.0,-0.0007894852322879936,0.031406005049622834,0.012562402019849133,0.0,0.0,0.0,0.0,-0.019732974948499807,-0.0004960482011747184,-0.00019841928046988733,0.0,0.0,0.0,0.0,0.0003116762769273854,-0.012398593826335685,-0.004959437530534273,0.0,0.0,0.0,0.0,0.0500650090068997,0.0022328396048015287,0.0043417515162470065,-1.7741101221435684e-07,1.1021540482953479e-05,5.432782147713483e-07,3.0741191680945783e-05,-0.011051193649457407,0.05018710801659582,0.08749039139582286,-2.970893558528321e-05,0.0001247400437652279,0.00019116497115571852,2.5168674569964883e-05,-0.6569718467761424,-0.04032968903334492,-0.0882681071336155,-0.00018760406827442253,-0.006047904941752086,0.00014371395219722294,0.00040210043247453087,-18.47676715820576,-0.06645641569778477,2.232732769747146,-0.004458846457839751,0.035958031778060645,-0.0039038107754518553,-0.0022022688338577123,0.22364587852912665,-2.170674879136503,-2.1397579523833667,-0.4102574382673756,1.538261018554774,-1.3519758451752844,-0.04219647753483799,-0.2041081168668831,0.034747398473144994,0.16947203546657366,-0.0003231602137248564,-0.04214020316620059,-0.2094981883514591,-0.5055256465478197,1.8558922584398951,-1.2967528543172868,7.040200346261063e-05,-0.20956111638702116,0.22493326414081943,-2.1625576340155575,-2.1356346981731664,-0.42246089445949403,1.5382766100542757,-1.3506913330163783,-0.016767493173449124,-0.04490496061120459,0.1138403262119404,-0.06894002399412566,-1.3917106825841747e-05,-0.01676722782903149,-0.22421061322791136,-0.6694506780557712,1.6916837835224074,-1.0222991073831413,-0.00019425444832548824,-0.22420842204950442,0.49989129857549164,0.6670659274874003,0.5236440599786256,0.4986186398180673,0.5000000150247331,0.4999999880351839,0.49998053708055434,0.5336832635349678,0.504825093234923,0.49955142903743444,0.5000000009054623,0.5000000233989748,-0.041859008580468135,30.48032305059915,7.301072605872159,0.18962001958905508,0.0002691916161472928,2.6780322644767377e-05,0.03564737619620031,0.24056829696455995,0.1501500713475414,-0.3820944374519303,0.0004741906085682458,0.03556115858730214,0.09065938318229394,-0.7688150386511524,-0.5077853777262717,0.04908937738009477,0.00024804714522572125,0.09046584919084119
0.5000693665380422,-0.001159586538056188,-0.004578028537994022,0.016781506036360538,0.9998559896535949,0.002479539132769073,0.0,0.014991370484542481,-0.018339184044965647,-0.07390996175071515,3.076029466231169e-05,-5.011948427229712e-05,-0.00019118295520835417,-3.0281108867560858e-05,0.47296620673730677,0.04419189220073415,0.10180276252585718,0.0001051359077028481,0.007462055949293079,-1.7984052635652316e-06,-0.0005112434297595975,-16.427266509033583,0.43582513685639507,1.3733074672711565,-0.008246816057157444,0.14141510075409927,0.01419155469336577,-0.01091429972850666,0.5499753280182866,0.0015705379539064424,0.0006282151815625659,0.01676998,0.99985616,0.00251062,0.0,-0.0009867980996352674,0.031400424672597856,0.012560169869039142,0.0,0.0,0.0,0.0,-0.019729468694206623,-0.000620023532078105,-0.00024800941283124195,0.0,0.0,0.0,0.0,0.000389572274685874,-0.012396390781789866,-0.004958556312715946,0.0,0.0,0.0,0.0,0.0499059614802444,0.0027301244919626304,0.005206243719556588,-1.7893081971642744e-07,1.1527235161273158e-05,5.501630192527936e-07,3.107596888389302e-05,-0.01597816858417775,0.0497396087175635,0.0864701316197543,-3.076029466231169e-05,5.011948427229712e-05,0.00019118295520835417,3.0281108867560858e-05,-0.4926956754315134,-0.044811915732812256,-0.10205077193868843,-0.0001051359077028481,-0.007462055949293079,1.7984052635652316e-06,0.0005112434297595975,16.427656081308267,-0.44822152763818496,-1.3782660235838724,0.008246816057157444,-0.14141510075409927,-0.01419155469336577,0.01091429972850666,0.22321145999434103,-2.172743964997947,-2.1392726520359937,-0.4086658488680225,1.5382578008783125,-1.3524097075841934,-0.043441853478562144,-0.20690858614438032,0.048530034737306944,0.1591589399353102,-0.00032176764613940124,-0.04338624089091649,-0.12453759437241557,-0.2800469277497223,1.3782636264161952,-1.031309553126348,0.00013925675854551398,-0.12460377247159053,0.22475156369187949,-2.1630523955962264,-2.134374120274354,-0.4232267617777344,1.538276458069193,-1.3508730307691494,-0.018170044893993754,-0.0494761580669184,0.126057789881249,-0.0765867318240342,-1.5198508267131998e-05,-0.018169775277108013,-0.14025517205446292,-0.4571197455713813,1.2217463669308593,-0.7646707829908533,-0.00012814014412902507,-0.14025474480765243,0.4998726281838657,0.7036614642959031,0.5286835443099391,0.4984368380674884,0.50000001913887,0.49999997721512496,0.4999766585643012,0.5412181306015241,0.5058737480456001,0.4994787089525681,0.5000000011250995,0.5000000288760693,-0.020506855244106302,30.765321516233424,7.052284266270975,0.19331739576318555,5.618680237918915e-05,3.4958652759925715e-05,0.03686578000703992,0.2442372937783165,0.14150873894934815,-0.37606019120553,0.00047352218939141,0.03678029620316316,-0.07508137815755984,-1.2551722450256493,0.5098625370167245,-0.46944256636378756,0.00012155145529645428,-0.07527452949379204
0.5002682782792327,-0.0013382086650332021,-0.005307052712199778,0.016781146988732197,0.9998559968843224,0.0024791441020940476,0.0,0.019867001942737397,-0.017878474801880775,-0.07293019737454262,3.151625939321509e-05,3.6193206793461163e-05,-0.0001900321648419259,-3.632064413027977e-05,0.4875631458194916,0.04607092430848718,0.09797643761725316,7.559647309034011e-05,0.008631269106575828,0.00011507903664282845,-0.0006039535262718915,1.4596939082184845,0.18790321077530314,-0.38263249086040174,-0.0029539434612507985,0.11692131572827498,0.011687744190639367,-0.0092710096512294,0.5499644736320295,0.0018845091334967548,0.0007538036533986909,0.01676998,0.99985616,0.00251062,0.0,-0.001184072009883237,0.03139360466057294,0.012557441864229175,0.0,0.0,0.0,0.0,-0.019725183554271646,-0.0007439743855140956,-0.0002975897542056382,0.0,0.0,0.0,0.0,0.0004674528927980127,-0.012393698348962002,-0.0049574793395848,0.0,0.0,0.0,0.0,0.04969619535279679,0.003222717798529957,0.006060856365598469,-1.7871412572034728e-07,1.1168117919187204e-05,5.55886243615689e-07,3.147096089131489e-05,-0.021051073952620635,0.04927207946245372,0.0854876392387718,-3.151625939321509e-05,-3.6193206793461163e-05,0.0001900321648419259,3.632064413027977e-05,-0.5072883293737632,-0.046814898694001274,-0.09827402737145881,-7.559647309034011e-05,-0.008631269106575828,-0.00011507903664282845,0.0006039535262718915,-1.4592264553256866,-0.20029690912426515,0.37767501152081695,0.0029539434612507985,-0.11692131572827498,-0.011687744190639367,0.0092710096512294,0.22276444393418932,-2.1748431581692564,-2.1386456842684654,-0.40717801790442465,1.5382545970284847,-1.3528561740917744,-0.04470160601517191,-0.2099193171309257,0.0626967767528516,0.148783096359784,-0.00032038498278638553,-0.0446466507580994,-0.12597525366097687,-0.30107309865454024,1.4166742015544658,-1.0375843575526171,0.00013826633530156967,-0.12604098671829028,0.22455576674130615,-2.1635956359991018,-2.1329873108089923,-0.42407038637992844,1.5382762929890985,-1.3510688249600198,-0.019579695057333667,-0.05432404028752139,0.13868094653617286,-0.08436246021940526,-1.650800945418647e-05,-0.019579419087045295,-0.14096501633399128,-0.4847882220602992,1.2623156654923862,-0.7775728395371064,-0.0001309501187054471,-0.14096438099372824,0.49985916452956275,0.7415183250212812,0.5337462463588893,0.49828198850634275,0.5000000236073621,0.49999996146310255,0.4999733894312553,0.549087043989155,0.5069365743256502,0.4994072096011306,0.5000000013504695,0.5000000342384419,-0.015843224199857793,30.79185587280361,7.049347616967039,0.19608672713688127,1.2547003628224249e-05,4.115314092480283e-05,0.03679817761558763,0.244369183213151,0.1406226057241466,-0.37409430869134397,0.000471758533817202,0.03671345171715,0.010560143157247022,-1.0561176253841424,-0.006875303084399452,-0.19937126282995798,0.00019389170275325385,0.01040760696302077
0.5005089703615302,-0.001511908917225148,-0.006025353635912847,0.01677975747194265,0.9998560237106519,0.002478676198234316,0.0,0.024046049375275543,-0.017388237999879902,-0.07186225006734916,3.159781853303513e-05,0.00013904301846844047,-0.00018724595683650293,-4.365730497019743e-05,0.4179047432538146,0.04902368020008735,0.10679473071934648,8.155913982003748e-06,0.01028498116749793,0.00027862080054229547,-0.0007336660839917658,-6.965840256567701,0.295275589160017,0.8818293102093311,-0.006744055910833636,0.16537120609221023,0.0163541763899467,-0.012971255771987433,0.5499516467339063,0.002198405915893273,0.0008793623663572982,0.01676998,0.99985616,0.00251062,0.0,-0.0013812991749957123,0.031385545282790486,0.012554218113116194,0.0,0.0,0.0,0.0,-0.01972011969786487,-0.0008678958681152343,-0.00034715834724609367,0.0,0.0,0.0,0.0,0.0005453150566703512,-0.012390516634144732,-0.004956206653657892,0.0,0.0,0.0,0.0,0.04944267637237609,0.003710314833118421,0.006904716002270146,-1.763685525402181e-07,9.778351120731665e-06,5.602444333431355e-07,3.19388647984746e-05,-0.025427348550271255,0.04877378328267039,0.08441646818046535,-3.159781853303513e-05,-0.00013904301846844047,0.00018724595683650293,4.365730497019743e-05,-0.43762486295167946,-0.04989157606820258,-0.10714188906659257,-8.155913982003748e-06,-0.01028498116749793,-0.00027862080054229547,0.0007336660839917658,6.966385571624372,-0.30766610579416176,-0.886785516862989,0.006744055910833636,-0.16537120609221023,-0.0163541763899467,0.012971255771987433,0.22230871150667683,-2.1769620850529976,-2.1378976307905755,-0.4057821680462876,1.5382514105054197,-1.3533113637282495,-0.045573242751249465,-0.2118926883741049,0.07480534778897835,0.13958498581370868,-0.0003186523064893923,-0.04551896364750498,-0.08716367360775559,-0.19733712431792094,1.2108571036126752,-0.9198110546075324,0.00017326762969932302,-0.08723128894055807,0.22434973850224793,-2.16417837996197,-2.1314943657601493,-0.42498064655987106,1.5382761178218511,-1.351274850440688,-0.020602823905821896,-0.05827439628684662,0.14929450488429896,-0.0910260179942627,-1.7516724735500308e-05,-0.020602548066819333,-0.10231288484882292,-0.3950355999325229,1.0613558348126106,-0.6663557774857443,-0.00010087152813138384,-0.10231289797740378,0.4998520803261334,0.7821696637737305,0.5385309543666891,0.4981577894107607,0.5000000283735749,0.4999999396507555,0.49997089695362174,0.5576221095856946,0.5079512948736803,0.49933753886886306,0.5000000015645638,0.5000000394836484,-0.005770022186850129,30.95960260464868,6.935449448920799,0.20027857668657656,-0.00012414650893419297,5.0257539709778656e-05,0.03733357727963961,0.2464256327278423,0.13612475542225483,-0.3703740415487187,0.0004704429781452358,0.037249595292514745,-0.029595521809789672,-1.2337708059264183,0.24598930589320067,-0.3125514708835325,0.00016342051462762695,-0.029728030775093905
0.5007890874812988,-0.0016804893827260625,-0.006732649932763263,0.016777186726300873,0.9998560729644396,0.0024781237191024695,0.0,0.027989455775397402,-0.016878148124258384,-0.07076549183073784,3.110795519853096e-05,0.0002569281297755705,-0.00018272962511097586,-5.2193761755640194e-05,0.39434064001218594,0.0510089875621518,0.10967582366113171,-4.898633345041688e-05,0.011788511130713004,0.0004516331725527075,-0.0008536456785442764,-2.356410324162866,0.19853073620644535,0.2881092941785235,-0.005714224743242062,0.15035299632150737,0.0173012372010412,-0.011997959455251062,0.5499368478303008,0.002512215908988506,0.0010048863635953912,0.01676998,0.99985616,0.00251062,0.0,-0.0015784718087819213,0.03137624685742093,0.012550498742968371,0.0,0.0,0.0,0.0,-0.019714277324898683,-0.0009917830876735752,-0.00039671323506943005,0.0,0.0,0.0,0.0,0.0006231556924379812,-0.012386845762946708,-0.004954738305178683,0.0,0.0,0.0,0.0,0.049147760349002034,0.004192705291714569,0.007737536296358654,-1.716202677748413e-07,7.207149269966573e-06,5.630553319114646e-07,3.249138811926714e-05,-0.029567927584179324,0.04825439498167931,0.08331599057370621,-3.110795519853096e-05,-0.0002569281297755705,0.00018272962511097586,5.2193761755640194e-05,-0.4140549173370846,-0.052000770649825376,-0.11007253689620114,4.898633345041688e-05,-0.011788511130713004,-0.0004516331725527075,0.0008536456785442764,2.3570334798553043,-0.21091758196939206,-0.29306403248370216,0.005714224743242062,-0.15035299632150737,-0.0173012372010412,0.011997959455251062,0.22184585018789826,-2.1790971056259743,-2.1370357447450044,-0.40447324242807414,1.53824824296181,-1.3537736891450163,-0.04628613187785701,-0.21350205729767144,0.08618860455711307,0.13089256182134323,-0.0003167543609721891,-0.046232541676691656,-0.07128891266075457,-0.16093689235665393,1.138325676813471,-0.8692423992365452,0.0001897945517203212,-0.07135780291866742,0.2241350942933234,-2.1647981648647767,-2.129902200790737,-0.4259530888951336,1.5382759337616334,-1.3514894919039664,-0.021464420892452,-0.061978490280673974,0.15921649694124404,-0.09724423352625633,-1.840602176511016e-05,-0.021464146327841938,-0.08615969866301032,-0.3704093993827352,0.9921992056945078,-0.6218215531993628,-8.89297029609853e-05,-0.08615982610226045,0.4998514901508798,0.8249814441554133,0.5431912538222865,0.4980690693736051,0.5000000336078543,0.49999991061878896,0.49996909670169715,0.5667141285087899,0.5089505742424627,0.49926928027499895,0.5000000017790684,0.5000000446121006,0.00019649597232187718,31.05623825080685,6.885117602930993,0.20402875850455932,-0.0002149567251472681,5.84602224279532e-05,0.037529276270665546,0.24758364436215913,0.13366296107992878,-0.36770784182238786,0.00046876186569271775,0.03744603783557864,-0.006983161774302136,-1.213093464308338,0.11324702944048987,-0.24078437298668906,0.00018713546098462325,-0.00708099312045999
0.5011043891172245,-0.001843730748758585,-0.007428189109350794,0.016773260462243377,0.9998561478266427,0.002477473136320076,0.0,0.031508791135694283,-0.016345897213507658,-0.06959260167904649,2.994205765994197e-05,0.0003921981726452122,-0.00017619988742445644,-6.21174175076504e-05,0.3519335360296881,0.05322509107507263,0.11728901516913498,-0.00011658975385889898,0.01352700428696417,0.0006529737686519418,-0.0009923655752010208,-4.240710398249786,0.22161035129208279,0.761319150800327,-0.006760342040848209,0.17384931562511655,0.020134059609923437,-0.013871989665674433,0.5499200775054488,0.002825926724101254,0.0011303706896404907,0.01676998,0.99985616,0.00251062,0.0,-0.0017755821272038967,0.031365709751550175,0.012546283900620072,0.0,0.0,0.0,0.0,-0.019707656666019955,-0.0011156311533338198,-0.00044625246133352787,0.0,0.0,0.0,0.0,0.0007009717270858873,-0.01238268588028764,-0.004953074352115056,0.0,0.0,0.0,0.0,0.048815688388224254,0.004669657472859839,0.008558559798991285,-1.6424556859018224e-07,3.2801945286480005e-06,5.64108235092516e-07,3.3142065272377674e-05,-0.03328437326289818,0.04771160696505783,0.08213888557966656,-2.994205765994197e-05,-0.0003921981726452122,0.00017619988742445644,6.21174175076504e-05,-0.37164119269570806,-0.05434072222840645,-0.1177352676304685,0.00011658975385889898,-0.01352700428696417,-0.0006529737686519418,0.0009923655752010208,4.241411369976872,-0.23399303717237044,-0.766272225152442,0.006760342040848209,-0.17384931562511655,-0.020134059609923437,0.013871989665674433,0.22137832907018085,-2.1812414010132817,-2.1360727963762356,-0.40324361563058736,1.5382450968517771,-1.3542406814830121,-0.04675211177174284,-0.2144295387307596,0.09629483687688761,0.12296267974867653,-0.0003146110032911582,-0.04669923379959079,-0.0465979893885833,-0.0927481433088154,1.0106232319774544,-0.792988207266671,0.00021433576810308565,-0.04666921228991344,0.2239143067740575,-2.1654496753355366,-2.1282231845109303,-0.4269806595032688,1.538275742771177,-1.3517102767202294,-0.022078751926589674,-0.06515104707598292,0.16790162798064245,-0.10275706081352069,-1.9099045644250133e-05,-0.022078481626287817,-0.061433103413767454,-0.31725567953089434,0.8685131039398414,-0.5512827287264362,-6.930238791399729e-05,-0.06143352984458797,0.49985810960458177,0.8705287552664547,0.5476593074970384,0.49802024405447504,0.5000000393728635,0.4999998730477765,0.4999680287302564,0.5765087311173847,0.5099205260258759,0.49920252014786287,0.5000000019916185,0.500000049622065,0.0063733671114567444,31.19270062972439,6.812099711275961,0.2084574012633763,-0.0003318662024094271,6.802572702235131e-05,0.03785849209290006,0.24930270443453967,0.13041464544897574,-0.36472484757962803,0.00046710782692449337,0.037775988265324065,-0.01588859103495025,-1.2970767485095196,0.17352299719271727,-0.25912664676211805,0.00018468278452234369,-0.015955682504052646
0.5014519495527039,-0.0020014556709435096,-0.008111362565486877,0.016767806173807246,0.999856251280773,0.0024767109569986978,0.0,0.03473552573344937,-0.01579574174929258,-0.06835817179259907,2.814686636354199e-05,0.0005446757892933578,-0.0001674715082181385,-7.342776906726217e-05,0.3226734597755083,0.05501554642150762,0.12344298864474246,-0.00017951912963999806,0.015247761664814556,0.0008728379206317932,-0.001131035155961177,-2.9260076254179754,0.17904553464349882,0.6153973475607477,-0.006292937578109909,0.17207573778503862,0.02198641519798514,-0.013866958076015623,0.5499013364214136,0.003139525976465696,0.0012558103905862673,0.01676998,0.99985616,0.00251062,0.0,-0.0019726223486837727,0.031353934381165134,0.012541573752466055,0.0,0.0,0.0,0.0,-0.019700257982600965,-0.0012394351757863968,-0.0004957740703145587,0.0,0.0,0.0,0.0,0.0007787600885702636,-0.012378037150392575,-0.00495121486015703,0.0,0.0,0.0,0.0,0.0484493868687097,0.0051409816474092054,0.009367172956073144,-1.5418816967649462e-07,-2.17504428633164e-06,5.631963214349197e-07,3.3904394695890953e-05,-0.03670814808213314,0.047149676130457716,0.08089974554506513,-2.814686636354199e-05,-0.0005446757892933578,0.0001674715082181385,7.342776906726217e-05,-0.34237371775810926,-0.056254981597294015,-0.12393876271505702,0.00017951912963999806,-0.015247761664814556,-0.0008728379206317932,0.001131035155961177,2.9267863855065457,-0.19142357179389138,-0.6203485624209047,0.006292937578109909,-0.17207573778503862,-0.02198641519798514,0.013866958076015623,0.22090792456193611,-2.1833900608419308,-2.135017768352594,-0.4020875438239603,1.5382419741087545,-1.3547105646055415,-0.0470404508244741,-0.21486598286491787,0.10550280236418362,0.11560718066271054,-0.0003122743022680649,-0.04698831225294636,-0.02883390527312553,-0.04364441341582813,0.920796548729601,-0.7355499085965992,0.00023367010230933597,-0.02890784533555761,0.22368916572219125,-2.1661294967474864,-2.1264659407416864,-0.42805814871673653,1.538275546291657,-1.351935415125726,-0.022514105186623758,-0.06798214119496758,0.17572437692437748,-0.10774892134677415,-1.9647952001344568e-05,-0.022513840549655887,-0.0435353260034084,-0.28310941189846617,0.7822748943735025,-0.4991860533253456,-5.4890635709443404e-05,-0.04353589233680698,0.4998723893589765,0.9187127667060562,0.5519736157292761,0.49801647762800055,0.5000000457935676,0.49999982559363193,0.4999676695368343,0.587015739421625,0.5108698842787427,0.49913713755584016,0.5000000022077873,0.5000000545079217,0.010989524443526431,31.31042948628043,6.758252449227574,0.2128489096512584,-0.00043720557530391423,7.751931674554712e-05,0.038086105615794126,0.2508417217824521,0.12777345875860557,-0.36207619936203883,0.00046528165428658954,0.03800432992247396,-0.009143943518798728,-1.3243768332207215,0.13720127236673296,-0.23450084782399327,0.0001954852855140286,-0.00917460912345763
0.5018285523564705,-0.0021534899239062386,-0.00878135635322995,0.01676063648978433,0.9998563863741969,0.0024758224966622503,0.0,0.03764062848922355,-0.015227945302013362,-0.06704165759911618,2.5755554423081057e-05,0.0007158466237886449,-0.0001563128467228633,-8.624778887370704e-05,0.2905102755774186,0.05677964472792195,0.13165141934828872,-0.00023913119404609341,0.01711708344952871,0.0011158661495275213,-0.0012820019806444871,-3.2163184198089723,0.176409830641433,0.8208430703546266,-0.005961206440609535,0.1869321784714155,0.024302822889572806,-0.015096682468331013,0.5498806253180613,0.003453001285720317,0.0013812005142881157,0.01676998,0.99985616,0.00251062,0.0,-0.002169584694410994,0.03134092121113726,0.012536368484454904,0.0,0.0,0.0,0.0,-0.019692081566729067,-0.0013631902674604872,-0.0005452761069841948,0.0,0.0,0.0,0.0,0.0008565177059397943,-0.012372899756785405,-0.004949159902714162,0.0,0.0,0.0,0.0,0.04805207296159075,0.005606491209626556,0.010162556867518066,-1.4158022165755568e-07,-9.345962535916436e-06,5.600954314063293e-07,3.4793066404455696e-05,-0.03981021318363455,0.04656886651315062,0.07957802608357108,-2.5755554423081057e-05,-0.0007158466237886449,0.0001563128467228633,8.624778887370704e-05,-0.3102023571441477,-0.058142834995382434,-0.1321966954552729,0.00023913119404609341,-0.01711708344952871,-0.0011158661495275213,0.0012820019806444871,3.217174937514912,-0.1887827303982184,-0.8257922302573407,0.005961206440609535,-0.1869321784714155,-0.024302822889572806,0.015096682468331013,0.22043652221555077,-2.1855374249956983,-2.1338805421486318,-0.40099898280849466,1.538238876781796,-1.3551814533211637,-0.04714023463853544,-0.21473641537673713,0.11372262039622301,0.10885610154656264,-0.00030973269584079173,-0.04708887156222485,-0.009978381406134253,0.012956748818074376,0.8219818032039389,-0.6751079116147904,0.00025416064272731345,-0.010055930927848178,0.22346156227467745,-2.1668336609676193,-2.1246399803293476,-0.42918001329674443,1.53827534590111,-1.3521630160001978,-0.022760344751378968,-0.07041642201329991,0.18259604123387196,-0.11218645800078907,-2.0039054715095748e-05,-0.02276008744718907,-0.024623956475521014,-0.24342808183323295,0.6871664309494485,-0.44375366540149175,-3.911027137511805e-05,-0.024624689753318177,0.4998949639460272,0.96981091192738,0.5561204666864518,0.4980628167598137,0.5000000529695156,0.4999997667959328,0.49996802487418923,0.5983306426023699,0.511796222521717,0.4990731122009188,0.5000000024295691,0.5000000592670465,0.014835701027343485,31.440140075410728,6.702744046425295,0.2176642228707652,-0.0005511959050081291,8.787171651816696e-05,0.03833129123181621,0.2525948117225438,0.12503603820039436,-0.35943698111503297,0.0004633817136569374,0.03825023589246883,-0.010341294232897166,-1.3796015750901731,0.1491882004927802,-0.23113462542533852,0.00019972117026378282,-0.01033465786059292
0.5022314663306402,-0.0022996818385965447,-0.009437350879153233,0.01675155933744499,0.9998565559470945,0.0024747926379684484,0.0,0.040272626465589684,-0.01464478048820933,-0.06564257963802436,2.2879653032705686e-05,0.000905827584458686,5.16056308659551e-07,-0.00010302044836962149,0.26319979763661305,0.05831648138040317,0.13990779610918158,-0.00028759013903753713,0.01899809606700411,0.015682890303152286,-0.0016772659495914444,-2.7310477940805544,0.15368366524812216,0.8256376760892858,-0.0048458944991443716,0.18810126174753986,1.4567024153624766,-0.039526396894695726,0.5498579450130308,0.0037663402763966633,0.0015065361105586542,0.01676998,0.99985616,0.00251062,0.0,-0.0023664613886494046,0.031326670755204226,0.012530668302081688,0.0,0.0,0.0,0.0,-0.01968312774119516,-0.0014868915427169735,-0.0005947566170867894,0.0,0.0,0.0,0.0,0.0009342415094568877,-0.012367273902281635,-0.004946909560912653,0.0,0.0,0.0,0.0,0.04762647868239056,0.0060660221149932084,0.010943886989711887,-1.2684096240000997e-07,-1.8424652951761628e-05,5.545768608980202e-07,3.5823202696491033e-05,-0.04263908785423909,0.04597145124341356,0.07817324794010605,-2.2879653032705686e-05,-0.000905827584458686,-5.16056308659551e-07,0.00010302044836962149,-0.28288292537780824,-0.05980337292312014,-0.14050255272626838,0.00028759013903753713,-0.01899809606700411,-0.015682890303152286,0.0016772659495914444,2.7319820355900113,-0.16605093915040378,-0.8305845856501985,0.0048458944991443716,-0.18810126174753986,-1.4567024153624766,0.039526396894695726,0.2199657291549784,-2.1876784301476517,-2.1326696277136756,-0.3999726055285212,1.5382358067184434,-1.3556517409488085,-0.04707930605723642,-0.21410051519535261,0.12109144349561926,0.10263772799734569,-0.0003070063352704765,-0.0470287627644692,0.006092858129902616,0.06359001813845255,0.736882309939625,-0.6218373549216945,0.0002726360570315242,0.006010879775564831,0.2232331099873114,-2.1675588718104013,-2.122753457413133,-0.4303413948228355,1.5382751429886066,-1.3523914657989784,-0.02284522873660407,-0.07252108427819079,0.18865229162146938,-0.11613815260910704,-2.029125033994596e-05,-0.022844979878065712,-0.008488398522510376,-0.21046622648908803,0.6056250387597412,-0.3951694608317971,-2.5219562485021197e-05,-0.0084892430876643,0.49992641929239023,1.0238815554520158,0.5601105842817099,0.49816480667012963,0.5000000610202988,0.49999969513796194,0.4999690843801584,0.6105092336817302,0.5127024584045442,0.49901039552525045,0.5000000026614952,0.5000000638924471,0.017666004020876626,31.565522907799846,6.65538771360183,0.2226255873484756,-0.0006632321411533286,9.852967556814093e-05,0.038535861668004254,0.2543718915819989,0.12254256843403885,-0.3569537027500219,0.0004613618221384044,0.0384555204857264,-0.007669965798854081,-1.4164916570674693,0.13705572159943352,-0.21800344526022566,0.0002070194110600782,-0.00762288171104156
0.5026580434980183,-0.002439889088953565,-0.010078411313876892,0.016740371520707637,0.9998567626654824,0.002473605357936798,0.0,0.0426398586433987,-0.014047172447056357,-0.06414944419439374,1.9672597566657534e-05,0.0011164801508361452,7.735721045965265e-07,-0.0001187709592042098,0.23672321778090144,0.059760804115297286,0.1493135443630625,-0.00032070554660481513,0.021065256637745923,2.5751579593697544e-05,-0.001575051083458831,-2.6476579855711613,0.14443227348941157,0.9405748253880908,-0.0033115407567278006,0.20671605707418134,-1.5657138723558588,0.010221486613261332,0.5498332964017015,0.0040795305784079045,0.0016318122313631507,0.01676998,0.99985616,0.00251062,0.0,-0.0025632446590442212,0.03131118357594962,0.012524473430379848,0.0,0.0,0.0,0.0,-0.01967339685948094,-0.0016105341180413198,-0.0006442136472165278,0.0,0.0,0.0,0.0,0.0010119284307188654,-0.012361159808980365,-0.004944463923592146,0.0,0.0,0.0,0.0,0.047175252903683185,0.00651941966736147,0.011710223545240043,-1.1075258077308803e-07,-2.961432709678788e-05,5.463991668260622e-07,3.701083094110073e-05,-0.04520310330244292,0.045358356023005975,0.07667391762477359,-1.9672597566657534e-05,-0.0011164801508361452,-7.735721045965265e-07,0.0001187709592042098,-0.2563966146403824,-0.0613713382333386,-0.14995775801027902,0.00032070554660481513,-0.021065256637745923,-2.5751579593697544e-05,0.001575051083458831,2.6486699140018803,-0.15679343329839193,-0.9455192893116829,0.0033115407567278006,-0.20671605707418134,1.5657138723558588,-0.010221486613261332,0.21949708137492085,-2.1898078889664685,-2.131393345925757,-0.3990032810077515,1.538232765706875,-1.3561198920406343,-0.04686477800575247,-0.2129458818816642,0.1276281787918391,0.09693245207696877,-0.00030410115683194287,-0.04681510918258808,0.02145280514839494,0.11546333136884188,0.6536735296219853,-0.5705275920376927,0.0002905178438533632,0.021365358188112374,0.22300534759113042,-2.168301856180088,-2.1208143377045467,-0.4315376002138294,1.538274938923314,-1.3526192258015917,-0.022776239618098548,-0.07429843696870735,0.19391197085860973,-0.11962053909939348,-2.0406529272806044e-05,-0.022776000261326163,0.006898911850552331,-0.17773526905165565,0.5259679237140352,-0.34823864902864404,-1.1527893286008382e-05,0.006897961673954858,0.49996741449527954,1.0810893580029584,0.5639421634066392,0.4983281028417709,0.5000000700618428,0.49999960900992085,0.4999708442727267,0.6236387612925092,0.5135887982665648,0.49894896413665246,0.5000000029074845,0.5000000683778264,0.01962464173483095,31.695018246269523,6.611076778008991,0.22790578963680194,-0.0007790575751896826,0.00010984690550870498,0.038730310821587954,0.2562843382255519,0.12011502083963668,-0.35454645107504135,0.0004592488622628255,0.038650679178453065,-0.007035205027767506,-1.4580266721365402,0.13700829667529518,-0.21000232593455065,0.0002125135185745602,-0.006945605983454586
0.5031059000681978,-0.002573984059625481,-0.010703553189744586,0.016726862958018354,0.9998570088356654,0.002472244052487754,0.0,0.0447687467338848,-0.013436602569389798,-0.06255733740935904,1.6349156576251848e-05,0.0013481067820177491,1.0550967011717241e-06,-0.000136182328271197,0.21288880904861002,0.061056987766655926,0.15921067850346998,-0.00033234409904056865,0.02316266311816039,2.8152459657519767e-05,-0.0017411369066987203,-2.383440873229142,0.129618365135864,0.9897134140407493,-0.0011638552435753514,0.20974064804144682,0.0002400880063822223,-0.01660858232398893,0.5498066804571586,0.004392559827537186,0.0017570239310148634,0.01676998,0.99985616,0.00251062,0.0,-0.002759926736928877,0.03129446028478077,0.012517784113912309,0.0,0.0,0.0,0.0,-0.019662889305744963,-0.001734113112236362,-0.0006936452448945446,0.0,0.0,0.0,0.0,0.0010895754027790974,-0.012354557718255537,-0.004941823087302215,0.0,0.0,0.0,0.0,0.04670078038896086,0.006966543887162667,0.01246057712075945,-9.457385374833649e-08,-4.312507498345844e-05,5.353133643214579e-07,3.837255861975381e-05,-0.04752867347081367,0.04473106285417057,0.07507512152327135,-1.6349156576251848e-05,-0.0013481067820177491,-1.0550967011717241e-06,0.000136182328271197,-0.232551698354355,-0.0627911008788923,-0.15990432374836452,0.00033234409904056865,-0.02316266311816039,-2.8152459657519767e-05,0.0017411369066987203,2.384530448631921,-0.14197292285411953,-0.9946552371280515,0.0011638552435753514,-0.20974064804144682,-0.0002400880063822223,0.01660858232398893,0.21903195285415428,-2.191920844826555,-2.130059293158508,-0.39808629445352123,1.5382297553972448,-1.3565845332777533,-0.046512852076659165,-0.21129558600865359,0.13340527672492639,0.09169865542302881,-0.00030103096301291673,-0.04646412371190118,0.03519259290933084,0.16502958730106165,0.5777097933087277,-0.5233796653939962,0.0003070193819026141,0.03509854706868953,0.22277965025409216,-2.1690596718206705,-2.118829869203646,-0.4327643232898677,1.538274734972754,-1.352844920848205,-0.02256973370382471,-0.07578156405822316,0.19844685009010007,-0.12267230760382522,-2.039505598924407e-05,-0.022569504661331057,0.020650591427383985,-0.14831270895158122,0.45348792314903463,-0.3051768504431743,1.1473283561972883e-06,0.020649559999510667,0.5000186178442635,1.1415105709523115,0.5676187053063023,0.4985587282752957,0.50000008021863,0.49999950673399823,0.4999732968584651,0.6377967673077718,0.5144566715738175,0.498888804132845,0.5000000031726063,0.5000000727127473,0.020736119045734868,31.823943556030546,6.571956568734688,0.23339190123427545,-0.0008954538979839061,0.00012160097022507387,0.038900669599210874,0.25828811559053133,0.11783349146698409,-0.35224477512786767,0.0004570361012553344,0.03882174580437185,-0.0054759516513841755,-1.489980150630764,0.13097769485842775,-0.1999253891964895,0.00021844345678566972,-0.00534136223427283
0.5035728098577301,-0.002701849107460365,-0.01131171198546635,0.016710814862535076,0.999857296316003,0.002470691409174387,0.0,0.04667505571508656,-0.012814073337430756,-0.06085828779955846,1.3170283574972096e-05,0.0016015797690482562,1.361591785874227e-06,-0.0001553252738503534,0.1906308981201761,0.06225292319590424,0.16990496098005792,-0.0003178873001279752,0.025347298703050705,3.064950847025028e-05,-0.0019142945579156412,-2.2257910928433904,0.11959354292483126,1.0694282476587935,0.0014456798912593455,0.2184635584890314,0.00024970488127305096,-0.017315765121692084,0.549778098230154,0.0047054156659257435,0.0018821662663702863,0.01676998,0.99985616,0.00251062,0.0,-0.0029564998576317105,0.03127650154190458,0.012510600616761831,0.0,0.0,0.0,0.0,-0.01965160549480745,-0.00185762364661501,-0.000743049458646004,0.0,0.0,0.0,0.0,0.0011671793602680797,-0.01234746789074638,-0.004938987156298552,0.0,0.0,0.0,0.0,0.04620528837242388,0.007407264773386109,0.013193878251836636,-8.015920494042206e-08,-5.917568314819585e-05,5.210604921515209e-07,3.992570035479164e-05,-0.04963155557271827,0.044090574879335334,0.07336888841632029,-1.3170283574972096e-05,-0.0016015797690482562,-1.361591785874227e-06,0.0001553252738503534,-0.21028250361498357,-0.06411054684251925,-0.17064801043870392,0.0003178873001279752,-0.025347298703050705,-3.064950847025028e-05,0.0019142945579156412,2.2269582722036585,-0.13194101081557763,-1.074367234815092,-0.0014456798912593455,-0.2184635584890314,-0.00024970488127305096,0.017315765121692084,0.21857161345523876,-2.1940123746469804,-2.128674655750736,-0.3972172133758529,1.5382267773255511,-1.3570443955863671,-0.046033939891551634,-0.20915298204255797,0.13846374077717102,0.08690810776683308,-0.0002978071693582876,-0.04598623086138344,0.0478912185107529,0.21426039660956092,0.5058464052244633,-0.4790547656195731,0.0003223793654629119,0.04778928505177431,0.22255728630299942,-2.169829529543705,-2.1168068926870998,-0.4340175120418671,1.5382745323468032,-1.3530672826191656,-0.022236395109272885,-0.076985772303433,0.20229765165459712,-0.1253188751999427,-2.0262595071828446e-05,-0.022236177096059705,0.033333859455182344,-0.12042082452098368,0.3850801564497047,-0.2646567596117477,1.324609174156251e-05,0.03333275652713519,0.5000807384335106,1.205227328555893,0.5711404752729269,0.49886291254764825,0.5000000916168892,0.4999993865557833,0.4999764363197621,0.6530732788211611,0.5153068127888046,0.4988299196620161,0.5000000034622564,0.5000000768844568,0.021054263995192744,31.954472345512166,6.5366617002021625,0.23913211232000464,-0.0010138498926367144,0.00013389566951238483,0.03905514701638897,0.2604188562919405,0.11565039128044528,-0.35002625720084024,0.0004547352657865904,0.038976933197846,-0.004469027195258162,-1.5175713458114006,0.1279895785742889,-0.19118867908467999,0.0002235806052976476,-0.004287199801861841
0.5040567397256805,-0.0028233777313711418,-0.011901769124518527,0.016692002273322824,0.9998576263308533,0.00246892960921262,0.0,0.048378087476662696,-0.012180710622133717,-0.05904692681606129,1.043229174491325e-05,0.001877518823846968,1.6937331339212866e-06,-0.00017625026506447664,0.17030317615761362,0.06333627152970388,0.18113609834971706,-0.0002737991830058846,0.02759390547987118,3.321413480470597e-05,-0.0020924991214123223,-2.0327721962562495,0.10833483337996386,1.1231137369659139,0.004408811712209058,0.22466067768204742,0.00025646263344556927,-0.017820456349668112,0.549747550849065,0.005018085742560773,0.002007234297024298,0.01676998,0.99985616,0.00251062,0.0,-0.003152956260782504,0.03125730805630147,0.012502923222520584,0.0,0.0,0.0,0.0,-0.019639545872133946,-0.0019810608451928512,-0.0007924243380771405,0.0,0.0,0.0,0.0,0.0012447372395144498,-0.01233989060634715,-0.00493595624253886,0.0,0.0,0.0,0.0,0.04569081112338447,0.007841463473931914,0.013909003421542825,-7.010177904831494e-08,-7.799110070005541e-05,5.033745795462934e-07,4.168807544113577e-05,-0.0515310437374452,0.043438018678435185,0.07154985003858187,-1.043229174491325e-05,-0.001877518823846968,-1.6937331339212866e-06,0.00017625026506447664,-0.18994272202974757,-0.06531733237489673,-0.1819285226877942,0.0002737991830058846,-0.02759390547987118,-3.321413480470597e-05,0.0020924991214123223,2.034016933495764,-0.120674723986311,-1.1280496932084527,-0.004408811712209058,-0.22466067768204742,-0.00025646263344556927,0.017820456349668112,0.21811721184940827,-2.1960776858581554,-2.12724609988664,-0.39639192477996976,1.5382238328884148,-1.3574983312265843,-0.045440160583049206,-0.2065311211174907,0.14285558640961238,0.0825288595883149,-0.00029444371363259705,-0.045393564021713996,0.05937793085024271,0.2621860925067268,0.4391845632441352,-0.43792481785181736,0.0003363455725690573,0.0592666839669446,0.2223394006746424,-2.170608863898369,-2.1147517326488057,-0.43529340702820835,1.5382743321776866,-1.353285166183576,-0.021788562835703136,-0.0779334354663874,0.2055160038294107,-0.12758949863412494,-2.0016911661421416e-05,-0.021788356441045455,0.04478322735697489,-0.09476631629544013,0.3218352174813588,-0.2270623434182245,2.456834104070296e-05,0.044782065501424925,0.5001545061319879,1.2722548963537137,0.5745086444492846,0.4992471759570048,0.5000001043875933,0.49999924665917694,0.49998025684328334,0.6695556831656485,0.5161401970125881,0.49877233760104933,0.500000003782735,0.5000000808747388,0.02065119997250983,32.08503384254227,6.505507661772107,0.24506027440960082,-0.0011328812015214606,0.00014660278154331717,0.03919077420085808,0.26266979594293627,0.1135820728276249,-0.3478939159804819,0.00045235152865533916,0.03911327742971803,-0.0032698599042305,-1.5352038624231936,0.12354729835408766,-0.182115872588366,0.00022836280173122562,-0.0030385642914039783
0.5045558149999345,-0.0029384727924870613,-0.012472550322703668,0.016670194800541615,0.9998579993010417,0.0024669403971833443,0.0,0.04989368429933774,-0.011537462051431,-0.05711771537188511,8.438661210007072e-06,0.002176469466943382,2.0521304187911095e-06,-0.00019900076010472695,0.15155968226750471,0.06432485707027168,0.1929211444176175,-0.00019936305349061776,0.029895064309641388,3.583972848698229e-05,-0.0022750495040250313,-1.8743493890108902,0.0988585540567799,1.1785046067900455,0.007443612951526685,0.23011588297702085,0.0002625593682276323,-0.018255038261270895,0.5497150395198499,0.005330557713763024,0.0021322230855051983,0.01676998,0.99985616,0.00251062,0.0,-0.003349288190618846,0.031236880585697364,0.012494752234278947,0.0,0.0,0.0,0.0,-0.019626710913817694,-0.0021044198348806435,-0.0008417679339522573,0.0,0.0,0.0,0.0,0.001322245978665935,-0.012331826164196057,-0.004932730465678423,0.0,0.0,0.0,0.0,0.045159224519915386,0.008269030506250085,0.014604773408208867,-6.78902767337064e-08,-9.980169139697792e-05,4.819833481790458e-07,4.367793772856775e-05,-0.05324297248995659,0.042774342637128364,0.06961246760616406,-8.438661210007072e-06,-0.002176469466943382,-2.0521304187911095e-06,0.00019900076010472695,-0.1711863931813224,-0.06642927690515232,-0.19376291235156978,0.00019936305349061776,-0.029895064309641388,-3.583972848698229e-05,0.0022750495040250313,1.8756716349895561,-0.11119038022097597,-1.1834373372557239,-0.007443612951526685,-0.23011588297702085,-0.0002625593682276323,0.018255038261270895,0.21766979546107565,-2.1981120692991007,-2.1257798694585452,-0.3956065921197942,1.5382209233381674,-1.357945293862474,-0.04474163883326231,-0.2034383440945439,0.1466230428094552,0.07853326601755681,-0.00029095502473056565,-0.044696263588987914,0.06985217497869015,0.30927770229468143,0.37674563998428373,-0.3995593570758097,0.00034886889020314255,0.06973004327260798,0.22212703455772284,-2.171395278801778,-2.1126702937879958,-0.43658849925270005,1.5382741355318919,-1.3534975303577792,-0.02123661169195601,-0.07864149034091666,0.20814388608100506,-0.1295092224491698,-1.9664579471827557e-05,-0.02123641742030334,0.05519511437471272,-0.07080548745292681,0.26278822515943545,-0.19197238150448492,3.523321895938588e-05,0.05519390207421142,0.50024067605515,1.342558791554469,0.5777233622729,0.49971824567847745,0.5000001186639472,0.49999908517358344,0.49998475462078884,0.6873336694690817,0.5169575827492758,0.4987161124964025,0.5000000041411031,0.5000000846594631,0.019594231486980675,32.2158977583331,6.477984270653678,0.2511571395108588,-0.0012523910243983063,0.00015968969121685984,0.03931010260176562,0.265053749287321,0.11161364404737414,-0.3458391235695085,0.0004498956883630868,0.039233336057402306,-0.002245962647909664,-1.5426322016160317,0.11989576508704901,-0.17347157857613246,0.00023241684031045497,-0.0019630722895094847
0.5050683190068348,-0.003047046723134108,-0.0130228442486999,0.01664515952690764,0.9998584146218066,0.002464705316676548,0.0,0.0512376370169605,-0.010885298521938574,-0.0550669806373329,7.4600676556040396e-06,0.0025359542739667087,-0.015115550501680508,2.8080358966640906e-05,0.13439527176227553,0.06521635294924263,0.20507347345522092,-9.785935544030322e-05,0.03594848070233268,-1.5117602632099298,0.022708111907136785,-1.7164410505229182,0.08914958789709576,1.2152329037603409,0.010150369805031454,0.6053416392691295,-151.17961029384168,2.498316141116182,0.5496805655260004,0.0056428192436741124,0.002257127697469634,0.01676998,0.99985616,0.00251062,0.0,-0.0035454878962923237,0.031215219936533853,0.01248608797461354,0.0,0.0,0.0,0.0,-0.01961310112656088,-0.002227695745676699,-0.0008910782982706794,0.0,0.0,0.0,0.0,0.0013997025178102305,-0.01232327488266347,-0.004929309953065388,0.0,0.0,0.0,0.0,0.04461224651916562,0.00868986596680822,0.015279971946169533,-7.808172730605634e-08,-0.00012484032887811677,4.5661154488547506e-07,4.591373945400266e-05,-0.05478312491325282,0.04210051845847243,0.06755306861194645,-7.4600676556040396e-06,-0.0025359542739667087,0.015115550501680508,-2.8080358966640906e-05,-0.1540083728888364,-0.06744404869491934,-0.2059645517534916,9.785935544030322e-05,-0.03594848070233268,1.5117602632099298,-0.022708111907136785,1.7178407530407285,-0.10147286277975923,-1.2201622137134063,-0.010150369805031454,-0.6053416392691295,151.17961029384168,-2.498316141116182,0.21723031135903503,-2.2001109385056803,-2.124281778248005,-0.39485765196838213,1.5382180497670292,-1.3583843376849425,-0.04394841020406289,-0.19988692065793875,0.1498091210540428,0.07489401514120854,-0.0002873571138183419,-0.043904382246841796,0.07932286291994127,0.35514234366051467,0.318607824458758,-0.36392508763482667,0.00035979109122237334,0.0791881342146121,0.22192112641884587,-2.172186557903637,-2.110568053109509,-0.43789952770172436,1.53827394340578,-1.3537034366794145,-0.020590813887697023,-0.07912791018589733,0.2102240678486803,-0.13110284490242952,-1.921261119673589e-05,-0.020590632163532845,0.06457978042589858,-0.04864198449806706,0.20801817676752432,-0.15936224532597243,4.5196827509166705e-05,0.06457852567704966,0.5003400173145526,1.4160169519267014,0.5807847466053631,0.5002830490564384,0.5000001345814503,0.4999989001921425,0.49998992829242417,0.706490900068607,0.5177597316353576,0.49866133576147353,0.5000000045454581,0.5000000882057752,0.01798133218236786,32.34616300923096,6.453941567766263,0.257347521809693,-0.0013711542212214865,0.00017300930721434772,0.039412846605909616,0.26756966436111057,0.10974618686551849,-0.34385928630128765,0.0004473786772607831,0.03933683067292301,-0.00120819609426972,-1.536324365443763,0.11591805958415755,-0.16485838206282594,0.00023573565201222204,-0.0008717138896362398
0.5055926752533736,-0.003149021047454978,-0.013551416025294999,0.016616663939817793,0.9998588704311567,0.002462205951275012,0.0,0.05242395160823842,-0.01022514341935118,-0.05289239869490032,7.675970281222281e-06,0.0028954220933406685,-0.020823345206842953,9.607725756533708e-05,0.11863145912779233,0.06601551025873942,0.21745819424325852,2.159026256182413e-05,0.03594678193739598,-0.5707794705162444,0.006799689859869618,-1.5763812634483203,0.07991573094967841,1.2384720788037595,0.011944961800212735,-0.00016987649367056212,94.09807926936854,-1.5908422047267168,0.5496441302284907,0.005954858004743515,0.002381943201897395,0.01676998,0.99985616,0.00251062,0.0,-0.0037415476321745024,0.031192326963936264,0.012476930785574505,0.0,0.0,0.0,0.0,-0.019598717047654597,-0.0023508837108591404,-0.0009403534843436561,0.0,0.0,0.0,0.0,0.0014771037990957976,-0.012314237099339344,-0.004925694839735737,0.0,0.0,0.0,0.0,0.04405145497511709,0.009103879052198493,0.015933359227192394,-1.0648332327001242e-07,-0.00015333946107640162,4.2698426182241465e-07,4.8413889710889786e-05,-0.056165499240412926,0.04141747038328744,0.06536932948047483,-7.675970281222281e-06,-0.0028954220933406685,0.020823345206842953,-9.607725756533708e-05,-0.13823017617544692,-0.06836639396959857,-0.21839854772760217,-2.159026256182413e-05,-0.03594678193739598,0.5707794705162444,-0.006799689859869618,1.577858367247416,-0.09222996804901776,-1.2433977736434954,-0.011944961800212735,0.00016987649367056212,-94.09807926936854,1.5908422047267168,0.21679961615867538,-2.2020698372238816,-2.122757252064494,-0.39414179321113935,1.5382152130935594,-1.3588146075221714,-0.0430695200359653,-0.1958898718201385,0.1524526183510773,0.07158587572427948,-0.00028366734699102715,-0.043026983722888774,0.08788901680975934,0.39970488378002555,0.26434972970345055,-0.3308139416929066,0.0003689766827314764,0.08773985239530235,0.2217225218400853,-2.1729806431707064,-2.108450101490793,-0.4392234591920115,1.5382737567293379,-1.353902039570016,-0.01986045787605689,-0.07940852670695299,0.21179516187158712,-0.1323931490287158,-1.866764421667461e-05,-0.019860289060151193,0.07303560116401313,-0.028061652105565438,0.15710940229068104,-0.1290304126286279,5.449669800612802e-05,0.07303431033816518,0.5004533060488144,1.4924103986738813,0.5836925019662211,0.5009486298463636,0.5000001522761144,0.49999868979278295,0.49999578036824227,0.727102481615932,0.5185472968001801,0.49860814393405745,0.5000000050050138,0.5000000914701095,0.015918579862146894,32.47531697136194,6.4330141264588745,0.26355541786185,-0.0014880538923393606,0.0001864126192238183,0.039500068926729595,0.27021816264650056,0.10797329041597553,-0.3419493829122109,0.0004448144343813492,0.039424832320879476,-0.00024617583451948775,-1.5141982316260798,0.11217089433933519,-0.15643761888400043,0.00023812113495449614,0.00014574918077940027
0.5061274372201847,-0.0032443267311893995,-0.014057030977726884,0.016584480407776006,0.9998593633504275,0.0024594242859606263,0.0,0.05346560988213042,-0.009557955957530301,-0.05059402142569289,9.097454856785305e-06,0.003281607495565022,-0.028160001644488217,0.00018886836477264093,0.10416582738920002,0.0667187461820878,0.22983772692074314,0.0001421484575563024,0.03861854022243535,-0.7336656437645264,0.009279110720730385,-1.4465631738592304,0.07032359233483804,1.2379532677484621,0.012055819499447826,0.267175828503937,-16.28861732482819,0.24794208608607676,0.5496057350657239,0.006266661678215241,0.0025066646712860853,0.01676998,0.99985616,0.00251062,0.0,-0.0039374596581627196,0.031168202571679956,0.012467281028671983,0.0,0.0,0.0,0.0,-0.019583559244957652,-0.0024739788671780355,-0.000989591546871214,0.0,0.0,0.0,0.0,0.001554446766852583,-0.012304713171019886,-0.004921885268407954,0.0,0.0,0.0,0.0,0.04347829784553914,0.00951098840940464,0.016563695649012968,-1.6033584726571348e-07,-0.00018552663008525316,3.9283211429661495e-07,5.1196392443516366e-05,-0.057403069540293145,0.04072615852921026,0.06306130245436486,-9.097454856785305e-06,-0.003281607495565022,0.028160001644488217,-0.00018886836477264093,-0.12374938663415767,-0.06919272504926584,-0.23082731846761437,-0.0001421484575563024,-0.03861854022243535,0.7336656437645264,-0.009279110720730385,1.448117620626083,-0.08262830550585792,-1.24287515301687,-0.012055819499447826,-0.267175828503937,16.28861732482819,-0.24794208608607676,0.2163784808849298,-2.203984479310287,-2.1212113437823117,-0.393455945887713,1.5382124140459936,-1.3592353339873098,-0.042113527374556294,-0.19146420864053887,0.15459082821823175,0.06858473234263736,-0.0002799047565837899,-0.04207264651383107,0.09559926614090092,0.44256631795996415,0.2138209867154453,-0.3001143381642113,0.0003762590407237242,0.09543372090577046,0.22153197843694167,-2.1737756306186165,-2.1063211585793606,-0.4405574777420497,1.5382735763658386,-1.3540925814171423,-0.019054340314364274,-0.07949874479099649,0.2128942911432595,-0.1334018550038162,-1.803634991503921e-05,-0.019054184712610833,0.0806117561692618,-0.00902180840434974,0.10991292716723833,-0.10087059751004157,6.312943016354007e-05,0.08061043475403595,0.5005813116281194,1.5713981536605919,0.5864462131692523,0.5017220717890285,0.5000001718831406,0.49999845206817545,0.5000023184432959,0.749227286651049,0.5193208708407346,0.49855673018123187,0.5000000055303102,0.5000000943951117,0.013542971608237746,32.602356146856955,6.41487847092668,0.26966481110798257,-0.001601345792892794,0.00019966780529968848,0.039572087773147455,0.2729914219600811,0.10629265072046151,-0.34010594627380974,0.0004422189603593853,0.039497668451702356,0.0006899353073520293,-1.4732643493750102,0.1083772120315204,-0.1481112201558602,0.00023943852294567512,0.0011389509253808836
0.506671273338602,-0.003332904561362408,-0.014538480988922534,0.016548391471830872,0.9998598882214424,0.0024563431338160057,0.000566607367178579,0.05437408859552641,-0.008884733457681336,-0.04817453759745004,5.936844094912663e-06,0.0036437509178682166,-0.016812989735385003,-2.7855145511013202e-05,0.09084787133959854,0.06732224998489654,0.24194838282428494,-0.00031606107618726415,0.03621434223031947,1.1347011909103213,-0.021672351028365414,-1.331795604960148,0.06035038028087414,1.2110655903541794,-0.045820953374356654,-0.24041979921158793,186.83668346748476,-3.09514617490958,0.5495653815534753,0.006578217954614155,0.002631287181845651,0.01676998,0.99985616,0.00251062,0.0,-0.004133216239985644,0.03114284771215463,0.012457139084861853,0.0,0.0,0.0,0.0,-0.019567628316874135,-0.0025969763550473847,-0.0010387905420189537,0.0,0.0,0.0,0.0,0.0016317283677126525,-0.012294703473693479,-0.004917881389477391,0.0,0.0,0.0,0.0,0.04289410821487338,0.009911122515976563,0.017169768170768186,-2.484866659102636e-07,-0.00022304171286244667,0.0005668797637446603,4.477642493144259e-05,-0.05850730483551205,0.04002758116983597,0.06063167668231189,-5.936844094912663e-06,-0.0036437509178682166,0.016812989735385003,2.7855145511013202e-05,-0.11041549965647268,-0.06991922633994392,-0.24298717336630388,0.00031606107618726415,-0.03621434223031947,-1.1347011909103213,0.021672351028365414,1.3334273333278608,-0.07264508375456762,-1.2159834717436568,0.045820953374356654,0.24041979921158793,-186.83668346748476,3.09514617490958,0.21596759782900407,-2.205850788947622,-2.1196487595337747,-0.3927972667734481,1.5382096531445442,-1.359645826628397,-0.04108830559257425,-0.18663096373348906,0.15625842485371463,0.0658679114264852,-0.00027609014494541433,-0.04104926410873022,0.10252217819820399,0.48332449070498085,0.16675966354828725,-0.2716820916152163,0.00038146116383755424,0.10233824051008528,0.22135017273331484,-2.17456975828332,-2.1041855988838907,-0.4418989705094513,1.5382734031136291,-1.3542743856994408,-0.018180570362681756,-0.07941276647035567,0.21355596954698203,-0.13414927674016322,-1.7325220945320976e-05,-0.018180428229861087,0.08737699516825174,0.00859783206408199,0.06616784037225265,-0.07474217363470093,7.111289697182333e-05,0.08737564827497463,0.5007247808846048,1.6525068148373931,0.589045346797244,0.5026103720246342,0.5000001935347267,0.4999981851633729,0.5000095566121939,0.7729021786867041,0.5200809553336544,0.49850735495041515,0.5000000061333568,0.5000000969069124,0.011011581139491244,32.72622376067788,6.399123208996142,0.27553825862564724,-0.001709009617799532,0.00021249814088051175,0.03962952746886932,0.2758762732172614,0.10470027255967884,-0.33832513149594157,0.00043961111733414903,0.03955597334716364,0.0015800342325795757,-1.4112352486162307,0.10467491097320306,-0.1399116611900883,0.00023950018418538257,0.0020875555667391778
0.5072219828894345,-0.0034149688103479697,-0.01499364301242627,0.016508935754069726,0.9998603298617337,0.0024529100320876598,0.0008712298362661918,0.05505922335467982,-0.008232976482255648,-0.0455428810565832,2.6917811943879745e-06,0.0040086665208394,-0.030455528625094784,0.00016213664629620428,0.06851347591534107,0.0651756975425688,0.263165654086684,-0.00032450629005246887,0.03649156029711838,-1.364253888970978,0.018999179180721748,-2.2334395424257467,-0.214655244232774,2.1217271262399082,-0.0008445213865204725,0.027721806679890937,-249.89550798812994,4.067153020908716,0.5495230712848326,0.006889514534231933,0.002755805813692762,0.01676998,0.99985616,0.00251062,0.0,-0.004328809649508612,0.031116263386326722,0.01244650535453069,0.0,0.0,0.0,0.0,-0.01955092489232982,-0.0027198713187369726,-0.0010879485274947888,0.0,0.0,0.0,0.0,0.0017089455507307311,-0.012284208402525835,-0.004913683361010334,0.0,0.0,0.0,0.0,0.042301088395398034,0.010304483344579903,0.017749448826119032,-4.772007119457911e-07,-0.00026326395287534543,0.0008714169306695164,4.310162891923416e-05,-0.05938803300418843,0.03934923986858237,0.05798938641111388,-2.6917811943879745e-06,-0.0040086665208394,0.030455528625094784,-0.00016213664629620428,-0.08806440080767089,-0.06789556886130577,-0.2642536026141788,0.00032450629005246887,-0.03649156029711838,1.364253888970978,-0.018999179180721748,2.2351484879764776,0.20237103583024815,-2.1266408096009184,0.0008445213865204725,-0.027721806679890937,249.89550798812994,-4.067153020908716,0.215576022107064,-2.2076963459138357,-2.1181298693709993,-0.3918455557603107,1.5381555907839533,-1.3600405752573734,-0.0391575721940075,-0.18455569662133242,0.15188901627752774,0.09517110131373867,-0.005406236059090402,-0.03947486289764343,0.19307333985667557,0.2075267112156628,-0.43694085761868984,2.9303189887253476,-0.5130145914144987,0.15744012110867933,0.22118605614324263,-2.175392077895725,-2.10210287179938,-0.44293094968116076,1.5382224169811387,-1.3544420081513548,-0.016411659007219328,-0.08223196124046642,0.2082727084510497,-0.10319791717094247,-0.005098613249049889,-0.016762245191412714,0.17689113554624283,-0.281919477011075,-0.5283261095932329,3.095135956922075,-0.5081288028104568,0.1418183038448373,0.5009142469926297,1.7264225374421165,0.5913443791771212,0.5028687503682504,0.5000032503472694,0.49999798294398506,0.5000227096893961,0.795481708440573,0.520772634815831,0.49834180709459636,0.5000006859206562,0.5000001171158819,0.17366877602930658,32.77509726328415,6.578189436097172,0.8709304934817819,-0.13162728204308302,0.0009034373477818531,0.04093136149557446,0.2733797271264843,0.09473449609897147,-0.2899052369060632,-0.00722419318614464,0.040330141432315614,-0.08133070497047694,-0.5266387570306097,0.7193888899241935,-3.237050142490191,0.5097100925500158,-0.04553172457963961
0.5077803892360724,-0.0034899592753082145,-0.015423353372880977,0.016464440516691905,0.9998608706649158,0.0024491997613008652,0.001078393341045939,0.05583308996976398,-0.007524845543563029,-0.04299384579755952,4.287534765770335e-06,0.004492766160830703,-0.020710375136822418,-2.5234465817577933e-05,0.07738666150841622,0.07081309386926188,0.25490352590236753,0.00015957535713823602,0.0484099639991303,0.9745153488272367,-0.01873711121137822,0.887318559307515,0.5637396326693078,-0.8262128184316486,0.048408164719070494,1.1918403702011922,233.87692377982148,-3.7736290392099967,0.5494788059301325,0.007200539127612638,0.002880215651045044,0.01676998,0.99985616,0.00251062,0.0,-0.004524232165038727,0.031088450643699903,0.01243538025747996,0.0,0.0,0.0,0.0,-0.019533449630747296,-0.0028426589065640613,-0.0011370635626256245,0.0,0.0,0.0,0.0,0.0017860952675046499,-0.012273228371844393,-0.004909291348737757,0.0,0.0,0.0,0.0,0.04169841669406016,0.010690498402920853,0.01830356902392602,-6.91974639810411e-07,-0.0003082819681551385,0.0010785011475847597,4.3338595940077285e-05,-0.06035732213480271,0.03861329618726293,0.055429226055039485,-4.287534765770335e-06,-0.004492766160830703,0.020710375136822418,2.5234465817577933e-05,-0.09692011113916352,-0.07365575277582594,-0.25604058946499314,-0.00015957535713823602,-0.0484099639991303,-0.9745153488272367,0.01873711121137822,-0.8855324640400104,-0.5760128610411522,0.8213035270829109,-0.048408164719070494,-1.1918403702011922,-233.87692377982148,3.7736290392099967,0.21518738216404362,-2.2094547759216328,-2.116546591867317,-0.39123388774446693,1.5381530467927194,-1.3604289096230713,-0.03886399430203781,-0.1758430007797106,0.1583277503682494,0.06116680158437684,-0.0002543991233844812,-0.0388334365697772,0.02935778919696863,0.871269584162183,0.6438734090721655,-3.400429972936183,0.515183693570592,0.06414263278662338,0.22102343550986953,-2.1761794669520964,-2.0999660845838672,-0.4442803834997998,1.538222302844375,-1.3546046291335914,-0.016262063337311596,-0.078738905637141,0.21367872155130188,-0.13494338186390525,-1.141367637405197e-05,-0.016262098223660607,0.014959566990773235,0.34930556033254123,0.5406013100252183,-3.1745464692962786,0.5087199572675837,0.050014696775210754,0.501061225110335,1.8215317176779404,0.5937888767403087,0.5053134027394058,0.5000076922280222,0.4999975598646987,0.500026641950015,0.8259374380964929,0.5215712792350867,0.4984624429632466,0.5000014881630762,0.5000001011108962,-0.15983702929289767,33.03210005478436,6.179440423147253,-0.30427208621330115,0.1280137583914669,-0.00044424207385867896,0.038434072146956766,0.28660720982056587,0.11023669407147961,-0.3815673065739888,0.008142245011232205,0.03889318799319082,0.17155103207518113,-2.617604269833471,-1.1392663042134945,5.984528172009449,-1.0230758617463964,0.10159080995834104
0.5083441832181779,-0.0035581636768880717,-0.015827202238292315,0.016415820020969925,0.999861408973805,0.002445143779926028,0.0013057449413802142,0.056372667632577034,-0.0068455513668330414,-0.040404232027089364,3.4794711071170775e-06,0.004909707578072305,-0.02272856737019982,-2.612088923003089e-05,0.053957766281305386,0.06792941767299879,0.2589613770470157,-8.080636586532572e-05,0.04169414172416012,-0.20181922333774027,-8.86423412452958e-05,-2.3428895227110833,-0.2883676196263091,0.40578511446481835,-0.024038172300356174,-0.6715822274970181,-117.63345721649769,1.8648468870132926,0.5494325872368957,0.007511279456037884,0.0030045117824151423,0.01676998,0.99985616,0.00251062,0.0,-0.004719476071629694,0.031059410582273617,0.012423764232909449,0.0,0.0,0.0,0.0,-0.019515203222019977,-0.0029653342710849323,-0.0011861337084339727,0.0,0.0,0.0,0.0,0.0018631744722956934,-0.012261763815121965,-0.004904705526048785,0.0,0.0,0.0,0.0,0.04108840401871783,0.011069443132925955,0.018831714020707456,-9.792909496653124e-07,-0.0003574752912091505,0.0013057659968024097,4.358266360104307e-05,-0.06109214370420673,0.037904961949106655,0.052827996259998816,-3.4794711071170775e-06,-0.004909707578072305,0.02272856737019982,2.612088923003089e-05,-0.07347296950332537,-0.07089475194408372,-0.2601475107554497,8.080636586532572e-05,-0.04169414172416012,0.20181922333774027,8.86423412452958e-05,2.344752697183379,0.27610585581118713,-0.4106898199908671,0.024038172300356174,0.6715822274970181,117.63345721649769,-1.8648468870132926,0.21481067020749212,-2.211157494981255,-2.114958803528245,-0.39064161671851066,1.5381504430484683,-1.3608052919240725,-0.03767119565515173,-0.17027190596224406,0.15877883390722247,0.05922710259562892,-0.00026037442511913695,-0.03763823010013427,0.11927986468860778,0.5571094817466548,0.04510835389730661,-0.19396989887479174,-0.0005975301734655724,0.11952064696429295,0.2208711554564236,-2.1769616813919113,-2.0978337310551862,-0.44563055665554896,1.5382221940845011,-1.3547569094359038,-0.015228005344590644,-0.078221443981493,0.21323535286811499,-0.13501731557491584,-1.0875987370801624e-05,-0.015228030231242879,0.1034057992720952,0.051746165564800495,-0.04433686831868955,-0.007393371101058199,5.376890032503465e-05,0.10340679924177275,0.5012551619788838,1.9005142135737436,0.5958997837136586,0.5066235381930473,0.5000077194985088,0.4999971959940256,0.5000360930585499,0.8527298707857508,0.5222858673746118,0.4984198062388662,0.5000014890175698,0.5000001020736856,0.012330073065532028,33.008476943008404,6.3468303017196,0.2834831200810287,-0.0021154082172868778,0.0002399656745580474,0.03972347137916305,0.2852717806493947,0.10040281335967131,-0.33334051290782285,0.0004171463809714967,0.039659011350682144,-0.08077932496582835,-0.5142357398460911,0.7147678476808078,-3.177714269932695,0.5150735027288404,-0.04514545828582531
0.5089129146550175,-0.0036194513849111295,-0.016201105811441546,0.01636232427645805,0.9998619375734401,0.002440710893832539,0.0015566202140580893,0.056867241137041294,-0.006153134724383343,-0.03740567463600305,2.5753289337883644e-06,0.005402381627185288,-0.025080156471410764,-2.455502496319026e-05,0.04945735044642602,0.06924166424496989,0.2998557391086315,-9.041421733287131e-05,0.0492674049112983,-0.23515891012109436,0.0001565864266840633,-0.45004158348793677,0.13122465719710985,4.0894362061615785,-0.000960785146754559,0.7573263187138184,-3.3339686783354083,0.02452287679293591,0.5493844170297569,0.007821723252011572,0.003128689300804618,0.01676998,0.99985616,0.00251062,0.0,-0.004914533661386387,0.031029144348499783,0.012411657739399914,0.0,0.0,0.0,0.0,-0.019496186386484832,-0.0030878925692862445,-0.0012351570277144975,0.0,0.0,0.0,0.0,0.0019401801221488352,-0.012249815184959618,-0.004899926073983847,0.0,0.0,0.0,0.0,0.0404715023747394,0.011441174636922702,0.019329795112246164,-1.359019206503831e-06,-0.00041160205797553817,0.0015565452155061063,4.380906587571039e-05,-0.06178177479842768,0.03718227907288313,0.049817332375402965,-2.5753289337883644e-06,-0.005402381627185288,0.025080156471410764,2.455502496319026e-05,-0.06895353683291085,-0.07232955681425612,-0.301090896136346,9.041421733287131e-05,-0.0492674049112983,0.23515891012109436,-0.0001565864266840633,0.45198176361008563,-0.14347447238206948,-4.094336132235562,0.000960785146754559,-0.7573263187138184,3.3339686783354083,-0.02452287679293591,0.21444629454840014,-2.2127948562278954,-2.113370127281019,-0.39006794061272493,1.5381478726673645,-1.3611693633091293,-0.03643756590919877,-0.16373612466401927,0.15886762472262977,0.057367610578573945,-0.00025703811036811007,-0.0364071385056891,0.12336297459529587,0.6535781298224785,0.008879081540730138,-0.18594920170549695,0.00033363147510269073,0.12310915944451678,0.22072961449655454,-2.1777371553099845,-2.095709284519226,-0.4469795614906009,1.5382220914626559,-1.3548984505866513,-0.014154095986907828,-0.07754739180730963,0.21244465359604808,-0.13490048350519399,-1.0262184520799972e-05,-0.014154115074746572,0.10739093576828153,0.06740521741833705,-0.07906992720669026,0.011683206972185056,6.138028500016516e-05,0.10739151564963072,0.5014655805826601,1.9830072411310957,0.5978826912196297,0.5080274880641272,0.5000077504947363,0.4999967979110723,0.5000462425946433,0.8823524294682323,0.5229957187681183,0.49838161300152245,0.5000014901060569,0.5000001020435509,-0.0073030423536320395,33.23742694085402,6.367409771017937,0.30164513052767794,-0.00214153749460954,0.0002709479232679806,0.03972386211352065,0.2883975346324128,0.09910850009245888,-0.3318541279778401,0.0004289059230417913,0.03965320253838374,0.005029124525480861,-0.9529090885261079,0.09219626353022042,-0.09863656549278224,-0.0007214630070396418,0.006259797638508885
0.5094851239200444,-0.003673931342887628,-0.016547255285435422,0.016304401615636063,0.9998624342497012,0.002435937477490225,0.0018290086997245953,0.057215636763238764,-0.005471568309890583,-0.03462650545209144,1.7133900692491504e-06,0.005849834120707005,-0.027230752033123293,-2.2710107965062676e-05,0.03483956261974702,0.06815664144927593,0.2779169183911606,-8.619388645392141e-05,0.04474524935217175,-0.21505955617125289,0.00018449169981275826,-1.4617787826678996,-0.10850227956939601,-2.1938820717470886,0.00042203308789499005,-0.45221555591265505,2.0099353949841468,0.002790527312869495,0.5493342972103934,0.00813185825974421,0.003252743303897673,0.01676998,0.99985616,0.00251062,0.0,-0.005109397233769161,0.03099765313723747,0.012399061254894988,0.0,0.0,0.0,0.0,-0.019476399874893968,-0.0032103289627762412,-0.0012841315851104963,0.0,0.0,0.0,0.0,0.0020171091770128757,-0.01223738295306881,-0.004894953181227524,0.0,0.0,0.0,0.0,0.03984917329034898,0.011805789602631837,0.019799998589333095,-1.8457604853416854e-06,-0.0004702085804328356,0.0018288291491187136,4.401509311831458e-05,-0.06232503399700792,0.03646922144712805,0.04702556670698643,-1.7133900692491504e-06,-0.005849834120707005,0.027230752033123293,2.2710107965062676e-05,-0.05431596249464099,-0.07136697041205217,-0.2792010499762711,8.619388645392141e-05,-0.04474524935217175,0.21505955617125289,-0.00018449169981275826,1.4637958918449125,0.0962648966163272,2.188987118565861,-0.00042203308789499005,0.45221555591265505,-2.0099353949841468,-0.002790527312869495,0.21409463512118432,-2.214370453611504,-2.111783725975639,-0.3895102349840056,1.538145337428188,-1.361520749401548,-0.035165942721582445,-0.15755973836088047,0.1586401305379712,0.055770562871929115,-0.0002535239176598723,-0.035138609241865286,0.1271623187616322,0.617638630313879,-0.022749418465855542,-0.1597047706644828,0.00035141927082377265,0.1268529263823812,0.22059916624162457,-2.1785048711182124,-2.093595531202705,-0.44832562914056756,1.5382219956411982,-1.3550288990080641,-0.013044825492998187,-0.07677158082278558,0.2113753316520796,-0.13460676499666369,-9.582145761092438e-06,-0.01304484214128827,0.11092704939096414,0.07758109845240474,-0.10693219439684709,0.029371850853029957,6.800387597075342e-05,0.11092729334583017,0.5016956104181465,2.062157698135064,0.5997043590731652,0.5095839245452751,0.5000077842428545,0.49999636126349056,0.5000575912818972,0.9127632565884846,0.523691894835405,0.49835006391435105,0.5000014913915098,0.5000001003974,0.0069730684699251325,33.216441931571005,6.330191528277533,0.2907042328491555,-0.0020124699644226336,0.0002485005743030467,0.03971542173611375,0.29060874553916644,0.09792888653538293,-0.33022544585140656,0.000426777459143748,0.03964568886888854,0.0055176609005929385,-0.6336509520826795,0.08565160116859433,-0.10860953469738521,0.000203763247393204,0.006343087335225031
0.5100600141703222,-0.003721592404611461,-0.016864563501142835,0.01624187619472254,0.9998628816549602,0.002430809647032905,0.0021237963118728807,0.05748422951002041,-0.004788853997700112,-0.03173848709379784,8.208760886755085e-07,0.006315092174335183,-0.029469904316248387,-2.0777232141576396e-05,0.026859274678164846,0.06827143121904715,0.2888018358293602,-8.925139805736419e-05,0.04652580536281779,-0.2239152283125094,0.00019328758234862797,-0.7980287941582176,0.011478976977122302,1.0884917438199582,-0.0003057511603442778,0.17805560106460422,-0.8855672141256515,0.0008795882535869715,0.5492822297574499,0.008441672235636724,0.0033766688942546788,0.01676998,0.99985616,0.00251062,0.0,-0.005304059095897835,0.030964938191705784,0.012385975276682313,0.0,0.0,0.0,0.0,-0.01945584446838498,-0.003332638617975751,-0.0013330554471903003,0.0,0.0,0.0,0.0,0.0020939585998604525,-0.012224467610252773,-0.004889787044101109,0.0,0.0,0.0,0.0,0.039222215587127685,0.012163264640248184,0.020241232395397515,-2.4598436730860485e-06,-0.0005334726103418756,0.002123503375058826,4.4199726893118195e-05,-0.06278828860591824,0.03575379218940589,0.04412446237048015,-8.208760886755085e-07,-0.006315092174335183,0.029469904316248387,2.0777232141576396e-05,-0.04631511914654983,-0.0716040698370229,-0.2901348912765505,8.925139805736419e-05,-0.04652580536281779,0.2239152283125094,-0.00019328758234862797,0.8001227527580781,-0.023703444587375076,-1.0933815308640593,0.0003057511603442778,-0.17805560106460422,0.8855672141256515,-0.0008795882535869715,0.213756019317925,-2.215881160786727,-2.1102026478216103,-0.38896678211906743,1.5381428344723034,-1.3618591245765175,-0.033861580325931555,-0.15107071752231518,0.15810781540289598,0.054345286493819506,-0.00025029558846571224,-0.03383751749694734,0.1304362395650888,0.6489020838565291,-0.053231513507524364,-0.14252763781096062,0.0003228329194160098,0.13010917449179446,0.2204801077078431,-2.1792636854370797,-2.0914952328962517,-0.4496671409998372,1.5382219071849077,-1.3551479577104464,-0.011905853378148028,-0.07588143188673639,0.21002983064532105,-0.13415118592696335,-8.84562904841087e-06,-0.011905870238223835,0.11389721148501591,0.08901489360491899,-0.1345501006758565,0.045557906970034034,7.365167126815677e-05,0.11389719030644348,0.5019431447956761,2.1400956390279746,0.6013776792505866,0.5112801145002546,0.5000078204987284,0.49999588975037307,0.5000698027276679,0.9448657701356826,0.5243762550454547,0.4983230716105636,0.5000014928451335,0.5000000976704301,0.0033682723063631972,33.32236995401324,6.326699025973447,0.29548804082972696,-0.002085818593635264,0.00025984353043287904,0.03969391509166675,0.29360472970227336,0.09679623325877873,-0.3287524413249179,0.00042444606274705347,0.03962559771114535,0.00628512024774233,-0.6048277704875438,0.08404609766514488,-0.09366706134627312,0.00021659765634597896,0.007149239363600596
0.5106366189660475,-0.003762482135372399,-0.017153267474109377,0.0161748464764487,0.9998632584842491,0.0024253357903469734,0.00244057801086776,0.05765602587502301,-0.004110870221772773,-0.028874226374013975,-6.805220704988112e-08,0.00677045008839928,-0.03166855826428134,-1.8684136057829648e-05,0.017179636500259943,0.0677983775927339,0.2864260719783865,-8.889282957253896e-05,0.0455357914064097,-0.21986539480329526,0.00020930960837467483,-0.9679638177904903,-0.04730536263132523,-0.2375763850973711,3.5856848482522595e-05,-0.09900139564080965,0.4049833509214146,0.0016022026026046854,0.5492282167264603,0.008751152948763833,0.003500461179505522,0.01676998,0.99985616,0.00251062,0.0,-0.005498511562855406,0.03093100080343475,0.0123724003213739,0.0,0.0,0.0,0.0,-0.01943452097845012,-0.003454816706309014,-0.0013819266825236055,0.0,0.0,0.0,0.0,0.002170725356807937,-0.012211069666387124,-0.004884427866554849,0.0,0.0,0.0,0.0,0.038591597760412766,0.012513635084136231,0.020653728653614898,-3.2208983962167537e-06,-0.0006012943249498028,0.0024401630184899756,4.436131953814324e-05,-0.06315453743787841,0.03504187102520752,0.041246626695387874,6.805220704988112e-08,-0.00677045008839928,0.03166855826428134,1.8684136057829648e-05,-0.036614157478710066,-0.07125319429904291,-0.2878079986609101,8.889282957253896e-05,-0.0455357914064097,0.21986539480329526,-0.00020930960837467483,0.9701345431472983,0.03509429296493811,0.23269195723081626,-3.5856848482522595e-05,0.09900139564080965,-0.4049833509214146,-0.0016022026026046854,0.2134307268499601,-2.217326642974511,-2.108629632999593,-0.38843601906373393,1.538140363237283,-1.3621842123864196,-0.03252924679649277,-0.14454821877839558,0.15730148220173648,0.053076305533348814,-0.00024712350204534656,-0.03250878099022368,0.13323335294387828,0.652249874391962,-0.08063332011595081,-0.12689809604706923,0.00031720864203656565,0.13287365067236578,0.22037269122414155,-2.180012660121013,-2.0894108215810023,-0.45100260306469364,1.538221826577417,-1.3552553743858373,-0.010741648370156384,-0.07489746839333924,0.20844113152494437,-0.13354620648564805,-8.060749077895155e-06,-0.010741667539097367,0.11642050079916436,0.0983963493397147,-0.15886991203766798,0.060497944131529535,7.84879970515715e-05,0.11642026991264681,0.5022087210517829,2.2146299115301886,0.6029023234489507,0.5131221767789179,0.5000078594136972,0.4999953821238564,0.5000830195072451,0.9780384492000418,0.5250484868284162,0.49830201666903023,0.5000014945009964,0.5000000935072881,0.0064372988143096554,33.37411515691216,6.3120102764676025,0.2932968510264393,-0.0020599158247695585,0.00025635977458267193,0.03966045270710902,0.29632240948140465,0.09574401701209656,-0.3273194773085942,0.0004225976814079817,0.039593484475342625,0.006986917965351604,-0.40076904066188046,0.07977696845979389,-0.08687035608137088,0.00018378542455192902,0.007916517124914401
0.511214090389818,-0.0037966424866977956,-0.01741329363366724,0.01610334672166977,0.9998635426822972,0.0024195191259062656,0.0027792384509252297,0.05774288267627381,-0.003437064845167571,-0.026002641106065066,-9.597425595070646e-07,0.007222387362340377,-0.03385567588875295,-1.6464053314095214e-05,0.008685680125079809,0.06738053766052018,0.2871585267948909,-8.916903524571834e-05,0.04519372739410967,-0.21871176244716087,0.00022200827437344334,-0.8493956375180134,-0.04178399322137122,0.07324548165044131,-2.762056731793835e-05,-0.034206401230002514,0.11536323561343875,0.001269866599876851,0.5491722602497665,0.009060288181356898,0.0036241152725427477,0.01676998,0.99985616,0.00251062,0.0,-0.005692746957991434,0.030895842312214362,0.012358336924885745,0.0,0.0,0.0,0.0,-0.019412430246904266,-0.003576858404394306,-0.0014307433617577222,0.0,0.0,0.0,0.0,0.0022474064172352125,-0.012197189650399745,-0.004878875860159899,0.0,0.0,0.0,0.0,0.03795816985994849,0.012856930668054694,0.02103740890620999,-4.150394118940248e-06,-0.0006736388088736088,0.0027786927822617416,4.44985320165865e-05,-0.06343562963426524,0.03433290715738193,0.038360978030950815,9.597425595070646e-07,-0.007222387362340377,0.03385567588875295,1.6464053314095214e-05,-0.028098110371984075,-0.0709573960649145,-0.28858927015664865,8.916903524571834e-05,-0.04519372739410967,0.21871176244716087,-0.00022200827437344334,0.8516430439352486,0.029586803570971473,-0.0781243575106012,2.762056731793835e-05,0.034206401230002514,-0.11536323561343875,-0.001269866599876851,0.21311899409176038,-2.2187059992258,-2.1070672471797236,-0.38791652860747194,1.5381379220821925,-1.3624957790908916,-0.03117327581997041,-0.13793562512890384,0.15623858198692492,0.051949045626195886,-0.000244115509060664,-0.031156670447202234,0.13559709765223593,0.6612593649491731,-0.10629002148115674,-0.11272599071529266,0.00030079929846825535,0.1352110543021447,0.22027712425040671,-2.1807508865468743,-2.087344571383673,-0.45233064968814585,1.53822175422712,-1.3553509415908003,-0.009556697373484663,-0.07382264258614445,0.2066250197329184,-0.13280466234522034,-7.235029714792954e-06,-0.009556720496296411,0.11849509966717214,0.10748258071947986,-0.1816111792025954,0.07415441404277079,8.257193631022009e-05,0.11849470428009559,0.5024918167169712,2.2855882457939365,0.6042829966992875,0.5151078843990646,0.5000079009617794,0.49999483936953415,0.5000972471039861,1.012378931504337,0.5257087693501591,0.498287223976697,0.5000014963724055,0.5000000878306142,0.0075432377972419785,33.435933789419,6.302113574236031,0.29268005702423516,-0.002050175101320657,0.00025640093810359003,0.03961542740862814,0.2989941581409015,0.0947494857192819,-0.32592469384386774,0.00042087732605406537,0.03954994410241968,0.007661666045607475,-0.2488078684388938,0.07706441956028401,-0.08020391700010152,0.0001746635948928389,0.008642411534283781
0.5117915509394425,-0.0038241401709405262,-0.017645071869310455,0.01602751323411863,0.9998637107388562,0.0024133711467469207,0.003139172942527858,0.05774183936203957,-0.002769919282644243,-0.02317415677413813,-1.8407251338515811e-06,0.007660592460732337,-0.035982339734588545,-1.4106196908577825e-05,-0.00010433142342419766,0.06671455625233279,0.28284843319269365,-8.809825743445164e-05,0.043820509839196005,-0.2126663845835597,0.0002357856405517389,-0.8790011548504006,-0.06659814081873966,-0.43100936021972514,0.00010707778112667036,-0.13732175549136666,0.6045377863601181,0.0013777366178295558,0.5491143625364344,0.009369065729286263,0.0037476262917144937,0.01676998,0.99985616,0.00251062,0.0,-0.005886757613225106,0.030859464106041637,0.012343785642416656,0.0,0.0,0.0,0.0,-0.019389573145851664,-0.0036987588942343553,-0.0014795035576937422,0.0,0.0,0.0,0.0,0.0023239987539053117,-0.012182828110249904,-0.004873131244099962,0.0,0.0,0.0,0.0,0.03732281159699191,0.013193205900226788,0.02139269816102495,-5.269523042139568e-06,-0.0007503678655743372,0.003138488213304125,4.460995455128109e-05,-0.06362859697526467,0.03362938338868588,0.03551794241655479,1.8407251338515811e-06,-0.007660592460732337,0.035982339734588545,1.4106196908577825e-05,-0.019285241722427467,-0.07041331514656714,-0.28432793675038737,8.809825743445164e-05,-0.043820509839196005,0.2126663845835597,-0.0002357856405517389,0.881325153604306,0.05441531270848975,0.4261362289756252,-0.00010707778112667036,0.13732175549136666,-0.6045377863601181,-0.0013777366178295558,0.2128210179186878,-2.220019423430282,-2.1055178277384945,-0.38740702553827744,1.5381355095683493,-1.3627936306955593,-0.029797617307259838,-0.13134242044823688,0.15494194412290987,0.05095030691944932,-0.00024125138431820698,-0.029785160466756215,0.13756585127105722,0.6593204680666965,-0.1296637864015041,-0.09987387067465625,0.0002864124742457015,0.13715099804460185,0.22019357482361154,-2.1814775660567514,-2.085298533456238,-0.4536500282548594,1.538221690476005,-1.3554344913011513,-0.008354942679516562,-0.07266795098769635,0.2046037927434833,-0.1319378566713553,-6.375111477809923e-06,-0.008354971035116916,0.1201754693968101,0.1154691598448096,-0.20212269894351043,0.08668056738650454,8.599182369830314e-05,0.12017494611794959,0.5027921700692966,2.352178992255288,0.6055231488721081,0.5172370652344861,0.5000079451700223,0.499994261991931,0.5001125610373277,1.0477107818803075,0.5263570002338095,0.498279569337259,0.50000149848286,0.5000000804231112,0.010997391407764798,33.47584804886943,6.288945562025038,0.2894226585590177,-0.0020004001491072225,0.00025092284264226846,0.03955938576333453,0.3014375516907028,0.09382036771623675,-0.32456427736932414,0.0004194382992895831,0.03949542036068812,0.008302689351131329,-0.07335652703670084,0.0736429920404057,-0.07401368207140882,0.00015537108232191137,0.00933707429436205
0.5123681570551386,-0.0038450518789005113,-0.017849149450141863,0.015947504768361317,0.9998637386668755,0.0024069051760504984,0.00351965882362477,0.05765629713581978,-0.0021104367998051187,-0.020400538531344832,-2.7070885211520255e-06,0.00808279172835591,-0.03803675837238446,-1.1624154005282494e-05,-0.008554222621978691,0.06594824828391245,0.27736182427932976,-8.663633873004444e-05,0.042219926762357245,-0.20544186377959156,0.0002482042903295331,-0.8449891198554493,-0.07663079684203378,-0.5486608913363888,0.00014619187044072048,-0.16005830768387602,0.7224520803968126,0.0012418649777794222,0.5490545258721667,0.009677473402543045,0.0038709893610172066,0.01676998,0.99985616,0.00251062,0.0,-0.006080535869347952,0.030821867621065875,0.012328747048426349,0.0,0.0,0.0,0.0,-0.01936595057765153,-0.00382051336340655,-0.00152820534536262,0.0,0.0,0.0,0.0,0.0024004993430839297,-0.012167985612906614,-0.0048671942451626446,0.0,0.0,0.0,0.0,0.03668636881702814,0.013522525281443556,0.02172013881115907,-6.599573005861004e-06,-0.0008313205467290612,0.00351882692865686,4.4694324682844286e-05,-0.06373683300516773,0.03293230442087099,0.03272928557977118,2.7070885211520255e-06,-0.00808279172835591,0.03803675837238446,1.1624154005282494e-05,-0.01081172795567284,-0.069768761647319,-0.2788900296246924,8.663633873004444e-05,-0.042219926762357245,0.20544186377959156,-0.0002482042903295331,0.8473896191985333,0.06446281122912717,0.5437936970912262,-0.00014619187044072048,0.16005830768387602,-0.7224520803968126,-0.0012418649777794222,0.2125369582604438,-2.2212674042013885,-2.1039835280525683,-0.38690635284504515,1.5381331239139169,-1.3630776099041524,-0.028405965824398555,-0.12479807711061323,0.1534299685926273,0.05006726932323057,-0.00023856544324239254,-0.02839792085932211,0.13916514828612833,0.6544343337623645,-0.151197553028257,-0.08830375962187492,0.00026859410758144336,0.13872396074341053,0.22012217385832475,-2.1821919616727814,-2.083274586857591,-0.454959596583087,1.5382216356051952,-1.3555058926121866,-0.007140096528680789,-0.07143956160298949,0.20239465986472374,-0.13095683282275775,-5.487080983109169e-06,-0.007140131103532482,0.1214846150835773,0.122838938470686,-0.22091328787595677,0.09810238485975509,8.880304947007543e-05,0.12148399315844334,0.5031091253303345,2.4141408479365203,0.6066280433434751,0.5195064603333565,0.500007992011588,0.4999936513432654,0.5001289936202497,1.084060660065023,0.5269932245635455,0.49827960402775223,0.5000015008498949,0.500000071154857,0.0147476992893864,33.50908956139396,6.276181795650726,0.2855336265676848,-0.0019370539405534064,0.0002442091408366586,0.0394926491765413,0.30372047426090687,0.09294836581881645,-0.32323631473450826,0.0004182424232721261,0.03943025977673373,0.008924368325221121,0.07225666935692404,0.07071302865679652,-0.0681272740858582,0.00013866677644699672,0.010007054416620156
0.5129430772715562,-0.0038594677908075823,-0.01802631053123556,0.015863525679472246,0.9998636024386581,0.0024001382906448034,0.003919745858011079,0.05748747606613824,-0.0014599700925758048,-0.017705515054886455,-3.552191727218668e-06,0.008484372588347784,-0.039996183763871,-9.02195605235849e-06,-0.016882106968153787,0.06504667072293138,0.26950234764583775,-8.451032060666425e-05,0.04015808599918749,-0.19594253914865384,0.0002602197952924004,-0.8327884346175096,-0.09015775609810678,-0.7859476633492013,0.00021260181233801834,-0.2061840763169752,0.9499324630937722,0.0012015504962867296,0.5489927526192123,0.009985499025720383,0.0039941996102881416,0.01676998,0.99985616,0.00251062,0.0,-0.006274074076326221,0.030783054341531918,0.012313221736612768,0.0,0.0,0.0,0.0,-0.019341563474882414,-0.003942117005252924,-0.0015768468021011694,0.0,0.0,0.0,0.0,0.0024769051646587967,-0.012152662744326252,-0.0048610650977305,0.0,0.0,0.0,0.0,0.03604967534765613,0.013844966816527965,0.022020510141523703,-8.161098347225781e-06,-0.0009162897380317758,0.003918759055476912,4.475044315753815e-05,-0.06376155014246446,0.032243024434107724,0.030018736791499225,3.552191727218668e-06,-0.008484372588347784,0.039996183763871,9.02195605235849e-06,-0.0024594565067286266,-0.0689887877281843,-0.27107919444793893,8.451032060666425e-05,-0.04015808599918749,0.19594253914865384,-0.0002602197952924004,0.8352653397821684,0.07800509335378053,0.7810865982514708,-0.00021260181233801834,0.2061840763169752,-0.9499324630937722,-0.0012015504962867296,0.2122669409347151,-2.222450966230548,-2.1024663115256153,-0.3864134704963214,1.5381307633033543,-1.3633475934685935,-0.02700173257287112,-0.11835620291594426,0.15172165269528104,0.04928823487237458,-0.00023606105625026698,-0.02699835644410871,0.1404233251527435,0.6441874194668981,-0.17083158973462625,-0.07790344508559899,0.00025043869921255544,0.13995644152134004,0.22006301867652936,-2.1828934151544614,-2.081274431102019,-0.45625831331722366,1.5382215898406648,-1.3555650482094024,-0.00591551817953986,-0.07014534816800876,0.2000155755571574,-0.1298716734136693,-4.576453043501163e-06,-0.005915559721579703,0.12245783491409284,0.12942134349807344,-0.2379084307566337,0.10851594090884598,9.106279396080054e-05,0.12245713819527791,0.503441950657668,2.471124616340736,0.6076032849595039,0.5219121422194639,0.5000080414568241,0.4999930089811432,0.5001465805514829,1.1213910912552512,0.5276174805877688,0.49828790355982056,0.5000015034916445,0.5000000598927351,0.019439355493115394,33.53097719234557,6.262604564129917,0.28041914150936986,-0.0018520451767667285,0.0002349520508844283,0.039415681663529004,0.30582263851134056,0.09213314934194156,-0.3219376006640685,0.00041733440487136224,0.03935488341059469,0.009518680227647966,0.2045203462173023,0.06768354339278525,-0.06271628916236872,0.00011903218490766921,0.010647458281033785
0.5135155091272421,-0.0038674869759916406,-0.018177464145039193,0.01577580256267144,0.9998632785344318,0.00239308944093511,0.004338365453558988,0.057238290091134666,-0.0008194115149572041,-0.015101597234338689,-4.372244895795598e-06,0.008863081729803018,-0.04184878641407376,-6.30915020375343e-06,-0.024918597500357687,0.06405585776186007,0.2603917820547766,-8.200531685769297e-05,0.03787091414552343,-0.18526026502027615,0.000271280584860506,-0.8036490532203899,-0.09908129610713134,-0.9110565591061159,0.00025050037489712844,-0.22871718536640606,1.068227412837769,0.0011060789568105578,0.5489290452162736,0.0102931304384941,0.004117252175397628,0.01676998,0.99985616,0.00251062,0.0,-0.006467364593602891,0.03074302579972159,0.012297210319888638,0.0,0.0,0.0,0.0,-0.01931641280030537,-0.0040635650190699165,-0.0016254260076279663,0.0,0.0,0.0,0.0,0.0025532132022589036,-0.012136860109429437,-0.004854744043771775,0.0,0.0,0.0,0.0,0.03541353608903153,0.014160617414485741,0.022294716320436822,-9.97376788047788e-06,-0.001005045799601041,0.00433721640643935,4.477722351531346e-05,-0.06370565468473756,0.031562437314678796,0.027398807554227328,4.372244895795598e-06,-0.008863081729803018,0.04184878641407376,6.30915020375343e-06,0.005602184700052318,-0.06811942278092999,-0.2620172080624045,8.200531685769297e-05,-0.03787091414552343,0.18526026502027615,-0.000271280584860506,0.8062022664226488,0.08694443599770191,0.9062018150623442,-0.00025050037489712844,0.22871718536640606,-1.068227412837769,-0.0011060789568105578,0.21201105999119008,-2.223571435487795,-2.1009679703287216,-0.38592744817312685,1.5381284258442594,-1.3636034897275269,-0.025588094352502703,-0.11204692572470178,0.14983411968937713,0.048602232319453424,-0.00023374590950268754,-0.02558962589334587,0.14136382203684167,0.6309277191242479,-0.18875330059039108,-0.06860025529211577,0.00023151467475794347,0.14087305507628378,0.22001617561083583,-2.183581331530949,-2.079299606507859,-0.45754523304553707,1.5382215533577148,-1.35561189176571,-0.0046843065693519086,-0.06879163764878538,0.1974824594160251,-0.12869197283134104,-3.648294989435917e-06,-0.004684355630778757,0.12312116101879517,0.13537105192233806,-0.2533116141132302,0.11797005823282469,9.281580540652465e-05,0.12312040908009463,0.5037897414749469,2.522914278665294,0.6084552161610476,0.5244487715655022,0.5000080934555517,0.49999233685131844,0.5001653424795227,1.159708026660425,0.5282298501081685,0.49830493258712216,0.5000015064242181,0.500000046535748,0.02448562070629165,33.545962975538274,6.249224798302492,0.27466958671834785,-0.0017531017743672747,0.00022438516549724277,0.03932891295374075,0.3077646184432382,0.09137037986586097,-0.32066572352441525,0.00041671319189743694,0.03926970755261766,0.01008833685127874,0.3124344668691852,0.06485771578926354,-0.05774992984895119,9.951751283949109e-05,0.011258679502658166
